looks/Brejon_A1_TLog_EGamut2_v014_65.cube
# The Brejon Look Modification Transform
# Brejon for ACES 1.3 v014 - A pleasing, colorful and natural look for ACES 1.3
# Created by Chris Brejon - chrisbrejon.com - 2026-02-25 10:10:58
# 3 columns rgb, 274625 rows
# Width     65 65 65
# Process Color Space = TLog - Egamut2
# LUT size
LUT_3D_SIZE 5
0.058720 0.058720 0.058720
0.253670 0.070942 0.057491
0.472893 0.262127 0.198826
0.660944 0.508779 0.437835
0.896431 0.755294 0.684868
0.068227 0.195577 0.066086
0.248016 0.247857 0.066648
0.473523 0.305871 0.205937
0.661186 0.510703 0.438515
0.896454 0.755411 0.684917
0.228686 0.458446 0.177381
0.283710 0.461801 0.183223
0.481914 0.478772 0.254410
0.664612 0.535132 0.447545
0.896784 0.757084 0.685613
0.524090 0.694896 0.475243
0.526489 0.694981 0.475593
0.555636 0.696219 0.479898
0.702922 0.695915 0.514930
0.901568 0.779675 0.695251
0.780336 0.940069 0.736156
0.780477 0.940076 0.736176
0.782492 0.940176 0.736458
0.808556 0.941692 0.739992
0.949218 0.941563 0.766485
0.058620 0.081261 0.252072
0.255211 0.086949 0.256004
0.473204 0.263014 0.276805
0.661127 0.508903 0.442407
0.896450 0.755306 0.685142
0.091310 0.245832 0.243450
0.258463 0.258463 0.258463
0.473908 0.306221 0.279278
0.661369 0.510827 0.443053
0.896473 0.755423 0.685190
0.236783 0.461184 0.261949
0.288445 0.464091 0.265934
0.482590 0.479574 0.301522
0.664785 0.535244 0.451658
0.896802 0.757096 0.685884
0.524283 0.694922 0.479926
0.526674 0.695007 0.480262
0.555727 0.696254 0.484347
0.703001 0.696016 0.517241
0.901585 0.779686 0.695497
0.780346 0.940071 0.736425
0.780488 0.940078 0.736445
0.782501 0.940179 0.736726
0.808561 0.941695 0.740250
0.949224 0.941571 0.766629
0.205128 0.281315 0.476492
0.279247 0.273814 0.477860
0.479886 0.314570 0.481876
0.663866 0.510610 0.492027
0.896711 0.755467 0.689008
0.217850 0.321418 0.476553
0.284457 0.316929 0.477931
0.480670 0.341173 0.482324
0.664095 0.512526 0.492394
0.896734 0.755584 0.689055
0.315180 0.480949 0.477559
0.341674 0.481491 0.478903
0.487491 0.487491 0.487491
0.667353 0.536827 0.497368
0.897062 0.757257 0.689723
0.527061 0.695347 0.529193
0.529343 0.695432 0.529420
0.557158 0.696750 0.531986
0.704140 0.697461 0.545617
0.901823 0.779837 0.698986
0.780493 0.940112 0.740217
0.780634 0.940119 0.740236
0.782642 0.940219 0.740508
0.808631 0.941745 0.743889
0.949314 0.941682 0.768682
0.450392 0.531346 0.695956
0.455864 0.530937 0.696118
0.511925 0.525791 0.698233
0.701516 0.565438 0.703964
0.900678 0.757740 0.734554
0.451362 0.533661 0.695986
0.456772 0.533265 0.696148
0.512371 0.528285 0.698263
0.701612 0.566815 0.704029
0.900699 0.757857 0.734583
0.464398 0.561790 0.696410
0.469036 0.561533 0.696570
0.518599 0.558240 0.698693
0.702977 0.584546 0.704997
0.901003 0.759527 0.735002
0.564134 0.707060 0.704638
0.565576 0.707093 0.704732
0.584137 0.707609 0.706051
0.715103 0.715103 0.715103
0.905424 0.782021 0.740888
0.782712 0.940774 0.783452
0.782848 0.940781 0.783466
0.784782 0.940880 0.783667
0.809811 0.942466 0.785981
0.950640 0.943353 0.795303
0.702560 0.783391 0.942572
0.702911 0.783366 0.942584
0.707818 0.783001 0.942752
0.761293 0.778240 0.945038
0.948712 0.816270 0.951198
0.702624 0.783537 0.942575
0.702974 0.783511 0.942587
0.707878 0.783147 0.942755
0.761323 0.778396 0.945041
0.948719 0.816358 0.951203
0.703543 0.785606 0.942612
0.703890 0.785581 0.942624
0.708741 0.785229 0.942792
0.761761 0.780620 0.945078
0.948819 0.817612 0.951273
0.716394 0.812106 0.943164
0.716691 0.812090 0.943175
0.720860 0.811859 0.943341
0.768118 0.808794 0.945627
0.950300 0.834522 0.952350
0.814681 0.954709 0.952527
0.814774 0.954712 0.952533
0.816098 0.954748 0.952627
0.833931 0.955324 0.953994
0.963330 0.963330 0.963330
