looks/Brejon_A1_TLog_EGamut2_v011_65.cube
# The Brejon Look Modification Transform
# Brejon for ACES 1.3 v011 - A pleasing, colorful and natural look for ACES 1.3
# Created by Chris Brejon - chrisbrejon.com - 2026-02-17 12:53:04
# 3 columns rgb, 274625 rows
# Width     65 65 65
# Process Color Space = TLog - Egamut2
# LUT size
LUT_3D_SIZE 9
0.016184 0.016184 0.016184
0.129252 0.015909 0.025024
0.252901 0.031708 0.010962
0.373222 0.116679 0.015756
0.473193 0.249865 0.126974
0.565593 0.382082 0.287543
0.665814 0.506430 0.425912
0.779989 0.629626 0.553954
0.901650 0.753917 0.679630
0.037727 0.068217 0.037659
0.128695 0.120091 0.022213
0.254021 0.136987 0.017895
0.373551 0.174907 0.023793
0.473320 0.263541 0.132037
0.565688 0.384564 0.288533
0.665869 0.506948 0.426142
0.780008 0.629752 0.554012
0.901655 0.753949 0.679645
0.035971 0.190485 0.033714
0.113798 0.211110 0.027479
0.250926 0.241123 0.031903
0.374688 0.259155 0.052471
0.473750 0.297350 0.146864
0.565994 0.392146 0.291659
0.666045 0.508601 0.426883
0.780069 0.630154 0.554201
0.901673 0.754051 0.679694
0.081340 0.326349 0.057283
0.141617 0.331668 0.054757
0.239789 0.345415 0.046887
0.375335 0.365526 0.110422
0.475620 0.369165 0.190327
0.567199 0.416821 0.302897
0.666722 0.514762 0.429699
0.780304 0.631698 0.554931
0.901739 0.754446 0.679883
0.227141 0.454863 0.177456
0.243257 0.455776 0.177716
0.282749 0.458547 0.178266
0.367324 0.466974 0.179298
0.482859 0.473767 0.252452
0.572055 0.477276 0.337054
0.669299 0.535675 0.439904
0.781209 0.637481 0.557707
0.901995 0.755964 0.680611
0.389241 0.578453 0.337350
0.392034 0.578569 0.337575
0.400527 0.578939 0.338269
0.427800 0.580309 0.340508
0.493427 0.584569 0.344798
0.590222 0.582060 0.392887
0.678671 0.591682 0.471298
0.784608 0.657400 0.567779
0.902978 0.761654 0.683383
0.531433 0.697947 0.485992
0.531977 0.697971 0.486052
0.533711 0.698048 0.486241
0.540140 0.698349 0.486939
0.561641 0.699519 0.489131
0.617974 0.703678 0.492020
0.707027 0.699396 0.524812
0.796462 0.712461 0.598784
0.906656 0.781329 0.693445
0.661551 0.819659 0.619314
0.661677 0.819666 0.619329
0.662083 0.819689 0.619377
0.663640 0.819777 0.619560
0.669441 0.820118 0.620233
0.689141 0.821446 0.622313
0.742578 0.826219 0.624432
0.829344 0.821892 0.651905
0.919327 0.836201 0.724407
0.787981 0.943639 0.746727
0.788013 0.943641 0.746731
0.788115 0.943647 0.746743
0.788508 0.943671 0.746790
0.790016 0.943763 0.746971
0.795645 0.944121 0.747632
0.814844 0.945512 0.749664
0.867469 0.950507 0.751521
0.953599 0.946198 0.777469
0.027272 0.027191 0.119358
0.132402 0.021545 0.132826
0.250809 0.051088 0.130591
0.372647 0.130972 0.131053
0.473086 0.252647 0.173955
0.565628 0.382503 0.295058
0.665852 0.506512 0.427266
0.780003 0.629647 0.554259
0.901654 0.753922 0.679706
0.029551 0.119035 0.121144
0.134088 0.134088 0.134088
0.252433 0.146295 0.132766
0.373042 0.182520 0.134890
0.473219 0.265918 0.176956
0.565723 0.384974 0.295969
0.665907 0.507029 0.427493
0.780022 0.629772 0.554317
0.901659 0.753954 0.679721
0.037645 0.208602 0.112937
0.119468 0.221888 0.117843
0.253238 0.246350 0.138069
0.374385 0.261889 0.147602
0.473668 0.298945 0.186126
0.566030 0.392526 0.298849
0.666082 0.508681 0.428224
0.780083 0.630174 0.554506
0.901677 0.754056 0.679770
0.086799 0.330839 0.131533
0.145507 0.335477 0.132494
0.241144 0.347887 0.133785
0.375808 0.366775 0.172561
0.475604 0.369800 0.216142
0.567237 0.417114 0.309269
0.666759 0.514839 0.431003
0.780318 0.631718 0.555233
0.901743 0.754451 0.679959
0.228950 0.455542 0.205506
0.244787 0.456427 0.205890
0.283702 0.459125 0.206788
0.367486 0.467389 0.208454
0.482952 0.474036 0.266458
0.572101 0.477428 0.341447
0.669334 0.535743 0.441080
0.781223 0.637501 0.558002
0.901999 0.755969 0.680686
0.389541 0.578496 0.342933
0.392321 0.578612 0.343150
0.400774 0.578982 0.343811
0.427941 0.580350 0.345939
0.493419 0.584627 0.349867
0.590264 0.582137 0.395438
0.678701 0.591726 0.472156
0.784621 0.657418 0.568047
0.902982 0.761659 0.683457
0.531487 0.697950 0.487061
0.532031 0.697974 0.487120
0.533762 0.698052 0.487307
0.540185 0.698353 0.487998
0.561667 0.699525 0.490164
0.617972 0.703693 0.492986
0.707044 0.699420 0.525359
0.796472 0.712473 0.598985
0.906660 0.781334 0.693512
0.661564 0.819661 0.619557
0.661690 0.819668 0.619572
0.662096 0.819691 0.619620
0.663652 0.819778 0.619803
0.669452 0.820120 0.620474
0.689148 0.821448 0.622548
0.742578 0.826223 0.624654
0.829349 0.821899 0.652038
0.919330 0.836205 0.724457
0.787984 0.943640 0.746787
0.788016 0.943642 0.746791
0.788118 0.943648 0.746803
0.788511 0.943672 0.746851
0.790019 0.943764 0.747031
0.795647 0.944121 0.747692
0.814846 0.945513 0.749722
0.867469 0.950509 0.751576
0.953601 0.946200 0.777502
0.031802 0.068426 0.243991
0.136539 0.057511 0.248232
0.251809 0.053619 0.252650
0.371412 0.154369 0.251544
0.472813 0.260331 0.250699
0.565749 0.383815 0.315852
0.665975 0.506774 0.431508
0.780049 0.629711 0.555237
0.901667 0.753939 0.679950
0.045885 0.151377 0.244532
0.141262 0.150130 0.248726
0.253005 0.148318 0.253416
0.371902 0.196990 0.252022
0.472963 0.272564 0.251886
0.565844 0.386254 0.316574
0.666029 0.507291 0.431726
0.780068 0.629836 0.555295
0.901673 0.753971 0.679965
0.075296 0.239673 0.241244
0.152564 0.245260 0.246977
0.255209 0.255209 0.255209
0.373635 0.268616 0.253819
0.473464 0.303533 0.255665
0.566153 0.393710 0.318865
0.666205 0.508940 0.432426
0.780129 0.630239 0.555482
0.901690 0.754073 0.680014
0.112161 0.342091 0.236941
0.161920 0.345219 0.239031
0.246337 0.354123 0.243028
0.377021 0.370235 0.261073
0.475591 0.371736 0.269756
0.567368 0.418034 0.327271
0.666879 0.515087 0.435092
0.780364 0.631782 0.556203
0.901756 0.754468 0.680202
0.234953 0.457553 0.263148
0.249882 0.458356 0.263672
0.286939 0.460823 0.264992
0.368009 0.468622 0.267082
0.483254 0.474885 0.300989
0.572255 0.477915 0.354332
0.669448 0.535959 0.444778
0.781268 0.637563 0.558946
0.902012 0.755985 0.680928
0.390511 0.578633 0.358926
0.393251 0.578747 0.359123
0.401585 0.579113 0.359714
0.428407 0.580480 0.361557
0.493397 0.584810 0.364549
0.590401 0.582385 0.403212
0.678797 0.591869 0.474870
0.784663 0.657474 0.568907
0.902995 0.761675 0.683692
0.531662 0.697961 0.490421
0.532203 0.697985 0.490479
0.533930 0.698063 0.490660
0.540331 0.698366 0.491327
0.561752 0.699543 0.493417
0.617963 0.703742 0.496035
0.707100 0.699499 0.527102
0.796504 0.712513 0.599628
0.906672 0.781349 0.693727
0.661604 0.819666 0.620335
0.661730 0.819673 0.620350
0.662136 0.819696 0.620398
0.663691 0.819783 0.620579
0.669486 0.820125 0.621246
0.689168 0.821455 0.623303
0.742576 0.826237 0.625369
0.829365 0.821921 0.652465
0.919339 0.836215 0.724619
0.787995 0.943641 0.746981
0.788026 0.943643 0.746985
0.788128 0.943649 0.746997
0.788521 0.943673 0.747045
0.790029 0.943765 0.747225
0.795656 0.944123 0.747885
0.814851 0.945515 0.749911
0.867469 0.950512 0.751756
0.953605 0.946206 0.777611
0.101579 0.179394 0.365734
0.166629 0.174696 0.367122
0.257312 0.160704 0.370724
0.373268 0.172906 0.374700
0.472716 0.277108 0.359553
0.566334 0.388276 0.369517
0.666458 0.507760 0.446375
0.780228 0.629961 0.558937
0.901718 0.754003 0.680889
0.113409 0.213140 0.365917
0.172178 0.210424 0.367262
0.258649 0.202113 0.370905
0.373727 0.208946 0.374942
0.472897 0.287522 0.359732
0.566431 0.390612 0.369901
0.666512 0.508274 0.446563
0.780247 0.630086 0.558993
0.901724 0.754035 0.680904
0.144434 0.275677 0.366482
0.189053 0.275244 0.367826
0.263195 0.272869 0.371548
0.375264 0.273888 0.375914
0.473499 0.314707 0.360305
0.566745 0.397770 0.371132
0.666685 0.509912 0.447165
0.780308 0.630487 0.559173
0.901741 0.754137 0.680953
0.198251 0.366080 0.366485
0.224971 0.367197 0.367877
0.280054 0.370405 0.371654
0.378299 0.378299 0.378299
0.476040 0.377566 0.362651
0.567976 0.421254 0.375770
0.667353 0.516023 0.449463
0.780542 0.632029 0.559870
0.901807 0.754532 0.681139
0.260483 0.463413 0.361723
0.271930 0.463972 0.362230
0.301645 0.465732 0.363629
0.371063 0.472077 0.365866
0.484407 0.477957 0.374332
0.572919 0.479707 0.392056
0.669898 0.536777 0.457885
0.781442 0.637804 0.562522
0.902063 0.756049 0.681859
0.394333 0.579114 0.403142
0.396921 0.579222 0.403299
0.404815 0.579571 0.403772
0.430364 0.580915 0.405149
0.493344 0.585476 0.406252
0.590944 0.583349 0.428302
0.679175 0.592413 0.484692
0.784824 0.657693 0.572165
0.903044 0.761737 0.684600
0.532342 0.698005 0.502359
0.532878 0.698029 0.502412
0.534583 0.698107 0.502579
0.540907 0.698414 0.503183
0.562089 0.699615 0.505024
0.617931 0.703929 0.506974
0.707314 0.699805 0.533557
0.796631 0.712668 0.602076
0.906717 0.781406 0.694555
0.661762 0.819685 0.623286
0.661888 0.819692 0.623301
0.662293 0.819715 0.623348
0.663843 0.819803 0.623525
0.669620 0.820146 0.624173
0.689250 0.821482 0.626169
0.742572 0.826293 0.628084
0.829429 0.822007 0.654102
0.919374 0.836256 0.725243
0.788034 0.943647 0.747729
0.788066 0.943649 0.747733
0.788167 0.943655 0.747745
0.788560 0.943679 0.747792
0.790067 0.943771 0.747971
0.795690 0.944129 0.748626
0.814872 0.945523 0.750638
0.867468 0.950527 0.752446
0.953622 0.946229 0.778031
0.215846 0.297371 0.471531
0.235661 0.295937 0.471982
0.280427 0.291468 0.473365
0.366280 0.277470 0.477444
0.478901 0.304223 0.480988
0.570036 0.398736 0.464644
0.668434 0.511164 0.489042
0.780926 0.630900 0.572090
0.901916 0.754251 0.684446
0.219369 0.306222 0.471586
0.238451 0.304967 0.472033
0.282021 0.301064 0.473409
0.366687 0.288714 0.477515
0.479082 0.312187 0.481082
0.570126 0.400899 0.464736
0.668485 0.511668 0.489163
0.780945 0.631024 0.572139
0.901922 0.754283 0.684460
0.230018 0.330000 0.471766
0.247026 0.329144 0.472202
0.287057 0.326478 0.473555
0.367987 0.317694 0.477751
0.479667 0.333837 0.481402
0.570420 0.407548 0.465030
0.668651 0.513277 0.489550
0.781004 0.631424 0.572299
0.901939 0.754385 0.684507
0.263346 0.387493 0.472518
0.275220 0.387297 0.472928
0.305229 0.386547 0.474213
0.373083 0.383379 0.478653
0.481945 0.387539 0.482874
0.571576 0.429551 0.466156
0.669290 0.519275 0.491035
0.781235 0.632960 0.572914
0.902005 0.754780 0.684688
0.327337 0.477452 0.476470
0.333267 0.477626 0.476785
0.350084 0.478189 0.477763
0.395786 0.480271 0.480951
0.486425 0.486425 0.486425
0.576286 0.485274 0.470481
0.671730 0.539667 0.496578
0.782122 0.638712 0.575261
0.902259 0.756295 0.685385
0.410143 0.580609 0.485458
0.412202 0.580700 0.485575
0.418538 0.580998 0.485937
0.439617 0.582195 0.487111
0.494320 0.587224 0.488127
0.593146 0.587066 0.489071
0.680698 0.594418 0.515278
0.785456 0.658519 0.583852
0.903237 0.761978 0.688041
0.535045 0.698209 0.537576
0.535556 0.698233 0.537619
0.537185 0.698312 0.537755
0.543233 0.698621 0.538247
0.563546 0.699877 0.539653
0.617848 0.704633 0.540183
0.708155 0.700991 0.555025
0.797123 0.713257 0.611000
0.906895 0.781627 0.697699
0.662379 0.819763 0.633872
0.662503 0.819770 0.633886
0.662904 0.819792 0.633929
0.664437 0.819880 0.634095
0.670151 0.820226 0.634692
0.689574 0.821584 0.636485
0.742558 0.826506 0.637904
0.829677 0.822339 0.660183
0.919510 0.836415 0.727622
0.788188 0.943670 0.750568
0.788220 0.943672 0.750571
0.788321 0.943678 0.750583
0.788713 0.943702 0.750629
0.790215 0.943795 0.750804
0.795821 0.944154 0.751443
0.814953 0.945553 0.753398
0.867466 0.950585 0.755072
0.953689 0.946316 0.779640
0.336613 0.417326 0.579834
0.341426 0.416927 0.579987
0.355442 0.415655 0.580472
0.395819 0.410963 0.582241
0.477960 0.397702 0.587221
0.587679 0.431393 0.590217
0.677247 0.519880 0.576923
0.783701 0.634158 0.611234
0.902687 0.755185 0.697142
0.337539 0.419417 0.579854
0.342301 0.419030 0.580007
0.356179 0.417800 0.580491
0.396259 0.413258 0.582257
0.478081 0.400374 0.587249
0.587746 0.433076 0.590256
0.677287 0.520373 0.576962
0.783718 0.634281 0.611268
0.902692 0.755217 0.697155
0.340471 0.425851 0.579920
0.345073 0.425502 0.580071
0.358527 0.424390 0.580552
0.397670 0.420286 0.582311
0.478470 0.408497 0.587339
0.587963 0.438292 0.590382
0.677416 0.521943 0.577089
0.783774 0.634677 0.611377
0.902709 0.755319 0.697197
0.351127 0.447185 0.580175
0.355185 0.446941 0.580322
0.367181 0.446162 0.580791
0.402999 0.443283 0.582525
0.479949 0.434533 0.587691
0.588802 0.455967 0.590894
0.677917 0.527797 0.577576
0.783991 0.636195 0.611800
0.902774 0.755712 0.697358
0.384459 0.500837 0.581245
0.387209 0.500770 0.581376
0.395540 0.500552 0.581795
0.421981 0.499682 0.583418
0.485556 0.496350 0.588968
0.592005 0.502696 0.593130
0.679848 0.547647 0.579421
0.784824 0.641881 0.613420
0.903024 0.757222 0.697979
0.453150 0.589760 0.587778
0.454412 0.589793 0.587861
0.458363 0.589903 0.588126
0.472193 0.590348 0.589126
0.511972 0.592264 0.592541
0.598427 0.598427 0.598427
0.687241 0.600762 0.586142
0.787964 0.661448 0.619434
0.903986 0.762885 0.700347
0.546325 0.699474 0.609379
0.546751 0.699498 0.609412
0.548113 0.699574 0.609516
0.553201 0.699875 0.609904
0.570577 0.701121 0.611165
0.618578 0.706697 0.612275
0.711437 0.705557 0.610437
0.799075 0.715422 0.639358
0.907587 0.782462 0.709007
0.664821 0.820103 0.665898
0.664940 0.820110 0.665909
0.665324 0.820132 0.665946
0.666795 0.820220 0.666085
0.672283 0.820566 0.666591
0.690965 0.821970 0.668030
0.742534 0.827311 0.668382
0.830642 0.823623 0.680592
0.920039 0.837020 0.736307
0.788788 0.943763 0.760777
0.788819 0.943764 0.760780
0.788920 0.943771 0.760791
0.789307 0.943794 0.760835
0.790794 0.943887 0.760999
0.796340 0.944248 0.761590
0.815275 0.945668 0.763359
0.867457 0.950808 0.764591
0.953946 0.946656 0.785620
0.462658 0.542228 0.698396
0.463818 0.542122 0.698443
0.467462 0.541781 0.698592
0.480378 0.540479 0.699162
0.518444 0.535707 0.701223
0.598623 0.522873 0.706854
0.706660 0.558275 0.709383
0.795199 0.642828 0.696835
0.905729 0.758431 0.735322
0.462894 0.542735 0.698403
0.464050 0.542629 0.698450
0.467685 0.542291 0.698599
0.480568 0.541000 0.699169
0.518561 0.536267 0.701229
0.598657 0.523522 0.706863
0.706681 0.558670 0.709396
0.795212 0.642950 0.696848
0.905734 0.758462 0.735331
0.463651 0.544349 0.698425
0.464797 0.544247 0.698472
0.468400 0.543918 0.698621
0.481178 0.542660 0.699190
0.518936 0.538049 0.701247
0.598765 0.525584 0.706892
0.706749 0.559929 0.709438
0.795253 0.643343 0.696887
0.905749 0.758563 0.735360
0.466531 0.550348 0.698511
0.467638 0.550255 0.698557
0.471122 0.549956 0.698705
0.483511 0.548816 0.699270
0.520377 0.544638 0.701318
0.599182 0.533163 0.707005
0.707011 0.564641 0.709602
0.795412 0.644849 0.697040
0.905810 0.758953 0.735473
0.476995 0.570446 0.698841
0.477971 0.570381 0.698886
0.481050 0.570171 0.699030
0.492107 0.569368 0.699580
0.525811 0.566416 0.701595
0.600759 0.557763 0.707443
0.708019 0.580805 0.710256
0.796024 0.650476 0.697629
0.906044 0.760449 0.735908
0.509807 0.622111 0.700172
0.510467 0.622093 0.700211
0.512562 0.622035 0.700337
0.520242 0.621810 0.700825
0.545038 0.620937 0.702700
0.606631 0.617660 0.708984
0.711816 0.624755 0.713022
0.798366 0.669728 0.699843
0.906942 0.766057 0.737571
0.579429 0.710084 0.707673
0.579725 0.710093 0.707697
0.580674 0.710124 0.707772
0.584255 0.710242 0.708064
0.596922 0.710726 0.709164
0.634369 0.712828 0.712932
0.719432 0.719432 0.719432
0.807094 0.722264 0.707731
0.910317 0.785420 0.743740
0.674872 0.821946 0.733925
0.674974 0.821953 0.733934
0.675302 0.821974 0.733963
0.676558 0.822057 0.734073
0.681265 0.822384 0.734483
0.697492 0.823734 0.735821
0.743362 0.829749 0.737085
0.834357 0.828544 0.734375
0.922128 0.839240 0.764057
0.791160 0.944160 0.791890
0.791190 0.944162 0.791893
0.791287 0.944168 0.791903
0.791659 0.944192 0.791940
0.793088 0.944283 0.792080
0.798422 0.944643 0.792588
0.816651 0.946102 0.794032
0.867453 0.951647 0.794315
0.954948 0.947969 0.805746
0.588544 0.667601 0.821495
0.588835 0.667573 0.821508
0.589766 0.667483 0.821549
0.593288 0.667139 0.821707
0.605813 0.665824 0.822309
0.643036 0.661013 0.824478
0.722477 0.648285 0.830339
0.829892 0.683976 0.832672
0.918098 0.767159 0.820312
0.588604 0.667728 0.821497
0.588895 0.667700 0.821510
0.589826 0.667611 0.821551
0.593345 0.667268 0.821709
0.605861 0.665955 0.822311
0.643067 0.661154 0.824479
0.722486 0.648449 0.830342
0.829898 0.684074 0.832675
0.918101 0.767190 0.820315
0.588799 0.668139 0.821503
0.589088 0.668111 0.821516
0.590017 0.668023 0.821557
0.593529 0.667681 0.821715
0.606019 0.666377 0.822317
0.643164 0.661608 0.824485
0.722515 0.648975 0.830350
0.829916 0.684392 0.832687
0.918112 0.767290 0.820326
0.589547 0.669710 0.821528
0.589835 0.669684 0.821540
0.590755 0.669597 0.821581
0.594236 0.669265 0.821739
0.606626 0.667994 0.822340
0.643541 0.663347 0.824505
0.722626 0.650984 0.830381
0.829988 0.685610 0.832733
0.918156 0.767679 0.820368
0.592397 0.675555 0.821623
0.592674 0.675531 0.821635
0.593564 0.675453 0.821676
0.596932 0.675151 0.821832
0.608947 0.673999 0.822428
0.644990 0.669784 0.824583
0.723053 0.658378 0.830503
0.830267 0.690173 0.832911
0.918324 0.769168 0.820529
0.602755 0.695216 0.821986
0.603000 0.695199 0.821999
0.603785 0.695144 0.822038
0.606765 0.694931 0.822190
0.617495 0.694118 0.822770
0.650446 0.691132 0.824888
0.724662 0.682488 0.830974
0.831337 0.705887 0.833619
0.918974 0.774737 0.821151
0.635280 0.746173 0.823424
0.635446 0.746168 0.823434
0.635978 0.746153 0.823469
0.638010 0.746094 0.823601
0.645474 0.745868 0.824114
0.669713 0.744992 0.826079
0.730616 0.741720 0.832611
0.835347 0.748994 0.836577
0.921451 0.793837 0.823485
0.704983 0.833754 0.831209
0.705057 0.833756 0.831216
0.705295 0.833764 0.831236
0.706214 0.833796 0.831315
0.709683 0.833920 0.831617
0.721995 0.834426 0.832758
0.758724 0.836607 0.836658
0.843372 0.843372 0.843372
0.930603 0.846248 0.831742
0.800875 0.946217 0.858816
0.800901 0.946219 0.858818
0.800983 0.946224 0.858826
0.801303 0.946246 0.858855
0.802531 0.946332 0.858967
0.807133 0.946667 0.859384
0.823043 0.948053 0.860744
0.868316 0.954208 0.862053
0.958789 0.952994 0.859090
0.713840 0.792739 0.945980
0.713914 0.792732 0.945984
0.714153 0.792709 0.945994
0.715075 0.792619 0.946036
0.718562 0.792274 0.946197
0.730975 0.790954 0.946808
0.767955 0.786130 0.949009
0.847180 0.773429 0.954937
0.954416 0.809175 0.957211
0.713855 0.792772 0.945981
0.713929 0.792765 0.945984
0.714169 0.792742 0.945995
0.715090 0.792652 0.946037
0.718577 0.792307 0.946197
0.730987 0.790987 0.946809
0.767963 0.786167 0.949009
0.847183 0.773472 0.954937
0.954418 0.809200 0.957212
0.713905 0.792878 0.945982
0.713979 0.792870 0.945986
0.714219 0.792847 0.945997
0.715140 0.792758 0.946038
0.718624 0.792413 0.946199
0.731028 0.791096 0.946810
0.767988 0.786284 0.949010
0.847190 0.773607 0.954939
0.954423 0.809282 0.957215
0.714099 0.793285 0.945989
0.714173 0.793278 0.945992
0.714411 0.793255 0.946003
0.715330 0.793166 0.946045
0.718807 0.792823 0.946205
0.731185 0.791515 0.946816
0.768086 0.786735 0.949016
0.847219 0.774129 0.954948
0.954442 0.809596 0.957227
0.714844 0.794845 0.946014
0.714918 0.794838 0.946018
0.715155 0.794815 0.946028
0.716065 0.794729 0.946070
0.719512 0.794395 0.946230
0.731791 0.793120 0.946840
0.768463 0.788461 0.949037
0.847331 0.776123 0.954980
0.954515 0.810803 0.957274
0.717684 0.800646 0.946112
0.717755 0.800640 0.946115
0.717984 0.800619 0.946126
0.718864 0.800541 0.946167
0.722199 0.800238 0.946326
0.734107 0.799082 0.946931
0.769913 0.794854 0.949117
0.847760 0.783464 0.955104
0.954798 0.815326 0.957457
0.728007 0.820181 0.946486
0.728070 0.820176 0.946490
0.728272 0.820162 0.946500
0.729050 0.820107 0.946540
0.732002 0.819893 0.946694
0.742638 0.819077 0.947282
0.775374 0.816080 0.949430
0.849378 0.807437 0.955584
0.955887 0.830918 0.958181
0.760441 0.870934 0.947956
0.760483 0.870933 0.947958
0.760620 0.870929 0.947967
0.761147 0.870914 0.948002
0.763162 0.870855 0.948137
0.770565 0.870628 0.948657
0.794647 0.869750 0.950648
0.855355 0.866480 0.957250
0.959956 0.873798 0.961193
0.830149 0.958403 0.955822
0.830168 0.958403 0.955824
0.830229 0.958406 0.955829
0.830465 0.958414 0.955850
0.831375 0.958446 0.955929
0.834815 0.958572 0.956235
0.847029 0.959084 0.957387
0.883562 0.961288 0.961324
0.968097 0.968097 0.968097
