looks/Brejon_A1_TLog_EGamut2_v011_64_inverse.cube
# The Brejon Look Modification Transform
# Brejon for ACES 1.3 v011 - A pleasing, colorful and natural look for ACES 1.3
# Created by Chris Brejon - chrisbrejon.com - 2026-02-17 12:53:04
# 3 columns rgb, 274625 rows
# Width     64 64 64
# Process Color Space = TLog - Egamut2
# LUT size
LUT_3D_SIZE 4
0.000000 0.000000 0.000000
0.386763 0.000000 0.137314
0.598526 0.000000 0.377606
0.000000 0.000000 0.000000
0.000000 0.421774 0.088371
0.369622 0.378940 0.000000
0.620741 0.433889 0.000000
0.000000 0.000000 0.000000
0.000000 0.593490 0.317890
0.430708 0.605250 0.000000
0.581426 0.590135 0.000000
0.000000 0.000000 0.000000
0.000000 0.000000 0.000000
0.000000 0.000000 0.000000
0.000000 0.000000 0.000000
0.000000 0.000000 0.000000
0.184862 0.000000 0.420242
0.412068 0.000000 0.408929
0.590841 0.000000 0.488160
0.000000 0.000000 0.000000
0.000000 0.436364 0.436555
0.326790 0.326790 0.326790
0.652776 0.000000 0.435860
0.000000 0.000000 0.000000
0.000000 0.585980 0.472793
0.000000 0.639343 0.372558
0.634234 0.640505 0.000000
0.742529 0.569183 0.000000
0.000000 0.000000 0.000000
0.000000 0.679210 0.416542
0.545396 0.711623 0.000000
0.678335 0.687082 0.000000
0.355417 0.000000 0.582752
0.474043 0.000000 0.583576
0.000000 0.000000 0.000000
0.000000 0.000000 0.000000
0.000000 0.418895 0.598919
0.405567 0.000000 0.633039
0.620407 0.000000 0.617461
0.000000 0.000000 0.000000
0.000000 0.000000 0.000000
0.000000 0.605040 0.606624
0.696105 0.696105 0.696105
0.815221 0.000000 0.608949
0.000000 0.000000 0.000000
0.000000 0.000000 0.000000
0.000000 0.794653 0.542001
0.810584 0.822883 0.000000
0.000000 0.000000 0.000000
0.000000 0.000000 0.000000
0.000000 0.000000 0.000000
0.000000 0.000000 0.000000
0.000000 0.000000 0.000000
0.451265 0.000000 0.674026
0.574968 0.000000 0.682100
0.000000 0.000000 0.000000
0.000000 0.000000 0.000000
0.000000 0.529047 0.708641
0.583833 0.000000 0.803860
0.771216 0.000000 0.765117
0.000000 0.000000 0.000000
0.000000 0.000000 0.000000
0.000000 0.735380 0.742479
1.000000 1.000000 1.000000
