looks/Brejon_A1_TLog_EGamut2_v011_64_inverse.cube
# The Brejon Look Modification Transform
# Brejon for ACES 1.3 v011 - A pleasing, colorful and natural look for ACES 1.3
# Created by Chris Brejon - chrisbrejon.com - 2026-02-17 12:53:04
# 3 columns rgb, 274625 rows
# Width     64 64 64
# Process Color Space = TLog - Egamut2
# LUT size
LUT_3D_SIZE 64
0.000000 0.000000 0.000000
0.017479 0.000000 0.001360
0.076053 0.020550 0.000000
0.083773 0.020141 0.000000
0.092925 0.017260 0.000000
0.105579 0.011655 0.000000
0.112932 0.011621 0.000000
0.124002 0.008067 0.000000
0.135601 0.004485 0.000000
0.147676 0.000503 0.000000
0.166504 0.000000 0.003981
0.185229 0.000000 0.008435
0.203020 0.000000 0.013108
0.220668 0.000000 0.017407
0.238639 0.000000 0.023473
0.256926 0.000000 0.030903
0.275697 0.000000 0.039367
0.295523 0.000000 0.050173
0.314932 0.000000 0.065735
0.339586 0.000000 0.088625
0.360924 0.000000 0.110079
0.386763 0.000000 0.137314
0.405865 0.000000 0.157646
0.427711 0.000000 0.184048
0.448766 0.000000 0.201979
0.465278 0.000000 0.219844
0.480359 0.000000 0.238241
0.494020 0.000000 0.253435
0.502509 0.000000 0.265606
0.513719 0.000000 0.279629
0.526014 0.000000 0.292840
0.531807 0.000000 0.305247
0.542501 0.000000 0.311170
0.549479 0.000000 0.322387
0.557406 0.000000 0.327927
0.562055 0.000000 0.337923
0.570632 0.000000 0.343004
0.574843 0.000000 0.351653
0.581812 0.000000 0.356351
0.585885 0.000000 0.363608
0.589640 0.000000 0.367845
0.593395 0.000000 0.372082
0.598526 0.000000 0.377606
0.601840 0.000000 0.381361
0.605153 0.000000 0.385116
0.608467 0.000000 0.388871
0.000000 0.000000 0.000000
0.000000 0.000000 0.000000
0.000000 0.000000 0.000000
0.000000 0.000000 0.000000
0.000000 0.000000 0.000000
0.000000 0.000000 0.000000
0.000000 0.000000 0.000000
0.000000 0.000000 0.000000
0.000000 0.000000 0.000000
0.000000 0.000000 0.000000
0.000000 0.000000 0.000000
0.000000 0.000000 0.000000
0.000000 0.000000 0.000000
0.000000 0.000000 0.000000
0.000000 0.000000 0.000000
0.000000 0.000000 0.000000
0.000000 0.000000 0.000000
0.000000 0.000000 0.000000
0.000001 0.015555 0.000000
0.015554 0.015730 0.000000
0.064140 0.038911 0.000000
0.075194 0.033813 0.000000
0.084707 0.031030 0.000000
0.094719 0.028266 0.000000
0.107447 0.025131 0.000000
0.119516 0.022076 0.000000
0.132201 0.018897 0.000000
0.147822 0.016489 0.000000
0.163857 0.014648 0.000000
0.179771 0.012052 0.000000
0.195445 0.009087 0.000000
0.210898 0.005659 0.000000
0.226161 0.001686 0.000000
0.243761 0.000000 0.004704
0.263175 0.000000 0.013888
0.282158 0.000000 0.024577
0.303565 0.000000 0.039388
0.327445 0.000000 0.060272
0.351427 0.000000 0.083360
0.374662 0.000000 0.108883
0.399774 0.000000 0.136594
0.420773 0.000000 0.158361
0.439612 0.000000 0.184723
0.459398 0.000000 0.202400
0.476038 0.000000 0.221410
0.489226 0.000000 0.239488
0.499789 0.000000 0.254297
0.513248 0.000000 0.266204
0.525899 0.000000 0.279716
0.531358 0.000000 0.292891
0.542750 0.000000 0.305223
0.550523 0.000000 0.311186
0.558022 0.000000 0.322329
0.563220 0.000000 0.327922
0.571608 0.000000 0.337720
0.575826 0.000000 0.342788
0.583452 0.000000 0.351282
0.587215 0.000000 0.355854
0.590976 0.000000 0.363025
0.596885 0.000000 0.367225
0.600204 0.000000 0.371321
0.603523 0.000000 0.376698
0.606836 0.000000 0.380500
0.610635 0.000000 0.384225
0.613522 0.000000 0.387856
0.000000 0.000000 0.000000
0.000000 0.000000 0.000000
0.000000 0.000000 0.000000
0.000000 0.000000 0.000000
0.000000 0.000000 0.000000
0.000000 0.000000 0.000000
0.000000 0.000000 0.000000
0.000000 0.000000 0.000000
0.000000 0.000000 0.000000
0.000000 0.000000 0.000000
0.000000 0.000000 0.000000
0.000000 0.000000 0.000000
0.000000 0.000000 0.000000
0.000000 0.000000 0.000000
0.000000 0.000000 0.000000
0.000000 0.000000 0.000000
0.000000 0.000000 0.000000
0.000004 0.031109 0.000000
0.015554 0.031258 0.000000
0.055166 0.065407 0.000000
0.068937 0.054351 0.000000
0.078540 0.047728 0.000000
0.091966 0.043908 0.000000
0.104294 0.040673 0.000000
0.117582 0.037728 0.000000
0.132482 0.035362 0.000000
0.148174 0.033174 0.000000
0.164115 0.031173 0.000000
0.180008 0.029027 0.000000
0.195691 0.026168 0.000000
0.211152 0.022808 0.000000
0.226417 0.018861 0.000000
0.241529 0.014614 0.000000
0.256537 0.009109 0.000000
0.271490 0.002576 0.000000
0.290759 0.000000 0.009724
0.312927 0.000000 0.028624
0.340050 0.000000 0.054342
0.364856 0.000000 0.079618
0.389895 0.000000 0.108520
0.413759 0.000000 0.136661
0.435814 0.000000 0.159367
0.452782 0.000000 0.185047
0.469866 0.000000 0.202711
0.484489 0.000000 0.222128
0.498970 0.000000 0.239671
0.512774 0.000000 0.254394
0.525780 0.000000 0.266155
0.531165 0.000000 0.279691
0.542995 0.000000 0.292809
0.551545 0.000000 0.305052
0.558635 0.000000 0.310950
0.565681 0.000000 0.321976
0.572580 0.000000 0.327409
0.576799 0.000000 0.337148
0.584774 0.000000 0.342152
0.588539 0.000000 0.350522
0.592303 0.000000 0.355158
0.598558 0.000000 0.360689
0.601879 0.000000 0.366365
0.605199 0.000000 0.370524
0.608519 0.000000 0.374643
0.612656 0.000000 0.379546
0.615543 0.000000 0.383176
0.618430 0.000000 0.386806
0.000000 0.000000 0.000000
0.000000 0.000000 0.000000
0.000000 0.000000 0.000000
0.000000 0.000000 0.000000
0.000000 0.000000 0.000000
0.000000 0.000000 0.000000
0.000000 0.000000 0.000000
0.000000 0.000000 0.000000
0.000000 0.000000 0.000000
0.000000 0.000000 0.000000
0.000000 0.000000 0.000000
0.000000 0.000000 0.000000
0.000000 0.000000 0.000000
0.000000 0.000000 0.000000
0.000000 0.000000 0.000000
0.000000 0.000000 0.000000
0.000005 0.046557 0.000000
0.034280 0.109262 0.000000
0.052708 0.089210 0.000000
0.065587 0.076245 0.000000
0.077957 0.067558 0.000000
0.090717 0.062311 0.000000
0.104078 0.058335 0.000000
0.118178 0.055218 0.000000
0.133180 0.052716 0.000000
0.148734 0.050449 0.000000
0.164510 0.048170 0.000000
0.180301 0.046245 0.000000
0.195968 0.043419 0.000000
0.211428 0.040075 0.000000
0.226691 0.036120 0.000000
0.241795 0.031450 0.000000
0.256799 0.026306 0.000000
0.271749 0.019713 0.000000
0.286739 0.012157 0.000000
0.301913 0.002636 0.000000
0.325923 0.000000 0.020133
0.354114 0.000000 0.050311
0.379767 0.000000 0.077880
0.405389 0.000000 0.108323
0.428458 0.000000 0.136995
0.450917 0.000000 0.160105
0.467502 0.000000 0.185187
0.483239 0.000000 0.202699
0.498157 0.000000 0.221575
0.512304 0.000000 0.239042
0.525430 0.000000 0.253704
0.531052 0.000000 0.265576
0.543238 0.000000 0.279345
0.552553 0.000000 0.292336
0.559241 0.000000 0.303931
0.568131 0.000000 0.310412
0.573542 0.000000 0.321292
0.577769 0.000000 0.326825
0.586087 0.000000 0.336375
0.589857 0.000000 0.341321
0.593624 0.000000 0.349592
0.600218 0.000000 0.354075
0.603544 0.000000 0.358553
0.606865 0.000000 0.365120
0.611773 0.000000 0.369245
0.614666 0.000000 0.373265
0.617556 0.000000 0.378095
0.620445 0.000000 0.381788
0.000000 0.000000 0.000000
0.000000 0.000000 0.000000
0.000000 0.000000 0.000000
0.000000 0.000000 0.000000
0.000000 0.000000 0.000000
0.000000 0.000000 0.000000
0.000000 0.000000 0.000000
0.000000 0.000000 0.000000
0.000000 0.000000 0.000000
0.000000 0.000000 0.000000
0.000000 0.000000 0.000000
0.000000 0.000000 0.000000
0.000000 0.000000 0.000000
0.000000 0.000000 0.000000
0.000000 0.000000 0.000000
0.000000 0.000000 0.000000
0.000000 0.153814 0.000562
0.032593 0.129573 0.000000
0.052365 0.111521 0.000000
0.066555 0.098415 0.000000
0.078856 0.089613 0.000000
0.092234 0.082656 0.000000
0.105412 0.077966 0.000000
0.119452 0.074368 0.000000
0.134212 0.071356 0.000000
0.149512 0.068711 0.000000
0.165072 0.066097 0.000000
0.180700 0.063294 0.000000
0.196287 0.060941 0.000000
0.211732 0.057677 0.000000
0.226990 0.053761 0.000000
0.242084 0.048886 0.000000
0.257073 0.043616 0.000000
0.272022 0.037144 0.000000
0.287000 0.029308 0.000000
0.302178 0.019983 0.000000
0.317764 0.008486 0.000000
0.340301 0.000000 0.015512
0.369814 0.000000 0.047669
0.395927 0.000000 0.077417
0.421079 0.000000 0.108117
0.443571 0.000000 0.136881
0.465997 0.000000 0.159816
0.482090 0.000000 0.184950
0.497353 0.000000 0.202305
0.511838 0.000000 0.219809
0.523554 0.000000 0.237269
0.530938 0.000000 0.251727
0.543477 0.000000 0.264899
0.553547 0.000000 0.278638
0.559841 0.000000 0.291569
0.570264 0.000000 0.300992
0.574498 0.000000 0.309542
0.580527 0.000000 0.320282
0.587390 0.000000 0.325614
0.591164 0.000000 0.335055
0.598472 0.000000 0.340048
0.601873 0.000000 0.348141
0.605200 0.000000 0.352724
0.608528 0.000000 0.357308
0.613776 0.000000 0.363770
0.616669 0.000000 0.367790
0.619562 0.000000 0.371810
0.622454 0.000000 0.376536
0.625617 0.000000 0.380215
0.000000 0.000000 0.000000
0.000000 0.000000 0.000000
0.000000 0.000000 0.000000
0.000000 0.000000 0.000000
0.000000 0.000000 0.000000
0.000000 0.000000 0.000000
0.000000 0.000000 0.000000
0.000000 0.000000 0.000000
0.000000 0.000000 0.000000
0.000000 0.000000 0.000000
0.000000 0.000000 0.000000
0.000000 0.000000 0.000000
0.000000 0.000000 0.000000
0.000000 0.000000 0.000000
0.000000 0.000000 0.000000
0.000000 0.168013 0.000835
0.031230 0.149079 0.000000
0.052788 0.133884 0.000000
0.068402 0.121732 0.000000
0.081607 0.111768 0.000000
0.094241 0.104862 0.000000
0.107847 0.099032 0.000000
0.121401 0.094585 0.000000
0.135715 0.091715 0.000000
0.150608 0.088726 0.000000
0.165877 0.085971 0.000000
0.181300 0.083165 0.000000
0.196734 0.080099 0.000000
0.212101 0.077195 0.000000
0.227341 0.073172 0.000000
0.242421 0.068190 0.000000
0.257384 0.062384 0.000000
0.272324 0.055931 0.000000
0.287289 0.047350 0.000000
0.302467 0.038463 0.000000
0.318053 0.026881 0.000000
0.334411 0.012510 0.000000
0.356755 0.000000 0.013547
0.386913 0.000000 0.046563
0.413060 0.000000 0.076769
0.436894 0.000000 0.107659
0.458727 0.000000 0.135316
0.479318 0.000000 0.157475
0.496532 0.000000 0.184191
0.510657 0.000000 0.201466
0.521698 0.000000 0.218161
0.530824 0.000000 0.234219
0.543711 0.000000 0.249376
0.554527 0.000000 0.263840
0.560435 0.000000 0.277549
0.571206 0.000000 0.290387
0.575447 0.000000 0.296570
0.584319 0.000000 0.308088
0.588686 0.000000 0.317931
0.592464 0.000000 0.324144
0.600183 0.000000 0.333494
0.603517 0.000000 0.338465
0.606850 0.000000 0.343337
0.612574 0.000000 0.350982
0.615764 0.000000 0.355410
0.618662 0.000000 0.361277
0.621557 0.000000 0.365836
0.624452 0.000000 0.369963
0.627956 0.000000 0.373985
0.630427 0.000000 0.378263
0.000000 0.000000 0.000000
0.000000 0.000000 0.000000
0.000000 0.000000 0.000000
0.000000 0.000000 0.000000
0.000000 0.000000 0.000000
0.000000 0.000000 0.000000
0.000000 0.000000 0.000000
0.000000 0.000000 0.000000
0.000000 0.000000 0.000000
0.000000 0.000000 0.000000
0.000000 0.000000 0.000000
0.000000 0.000000 0.000000
0.000000 0.000000 0.000000
0.000000 0.000000 0.000000
0.000000 0.182595 0.001194
0.030787 0.168074 0.000000
0.052901 0.155162 0.000000
0.070485 0.143510 0.000000
0.084816 0.134650 0.000000
0.097678 0.126645 0.000000
0.110310 0.120916 0.000000
0.124077 0.115849 0.000000
0.137807 0.111884 0.000000
0.152192 0.109188 0.000000
0.167048 0.106387 0.000000
0.182172 0.103593 0.000000
0.197412 0.100681 0.000000
0.212637 0.097462 0.000000
0.227787 0.093755 0.000000
0.242846 0.089822 0.000000
0.257795 0.084341 0.000000
0.272690 0.077919 0.000000
0.287659 0.069797 0.000000
0.302807 0.059945 0.000000
0.318394 0.047843 0.000000
0.334767 0.033795 0.000000
0.352094 0.015582 0.000000
0.374771 0.000000 0.012844
0.405134 0.000000 0.045501
0.430842 0.000000 0.073194
0.452742 0.000000 0.103814
0.473515 0.000000 0.130987
0.492054 0.000000 0.155235
0.507469 0.000000 0.179104
0.519860 0.000000 0.199993
0.530711 0.000000 0.216691
0.543943 0.000000 0.232629
0.555490 0.000000 0.247774
0.561023 0.000000 0.262231
0.572141 0.000000 0.275826
0.576386 0.000000 0.286032
0.586185 0.000000 0.294692
0.589971 0.000000 0.306124
0.593774 0.000000 0.312066
0.601812 0.000000 0.322102
0.605151 0.000000 0.327391
0.608486 0.000000 0.336269
0.614843 0.000000 0.341176
0.617746 0.000000 0.348720
0.620646 0.000000 0.353310
0.623547 0.000000 0.357900
0.627808 0.000000 0.363710
0.630282 0.000000 0.367707
0.632756 0.000000 0.371705
0.635229 0.000000 0.375857
0.000000 0.000000 0.000000
0.000000 0.000000 0.000000
0.000000 0.000000 0.000000
0.000000 0.000000 0.000000
0.000000 0.000000 0.000000
0.000000 0.000000 0.000000
0.000000 0.000000 0.000000
0.000000 0.000000 0.000000
0.000000 0.000000 0.000000
0.000000 0.000000 0.000000
0.000000 0.000000 0.000000
0.000000 0.000000 0.000000
0.000000 0.000000 0.000000
0.000000 0.197426 0.001666
0.029545 0.186154 0.000000
0.052949 0.174447 0.000000
0.072396 0.165186 0.000000
0.087841 0.156236 0.000000
0.101349 0.148883 0.000000
0.113938 0.142116 0.000000
0.126619 0.137262 0.000000
0.140413 0.132750 0.000000
0.154298 0.129119 0.000000
0.168668 0.126023 0.000000
0.183418 0.123828 0.000000
0.198375 0.120955 0.000000
0.213413 0.117905 0.000000
0.228435 0.114503 0.000000
0.243395 0.110581 0.000000
0.258305 0.106442 0.000000
0.273184 0.100779 0.000000
0.288099 0.093724 0.000000
0.303251 0.085298 0.000000
0.318832 0.074259 0.000000
0.335208 0.060130 0.000000
0.352560 0.042844 0.000000
0.370897 0.020026 0.000000
0.393524 0.000000 0.012122
0.421798 0.000000 0.041256
0.448920 0.000000 0.065408
0.468520 0.000000 0.095541
0.487646 0.000000 0.124159
0.504339 0.000000 0.152087
0.518047 0.000000 0.171264
0.530600 0.000000 0.193643
0.544172 0.000000 0.214238
0.556441 0.000000 0.230213
0.561605 0.000000 0.245369
0.573066 0.000000 0.259764
0.577317 0.000000 0.270732
0.587455 0.000000 0.279883
0.591247 0.000000 0.292171
0.598875 0.000000 0.303564
0.603431 0.000000 0.309334
0.606774 0.000000 0.319365
0.612325 0.000000 0.324835
0.616809 0.000000 0.333602
0.619716 0.000000 0.338670
0.622621 0.000000 0.343532
0.627081 0.000000 0.350627
0.630121 0.000000 0.355075
0.632601 0.000000 0.359985
0.635076 0.000000 0.364989
0.637552 0.000000 0.369152
0.640028 0.000000 0.373315
0.000000 0.000000 0.000000
0.000000 0.000000 0.000000
0.000000 0.000000 0.000000
0.000000 0.000000 0.000000
0.000000 0.000000 0.000000
0.000000 0.000000 0.000000
0.000000 0.000000 0.000000
0.000000 0.000000 0.000000
0.000000 0.000000 0.000000
0.000000 0.000000 0.000000
0.000000 0.000000 0.000000
0.000000 0.000000 0.000000
0.000000 0.212404 0.002281
0.028356 0.202934 0.000000
0.052713 0.193753 0.000000
0.073573 0.185852 0.000000
0.090581 0.177648 0.000000
0.104832 0.170773 0.000000
0.117694 0.163705 0.000000
0.130210 0.157837 0.000000
0.142970 0.153671 0.000000
0.156238 0.149592 0.000000
0.170765 0.146215 0.000000
0.185079 0.143224 0.000000
0.199701 0.140557 0.000000
0.214487 0.138082 0.000000
0.229328 0.134884 0.000000
0.244165 0.131295 0.000000
0.258974 0.127169 0.000000
0.273794 0.122854 0.000000
0.288697 0.117057 0.000000
0.303791 0.109801 0.000000
0.319386 0.101504 0.000000
0.335764 0.090362 0.000000
0.353122 0.075036 0.000000
0.371488 0.053670 0.000000
0.390523 0.025919 0.000000
0.413815 0.000000 0.009569
0.440857 0.000000 0.032644
0.466839 0.000000 0.057372
0.484114 0.000000 0.085462
0.501260 0.000000 0.113552
0.516264 0.000000 0.139587
0.530490 0.000000 0.165299
0.544398 0.000000 0.185372
0.557385 0.000000 0.202467
0.562181 0.000000 0.220082
0.573982 0.000000 0.235185
0.578583 0.000000 0.249575
0.588714 0.000000 0.263382
0.592512 0.000000 0.276499
0.601687 0.000000 0.288793
0.605039 0.000000 0.295052
0.608387 0.000000 0.305981
0.615850 0.000000 0.311879
0.618763 0.000000 0.321621
0.621675 0.000000 0.326979
0.624582 0.000000 0.335322
0.629942 0.000000 0.340283
0.632426 0.000000 0.347317
0.634908 0.000000 0.352001
0.637389 0.000000 0.356628
0.639866 0.000000 0.361939
0.642744 0.000000 0.366021
0.000000 0.000000 0.000000
0.000000 0.000000 0.000000
0.000000 0.000000 0.000000
0.000000 0.000000 0.000000
0.000000 0.000000 0.000000
0.000000 0.000000 0.000000
0.000000 0.000000 0.000000
0.000000 0.000000 0.000000
0.000000 0.000000 0.000000
0.000000 0.000000 0.000000
0.000000 0.000000 0.000000
0.000000 0.000000 0.000000
0.000000 0.227459 0.003081
0.027076 0.219183 0.000000
0.052022 0.212143 0.000000
0.074184 0.204624 0.000000
0.092696 0.198287 0.000000
0.107949 0.191095 0.000000
0.121363 0.185029 0.000000
0.133879 0.178808 0.000000
0.146414 0.173634 0.000000
0.159273 0.170041 0.000000
0.172575 0.166334 0.000000
0.187167 0.163157 0.000000
0.201423 0.160248 0.000000
0.215916 0.157354 0.000000
0.230533 0.155027 0.000000
0.245202 0.151694 0.000000
0.259890 0.147941 0.000000
0.274607 0.143649 0.000000
0.289432 0.139243 0.000000
0.304520 0.133447 0.000000
0.320067 0.126348 0.000000
0.336476 0.118529 0.000000
0.353832 0.107912 0.000000
0.372223 0.092926 0.000000
0.390927 0.069204 0.000000
0.411733 0.037357 0.000000
0.434619 0.000000 0.003143
0.460084 0.000000 0.021635
0.483063 0.000000 0.040886
0.499569 0.000000 0.063473
0.515352 0.000000 0.093737
0.530382 0.000000 0.123801
0.544622 0.000000 0.152345
0.558043 0.000000 0.171034
0.563498 0.000000 0.194184
0.574889 0.000000 0.213731
0.582215 0.000000 0.229600
0.589961 0.000000 0.244582
0.593816 0.000000 0.258696
0.603276 0.000000 0.267273
0.606634 0.000000 0.278944
0.611821 0.000000 0.290714
0.617787 0.000000 0.297887
0.620705 0.000000 0.307840
0.623621 0.000000 0.317396
0.629740 0.000000 0.322951
0.632230 0.000000 0.329380
0.634718 0.000000 0.336497
0.637204 0.000000 0.341592
0.639687 0.000000 0.348182
0.643318 0.000000 0.352789
0.645385 0.000000 0.357349
0.647450 0.000000 0.362324
0.000000 0.000000 0.000000
0.000000 0.000000 0.000000
0.000000 0.000000 0.000000
0.000000 0.000000 0.000000
0.000000 0.000000 0.000000
0.000000 0.000000 0.000000
0.000000 0.000000 0.000000
0.000000 0.000000 0.000000
0.000000 0.000000 0.000000
0.000000 0.000000 0.000000
0.000000 0.000000 0.000000
0.000000 0.242546 0.004119
0.025609 0.235614 0.000000
0.050981 0.229873 0.000000
0.074223 0.223494 0.000000
0.093612 0.218104 0.000000
0.109621 0.211509 0.000000
0.124668 0.205011 0.000000
0.137533 0.199569 0.000000
0.149903 0.194021 0.000000
0.162512 0.189427 0.000000
0.175501 0.186338 0.000000
0.188874 0.182960 0.000000
0.203021 0.179967 0.000000
0.217711 0.177142 0.000000
0.232095 0.174236 0.000000
0.246560 0.171683 0.000000
0.261101 0.168438 0.000000
0.275704 0.164589 0.000000
0.290429 0.160230 0.000000
0.305421 0.155913 0.000000
0.320982 0.150432 0.000000
0.337364 0.143963 0.000000
0.354751 0.137010 0.000000
0.373160 0.126741 0.000000
0.391872 0.113430 0.000000
0.412744 0.093581 0.000000
0.434885 0.062388 0.000000
0.455912 0.030082 0.000000
0.478730 0.000000 0.000829
0.498844 0.000000 0.015087
0.514931 0.000000 0.034368
0.530278 0.000000 0.061844
0.544845 0.000000 0.093712
0.558600 0.000000 0.124499
0.565748 0.000000 0.153529
0.575787 0.000000 0.175483
0.585814 0.000000 0.198498
0.591198 0.000000 0.215394
0.598769 0.000000 0.231142
0.604852 0.000000 0.246124
0.608217 0.000000 0.259953
0.616782 0.000000 0.273090
0.619710 0.000000 0.280127
0.622634 0.000000 0.291808
0.627217 0.000000 0.302568
0.632010 0.000000 0.308645
0.634505 0.000000 0.317945
0.636998 0.000000 0.323850
0.639488 0.000000 0.331764
0.643871 0.000000 0.336953
0.645944 0.000000 0.342081
0.648014 0.000000 0.348408
0.650083 0.000000 0.353288
0.652150 0.000000 0.357848
0.000000 0.000000 0.000000
0.000000 0.000000 0.000000
0.000000 0.000000 0.000000
0.000000 0.000000 0.000000
0.000000 0.000000 0.000000
0.000000 0.000000 0.000000
0.000000 0.000000 0.000000
0.000000 0.000000 0.000000
0.000000 0.000000 0.000000
0.000000 0.000000 0.000000
0.000000 0.257645 0.005466
0.023878 0.251676 0.000000
0.049523 0.247037 0.000000
0.073600 0.241651 0.000000
0.093799 0.236142 0.000000
0.111348 0.231230 0.000000
0.126544 0.225176 0.000000
0.140492 0.219177 0.000000
0.153415 0.214260 0.000000
0.165765 0.209259 0.000000
0.178500 0.205173 0.000000
0.191647 0.202557 0.000000
0.205111 0.199491 0.000000
0.218957 0.196686 0.000000
0.233987 0.193960 0.000000
0.248289 0.191079 0.000000
0.262653 0.187912 0.000000
0.277127 0.185284 0.000000
0.291758 0.181469 0.000000
0.306667 0.177242 0.000000
0.322132 0.172670 0.000000
0.338540 0.168703 0.000000
0.355928 0.163301 0.000000
0.374367 0.156812 0.000000
0.393092 0.149809 0.000000
0.414076 0.140361 0.000000
0.436419 0.128711 0.000000
0.457501 0.122295 0.000000
0.479884 0.115522 0.000000
0.498714 0.101886 0.000000
0.514701 0.075525 0.000000
0.530182 0.029115 0.000000
0.545064 0.000000 0.014703
0.559151 0.000000 0.045163
0.567975 0.000000 0.083472
0.576674 0.000000 0.121118
0.588599 0.000000 0.151510
0.592423 0.000000 0.171862
0.603039 0.000000 0.197763
0.606415 0.000000 0.215071
0.611019 0.000000 0.231081
0.618685 0.000000 0.246051
0.621619 0.000000 0.259994
0.624550 0.000000 0.272915
0.631764 0.000000 0.280477
0.634266 0.000000 0.291959
0.636767 0.000000 0.302263
0.639264 0.000000 0.308894
0.644402 0.000000 0.317962
0.646479 0.000000 0.323730
0.648555 0.000000 0.331376
0.650630 0.000000 0.336944
0.652702 0.000000 0.342222
0.654773 0.000000 0.348076
0.657042 0.000000 0.352937
0.000000 0.000000 0.000000
0.000000 0.000000 0.000000
0.000000 0.000000 0.000000
0.000000 0.000000 0.000000
0.000000 0.000000 0.000000
0.000000 0.000000 0.000000
0.000000 0.000000 0.000000
0.000000 0.000000 0.000000
0.000000 0.000000 0.000000
0.000000 0.272751 0.007218
0.021783 0.267418 0.000000
0.047562 0.263713 0.000000
0.072283 0.259184 0.000000
0.093715 0.254368 0.000000
0.112358 0.249819 0.000000
0.128535 0.244706 0.000000
0.142882 0.239058 0.000000
0.156172 0.234147 0.000000
0.169070 0.228999 0.000000
0.181474 0.224476 0.000000
0.194385 0.220864 0.000000
0.207730 0.218526 0.000000
0.221310 0.215968 0.000000
0.235203 0.213381 0.000000
0.249838 0.210798 0.000000
0.264593 0.208012 0.000000
0.278942 0.204921 0.000000
0.293457 0.202488 0.000000
0.308313 0.198955 0.000000
0.323744 0.195271 0.000000
0.340091 0.191646 0.000000
0.357452 0.187978 0.000000
0.374972 0.185202 0.000000
0.394704 0.181530 0.000000
0.415874 0.178036 0.000000
0.437171 0.175904 0.000000
0.459479 0.181037 0.000000
0.481337 0.185894 0.000000
0.498860 0.185947 0.000000
0.514739 0.182852 0.000000
0.530117 0.171759 0.000000
0.544960 0.156683 0.000000
0.559250 0.133373 0.000000
0.569344 0.077078 0.000000
0.577552 0.000000 0.011371
0.589803 0.000000 0.050085
0.593635 0.000000 0.099490
0.604580 0.000000 0.137180
0.607965 0.000000 0.167178
0.617227 0.000000 0.188403
0.620572 0.000000 0.212304
0.623514 0.000000 0.228997
0.630792 0.000000 0.244376
0.633999 0.000000 0.258651
0.636508 0.000000 0.271416
0.639014 0.000000 0.279808
0.644184 0.000000 0.290953
0.646990 0.000000 0.301308
0.649073 0.000000 0.308071
0.651154 0.000000 0.316806
0.653233 0.000000 0.323144
0.655310 0.000000 0.330563
0.658326 0.000000 0.336071
0.659991 0.000000 0.341528
0.661655 0.000000 0.347233
0.000000 0.000000 0.000000
0.000000 0.000000 0.000000
0.000000 0.000000 0.000000
0.000000 0.000000 0.000000
0.000000 0.000000 0.000000
0.000000 0.000000 0.000000
0.000000 0.000000 0.000000
0.000000 0.000000 0.000000
0.000000 0.287816 0.009545
0.019214 0.282874 0.000000
0.046017 0.280039 0.000000
0.070140 0.276124 0.000000
0.093465 0.271979 0.000000
0.112651 0.267519 0.000000
0.129815 0.263570 0.000000
0.145030 0.258377 0.000000
0.158761 0.253053 0.000000
0.171771 0.248597 0.000000
0.184531 0.243740 0.000000
0.197051 0.239655 0.000000
0.210188 0.236499 0.000000
0.223774 0.234262 0.000000
0.237518 0.232446 0.000000
0.251504 0.230139 0.000000
0.265710 0.227782 0.000000
0.280951 0.225225 0.000000
0.295633 0.222401 0.000000
0.310404 0.219405 0.000000
0.325849 0.217682 0.000000
0.342218 0.215178 0.000000
0.359132 0.212922 0.000000
0.376950 0.211296 0.000000
0.396909 0.210728 0.000000
0.418320 0.211633 0.000000
0.438730 0.216756 0.000000
0.461775 0.223337 0.000000
0.482796 0.231659 0.000000
0.499019 0.233740 0.000000
0.514775 0.234650 0.000000
0.530034 0.234365 0.000000
0.544765 0.233206 0.000000
0.558947 0.230026 0.000000
0.568107 0.216806 0.000000
0.577209 0.200468 0.000000
0.589906 0.170727 0.000000
0.595814 0.122203 0.000000
0.606077 0.010769 0.000000
0.609874 0.000000 0.057186
0.619491 0.000000 0.108785
0.622445 0.000000 0.150894
0.626576 0.000000 0.180712
0.633698 0.000000 0.201156
0.636218 0.000000 0.221561
