looks/Brejon_A1_TLog_EGamut2_v011_64_inverse.cube
# The Brejon Look Modification Transform
# Brejon for ACES 1.3 v011 - A pleasing, colorful and natural look for ACES 1.3
# Created by Chris Brejon - chrisbrejon.com - 2026-02-17 12:53:04
# 3 columns rgb, 274625 rows
# Width     64 64 64
# Process Color Space = TLog - Egamut2
# LUT size
LUT_3D_SIZE 8
0.000000 0.000000 0.000000
0.147676 0.000503 0.000000
0.314932 0.000000 0.065735
0.494020 0.000000 0.253435
0.570632 0.000000 0.343004
0.608467 0.000000 0.388871
0.000000 0.000000 0.000000
0.000000 0.000000 0.000000
0.000000 0.227459 0.003081
0.159273 0.170041 0.000000
0.289432 0.139243 0.000000
0.460084 0.000000 0.021635
0.582215 0.000000 0.229600
0.629740 0.000000 0.322951
0.000000 0.000000 0.000000
0.000000 0.000000 0.000000
0.000000 0.367661 0.035130
0.180681 0.340572 0.000000
0.306717 0.316733 0.000000
0.469925 0.363318 0.000000
0.581427 0.388269 0.000000
0.641368 0.353259 0.000000
0.679934 0.000000 0.068543
0.000000 0.000000 0.000000
0.000000 0.511165 0.202030
0.220656 0.498308 0.000000
0.362749 0.483937 0.000000
0.477825 0.484315 0.000000
0.566761 0.502564 0.000000
0.623456 0.499565 0.000000
0.664106 0.482877 0.000000
0.000000 0.000000 0.000000
0.000000 0.571856 0.288772
0.190909 0.577334 0.000000
0.395520 0.574965 0.000000
0.482690 0.571784 0.000000
0.554574 0.561468 0.000000
0.605011 0.560216 0.000000
0.644064 0.553170 0.000000
0.000000 0.000000 0.000000
0.000000 0.603150 0.327473
0.000000 0.619668 0.104487
0.389847 0.618766 0.000000
0.480893 0.616405 0.000000
0.543605 0.608962 0.000000
0.590356 0.601124 0.000000
0.000000 0.000000 0.000000
0.000000 0.000000 0.000000
0.000000 0.000000 0.000000
0.000000 0.639456 0.232614
0.370876 0.644619 0.000000
0.471071 0.641863 0.000000
0.530934 0.638660 0.000000
0.579490 0.634054 0.000000
0.000000 0.000000 0.000000
0.000000 0.000000 0.000000
0.000000 0.000000 0.000000
0.000000 0.000000 0.000000
0.000000 0.000000 0.000000
0.000000 0.000000 0.000000
0.000000 0.000000 0.000000
0.000000 0.000000 0.000000
0.000000 0.000000 0.000000
0.000000 0.000000 0.000000
0.015380 0.000000 0.170716
0.156176 0.000000 0.156024
0.340281 0.000000 0.226598
0.495973 0.000000 0.349345
0.569031 0.000000 0.408845
0.000000 0.000000 0.000000
0.000000 0.000000 0.000000
0.000000 0.000000 0.000000
0.000000 0.182911 0.180150
0.134526 0.134526 0.134526
0.283473 0.108166 0.136157
0.467250 0.000000 0.224179
0.578366 0.000000 0.356562
0.624412 0.000000 0.407436
0.000000 0.000000 0.000000
0.000000 0.000000 0.000000
0.000000 0.361295 0.223399
0.145019 0.319437 0.151248
0.282943 0.291336 0.126305
0.441601 0.269533 0.088269
0.604202 0.000000 0.054095
0.654314 0.000000 0.309763
0.677725 0.000000 0.378981
0.000000 0.000000 0.000000
0.000000 0.508191 0.328669
0.000000 0.486919 0.173879
0.284071 0.465516 0.019458
0.450606 0.460304 0.000000
0.584135 0.487134 0.000000
0.654091 0.473639 0.000000
0.697396 0.416449 0.000000
0.724111 0.000000 0.081820
0.000000 0.569918 0.380879
0.000000 0.577803 0.296526
0.310268 0.590428 0.000000
0.467909 0.580583 0.000000
0.561452 0.574323 0.000000
0.626801 0.569655 0.000000
0.671028 0.553433 0.000000
0.703115 0.526921 0.000000
0.000000 0.600942 0.401185
0.000000 0.618293 0.343912
0.243553 0.637631 0.000000
0.463256 0.635337 0.000000
0.546554 0.630902 0.000000
0.606592 0.618224 0.000000
0.648529 0.604917 0.000000
0.000000 0.000000 0.000000
0.000000 0.000000 0.000000
0.000000 0.637879 0.369767
0.000000 0.663108 0.162005
0.442176 0.662824 0.000000
0.528800 0.659977 0.000000
0.589914 0.653839 0.000000
0.631210 0.640367 0.000000
0.000000 0.000000 0.000000
0.000000 0.000000 0.000000
0.000000 0.000000 0.000000
0.000000 0.000000 0.000000
0.410896 0.679015 0.000000
0.508915 0.676598 0.000000
0.569390 0.674685 0.000000
0.615185 0.668928 0.000000
0.000000 0.000000 0.000000
0.124418 0.000000 0.361630
0.228679 0.000000 0.343187
0.344685 0.000000 0.343497
0.495998 0.000000 0.420724
0.565679 0.000000 0.461104
0.000000 0.000000 0.000000
0.000000 0.000000 0.000000
0.000000 0.000000 0.000000
0.000000 0.165507 0.329900
0.121034 0.088216 0.288466
0.282934 0.098895 0.282168
0.472973 0.000000 0.363884
0.576344 0.000000 0.436517
0.621425 0.000000 0.466583
0.000000 0.000000 0.000000
0.000000 0.000000 0.000000
0.000000 0.388054 0.387890
0.063413 0.293460 0.291754
0.279759 0.279759 0.279759
0.442735 0.252633 0.289610
0.599548 0.000000 0.377079
0.651783 0.000000 0.435392
0.673807 0.000000 0.461026
0.000000 0.000000 0.000000
0.000000 0.504884 0.429760
0.000000 0.484296 0.358613
0.277477 0.460505 0.291296
0.435645 0.444112 0.271016
0.619563 0.433175 0.000000
0.702254 0.000000 0.075803
0.715462 0.000000 0.374722
0.721399 0.000000 0.426330
0.000000 0.562990 0.448058
0.000000 0.575675 0.415912
0.000000 0.593639 0.317913
0.428316 0.604763 0.000000
0.579540 0.592201 0.000000
0.667094 0.575318 0.000000
0.714849 0.540523 0.000000
0.745194 0.468168 0.000000
0.000000 0.596999 0.457323
0.000000 0.615612 0.432705
0.000000 0.638977 0.371860
0.390619 0.665734 0.000000
0.553188 0.656689 0.000000
0.634976 0.640470 0.000000
0.680894 0.621337 0.000000
0.714633 0.598783 0.000000
0.000000 0.000000 0.000000
0.000000 0.000000 0.000000
0.000000 0.661251 0.396187
0.300033 0.690040 0.000000
0.521374 0.685602 0.000000
0.605111 0.683359 0.000000
0.654668 0.666002 0.000000
0.687209 0.645805 0.000000
0.000000 0.000000 0.000000
0.000000 0.000000 0.000000
0.000000 0.000000 0.000000
0.000000 0.701534 0.200755
0.485203 0.701357 0.000000
0.573494 0.699426 0.000000
0.633244 0.696074 0.000000
0.668246 0.678413 0.000000
0.263773 0.000000 0.497016
0.341283 0.000000 0.494239
0.413241 0.000000 0.484612
0.494101 0.000000 0.492669
0.559344 0.000000 0.506611
0.000000 0.000000 0.000000
0.000000 0.000000 0.000000
0.000000 0.000000 0.000000
0.000000 0.077242 0.484019
0.247286 0.000000 0.480701
0.355557 0.000000 0.467817
0.473557 0.000000 0.470003
0.572989 0.000000 0.499339
0.617535 0.000000 0.514166
0.000000 0.000000 0.000000
0.000000 0.000000 0.000000
0.000000 0.402663 0.496370
0.000000 0.290177 0.467596
0.273422 0.230871 0.444308
0.439327 0.223956 0.437778
0.592503 0.000000 0.489428
0.647814 0.000000 0.511161
0.668576 0.000000 0.518598
0.000000 0.000000 0.000000
0.000000 0.497936 0.498869
0.000000 0.483529 0.484041
0.150387 0.444157 0.444297
0.433135 0.433135 0.433135
0.627525 0.379231 0.454014
0.699386 0.000000 0.484044
0.712146 0.000000 0.499256
0.716112 0.000000 0.507368
0.000000 0.556268 0.504863
0.000000 0.570136 0.496131
0.000000 0.590123 0.474214
0.386074 0.613945 0.423338
0.601054 0.609719 0.407201
0.741873 0.567476 0.000000
0.784605 0.000000 0.108909
0.772068 0.000000 0.434151
0.000000 0.000000 0.000000
0.000000 0.607395 0.496482
0.000000 0.635590 0.480535
0.000000 0.683355 0.419589
0.546241 0.711453 0.000000
0.679996 0.687321 0.000000
0.732216 0.646171 0.000000
0.768514 0.595387 0.000000
0.000000 0.000000 0.000000
0.000000 0.000000 0.000000
0.000000 0.654907 0.479382
0.000000 0.696188 0.433342
0.467418 0.731280 0.000000
0.623470 0.729423 0.000000
0.696840 0.702496 0.000000
0.728493 0.669832 0.000000
0.000000 0.000000 0.000000
0.000000 0.000000 0.000000
0.000000 0.000000 0.000000
0.000000 0.699279 0.438927
0.357206 0.741899 0.000000
0.573422 0.733960 0.000000
0.655170 0.732265 0.000000
0.700457 0.711571 0.000000
0.329366 0.000000 0.558078
0.389885 0.000000 0.557424
0.446447 0.000000 0.556664
0.499294 0.000000 0.554522
0.551855 0.000000 0.548360
0.000000 0.000000 0.000000
0.000000 0.000000 0.000000
0.000000 0.000000 0.000000
0.210943 0.000000 0.570628
0.340042 0.000000 0.569709
0.419381 0.000000 0.566947
0.494634 0.000000 0.562358
0.559569 0.000000 0.557773
0.608826 0.000000 0.556630
0.000000 0.000000 0.000000
0.000000 0.000000 0.000000
0.000000 0.388580 0.569624
0.000000 0.075001 0.584282
0.357679 0.000000 0.584526
0.473956 0.000000 0.583601
0.576029 0.000000 0.574780
0.637157 0.000000 0.570456
0.663996 0.000000 0.562216
0.000000 0.000000 0.000000
0.000000 0.493781 0.557542
0.000000 0.479231 0.572574
0.000000 0.420598 0.596420
0.432515 0.371339 0.610163
0.606878 0.315965 0.604219
0.686256 0.000000 0.589598
0.702775 0.000000 0.572954
0.712039 0.000000 0.561891
0.000000 0.545787 0.547845
0.000000 0.554934 0.556486
0.000000 0.568341 0.572819
0.000000 0.602516 0.605232
0.596072 0.596072 0.596072
0.796211 0.458997 0.606568
0.778680 0.000000 0.574045
0.763638 0.000000 0.557902
0.000000 0.000000 0.000000
0.000000 0.597686 0.546704
0.000000 0.621701 0.555156
0.000000 0.669200 0.561045
0.473653 0.765412 0.550777
0.753264 0.761999 0.535236
0.843601 0.673963 0.000000
0.858934 0.000000 0.160331
0.000000 0.000000 0.000000
0.000000 0.000000 0.000000
0.000000 0.648104 0.540017
0.000000 0.685728 0.539341
0.000000 0.759760 0.499515
0.648146 0.808164 0.000000
0.765500 0.778764 0.000000
0.794964 0.712613 0.000000
0.000000 0.000000 0.000000
0.000000 0.000000 0.000000
0.000000 0.000000 0.000000
0.000000 0.694901 0.522362
0.000000 0.745488 0.487922
0.539153 0.794030 0.000000
0.690247 0.792938 0.000000
0.752073 0.762629 0.000000
0.000000 0.000000 0.000000
0.416213 0.000000 0.592185
0.461723 0.000000 0.592570
0.505909 0.000000 0.591824
0.546369 0.000000 0.586594
0.000000 0.000000 0.000000
0.000000 0.000000 0.000000
0.000000 0.000000 0.000000
0.294739 0.000000 0.605909
0.382381 0.000000 0.606676
0.445372 0.000000 0.607653
0.499442 0.000000 0.608324
0.554155 0.000000 0.604406
0.596871 0.000000 0.592496
0.000000 0.000000 0.000000
0.000000 0.000000 0.000000
0.000000 0.339536 0.616474
0.276640 0.000000 0.630646
0.405372 0.000000 0.633569
0.491703 0.000000 0.635720
0.561227 0.000000 0.634711
0.619095 0.000000 0.617028
0.654327 0.000000 0.602510
0.000000 0.000000 0.000000
0.000000 0.479862 0.601397
0.000000 0.449038 0.624826
0.017883 0.000000 0.670161
0.452328 0.000000 0.674829
0.576772 0.000000 0.685186
0.656204 0.000000 0.654733
0.696866 0.000000 0.625998
0.707407 0.000000 0.606779
0.000000 0.000000 0.000000
0.000000 0.541327 0.604923
0.000000 0.544181 0.637218
0.000000 0.530306 0.707141
0.579338 0.505981 0.760251
0.758274 0.387477 0.755055
0.767987 0.000000 0.670322
0.759686 0.000000 0.628246
0.000000 0.000000 0.000000
0.000000 0.000000 0.000000
0.000000 0.603802 0.605838
0.000000 0.638639 0.640183
0.000000 0.734806 0.738585
0.744766 0.744766 0.744766
0.946240 0.554575 0.751708
0.855404 0.000000 0.651721
0.000000 0.000000 0.000000
0.000000 0.000000 0.000000
0.000000 0.634732 0.586110
0.000000 0.670056 0.604821
0.000000 0.740932 0.637719
0.579557 0.911515 0.686258
0.898513 0.907241 0.671876
0.945354 0.778010 0.000000
0.000000 0.000000 0.000000
0.000000 0.000000 0.000000
0.000000 0.000000 0.000000
0.000000 0.684628 0.580077
0.000000 0.734122 0.589534
0.000000 0.830424 0.576876
0.746332 0.903059 0.000000
0.856085 0.861969 0.000000
0.000000 0.000000 0.000000
0.000000 0.000000 0.000000
0.000000 0.000000 0.000000
0.000000 0.000000 0.000000
0.000000 0.000000 0.000000
0.000000 0.000000 0.000000
0.000000 0.000000 0.000000
0.000000 0.000000 0.000000
0.000000 0.000000 0.000000
0.000000 0.000000 0.000000
0.456505 0.000000 0.630986
0.503359 0.000000 0.633069
0.546679 0.000000 0.632640
0.000000 0.000000 0.000000
0.000000 0.000000 0.000000
0.000000 0.000000 0.000000
0.000000 0.002244 0.648491
0.341880 0.000000 0.650205
0.429909 0.000000 0.652447
0.494099 0.000000 0.655183
0.553189 0.000000 0.660013
0.601453 0.000000 0.650957
0.636848 0.000000 0.633992
0.000000 0.000000 0.000000
0.000000 0.000000 0.000000
0.000000 0.385931 0.664585
0.337975 0.000000 0.684680
0.467135 0.000000 0.688979
0.556316 0.000000 0.698292
0.624269 0.000000 0.696877
0.669885 0.000000 0.667638
0.697280 0.000000 0.645729
0.000000 0.000000 0.000000
0.000000 0.521852 0.643022
0.000000 0.505290 0.682137
0.131848 0.000000 0.748633
0.543385 0.000000 0.762693
0.670645 0.000000 0.778530
0.733000 0.000000 0.731404
0.748894 0.000000 0.682956
0.000000 0.000000 0.000000
0.000000 0.000000 0.000000
0.000000 0.585768 0.649246
0.000000 0.605982 0.698810
0.000000 0.634292 0.811312
0.722879 0.645356 0.904706
0.903136 0.489850 0.899763
0.845931 0.000000 0.748665
0.000000 0.000000 0.000000
0.000000 0.000000 0.000000
0.000000 0.000000 0.000000
0.000000 0.649751 0.652147
0.000000 0.702909 0.709480
0.000000 0.861613 0.865732
0.888820 0.888820 0.888820
1.000000 0.776330 0.842035
0.000000 0.000000 0.000000
0.000000 0.000000 0.000000
0.000000 0.000000 0.000000
0.000000 0.670097 0.622425
0.000000 0.716562 0.652233
0.000000 0.809861 0.707587
0.751270 1.000000 0.804609
0.990814 1.000000 0.804262
0.000000 0.000000 0.000000
0.000000 0.000000 0.000000
0.000000 0.000000 0.000000
0.000000 0.000000 0.000000
0.000000 0.000000 0.000000
0.000000 0.000000 0.000000
0.000000 0.000000 0.000000
0.000000 0.000000 0.000000
0.000000 0.000000 0.000000
0.000000 0.000000 0.000000
0.000000 0.000000 0.000000
0.000000 0.000000 0.000000
0.000000 0.000000 0.000000
0.000000 0.000000 0.000000
0.000000 0.000000 0.000000
0.000000 0.000000 0.000000
0.000000 0.000000 0.000000
0.000000 0.000000 0.000000
0.000000 0.000000 0.000000
0.494682 0.000000 0.667945
0.542359 0.000000 0.671141
0.586465 0.000000 0.670645
0.000000 0.000000 0.000000
0.000000 0.000000 0.000000
0.000000 0.000000 0.000000
0.040115 0.000000 0.689667
0.386559 0.000000 0.692662
0.475317 0.000000 0.696528
0.540952 0.000000 0.701148
0.601098 0.000000 0.708203
0.646629 0.000000 0.695591
0.676231 0.000000 0.672946
0.000000 0.000000 0.000000
0.000000 0.000000 0.000000
0.000000 0.431274 0.711061
0.394051 0.000000 0.741145
0.526890 0.000000 0.746657
0.618226 0.000000 0.759617
0.685579 0.000000 0.755068
0.719930 0.000000 0.716675
0.000000 0.000000 0.000000
0.000000 0.000000 0.000000
0.000000 0.560768 0.681662
0.000000 0.557090 0.732837
0.231107 0.000000 0.826103
0.624120 0.000000 0.842951
0.763631 0.000000 0.868783
0.808642 0.000000 0.804948
0.000000 0.000000 0.000000
0.000000 0.000000 0.000000
0.000000 0.000000 0.000000
0.000000 0.628345 0.691738
0.000000 0.666293 0.758988
0.000000 0.734039 0.912483
0.836781 0.787498 1.000000
1.000000 0.725177 0.996702
0.000000 0.000000 0.000000
0.000000 0.000000 0.000000
0.000000 0.000000 0.000000
0.000000 0.000000 0.000000
0.000000 0.694063 0.696717
0.000000 0.767651 0.775105
0.000000 0.988539 0.992752
1.000000 1.000000 1.000000
