looks/Brejon_A1_TLog_EGamut2_v014_65.cube
# The Brejon Look Modification Transform
# Brejon for ACES 1.3 v014 - A pleasing, colorful and natural look for ACES 1.3
# Created by Chris Brejon - chrisbrejon.com - 2026-02-25 10:10:58
# 3 columns rgb, 274625 rows
# Width     65 65 65
# Process Color Space = TLog - Egamut2
# LUT size
LUT_3D_SIZE 65
0.058720 0.058720 0.058720
0.068673 0.059529 0.059529
0.077379 0.061756 0.061754
0.080558 0.067586 0.067584
0.076656 0.072957 0.074070
0.075107 0.074865 0.074946
0.093335 0.065320 0.074981
0.112152 0.058799 0.071349
0.130230 0.058618 0.062222
0.147248 0.058577 0.054905
0.161962 0.058481 0.054169
0.177329 0.058813 0.053657
0.193323 0.059627 0.053367
0.209470 0.061102 0.053457
0.225183 0.063421 0.054108
0.239514 0.066745 0.055564
0.253670 0.070942 0.057491
0.268351 0.076154 0.059810
0.283201 0.082409 0.062730
0.298179 0.089712 0.066411
0.313259 0.098143 0.071052
0.328407 0.107763 0.076885
0.343520 0.118571 0.083839
0.358183 0.130361 0.091825
0.372347 0.142985 0.100778
0.386065 0.156335 0.110642
0.399393 0.170311 0.121347
0.412375 0.184821 0.132820
0.425036 0.199768 0.144987
0.437403 0.215063 0.157763
0.449492 0.230611 0.171055
0.461317 0.246329 0.184776
0.472893 0.262127 0.198826
0.484230 0.277930 0.213119
0.495344 0.293662 0.227562
0.506256 0.309264 0.242080
0.517050 0.324744 0.256658
0.527979 0.340276 0.271436
0.539061 0.355822 0.286372
0.550296 0.371345 0.301408
0.561698 0.386813 0.316507
0.573286 0.402217 0.331635
0.585076 0.417552 0.346780
0.597092 0.432828 0.361931
0.609347 0.448055 0.377087
0.621855 0.463248 0.392249
0.634626 0.478425 0.407425
0.647656 0.493596 0.422618
0.660944 0.508779 0.437835
0.674480 0.523977 0.453079
0.688251 0.539204 0.468352
0.702242 0.554459 0.483657
0.716432 0.569748 0.498994
0.730809 0.585068 0.514362
0.745347 0.600423 0.529758
0.760034 0.615809 0.545184
0.774848 0.631223 0.560633
0.789779 0.646664 0.576107
0.804807 0.662130 0.591599
0.819923 0.677616 0.607111
0.835113 0.693123 0.622637
0.850367 0.708645 0.638180
0.865676 0.724183 0.653731
0.881033 0.739732 0.669296
0.896431 0.755294 0.684868
0.058718 0.068341 0.058718
0.068339 0.068340 0.058718
0.077664 0.068917 0.060126
0.078000 0.072614 0.070623
0.075112 0.074859 0.074944
0.090195 0.068816 0.073871
0.103802 0.069191 0.068235
0.117975 0.069779 0.061321
0.132966 0.070055 0.056505
0.147379 0.070371 0.055325
0.162107 0.071036 0.054580
0.177471 0.072062 0.054076
0.193452 0.073540 0.053801
0.209585 0.075579 0.053907
0.225281 0.078224 0.054573
0.239593 0.081415 0.056037
0.253747 0.085215 0.057968
0.268421 0.089792 0.060296
0.283265 0.095228 0.063229
0.298238 0.101625 0.066924
0.313313 0.109082 0.071583
0.328456 0.117678 0.077424
0.343564 0.127429 0.084359
0.358221 0.138144 0.092320
0.372381 0.149719 0.101244
0.386095 0.162079 0.111074
0.399420 0.175153 0.121744
0.412399 0.188860 0.133182
0.425058 0.203105 0.145313
0.437422 0.217799 0.158055
0.449510 0.232840 0.171314
0.461334 0.248133 0.185004
0.472909 0.263581 0.199026
0.484245 0.279099 0.213294
0.495358 0.294599 0.227714
0.506270 0.310015 0.242211
0.517063 0.325344 0.256771
0.527992 0.340757 0.271534
0.539073 0.356209 0.286456
0.550308 0.371656 0.301481
0.561710 0.387064 0.316569
0.573298 0.402420 0.331689
0.585086 0.417717 0.346827
0.597102 0.432962 0.361970
0.609356 0.448165 0.377120
0.621864 0.463338 0.392278
0.634634 0.478499 0.407450
0.647663 0.493657 0.422639
0.660951 0.508829 0.437853
0.674486 0.524019 0.453094
0.688256 0.539239 0.468365
0.702247 0.554488 0.483668
0.716436 0.569772 0.499003
0.730812 0.585089 0.514370
0.745350 0.600440 0.529765
0.760036 0.615823 0.545189
0.774850 0.631235 0.560638
0.789781 0.646674 0.576111
0.804808 0.662138 0.591602
0.819924 0.677623 0.607114
0.835114 0.693129 0.622639
0.850368 0.708650 0.638182
0.865677 0.724187 0.653733
0.881034 0.739736 0.669298
0.896432 0.755297 0.684869
0.058675 0.077924 0.058678
0.068322 0.077920 0.058679
0.077712 0.077714 0.059839
0.075000 0.075745 0.073503
0.082356 0.077083 0.071161
0.093348 0.077815 0.066683
0.105326 0.078511 0.061317
0.119298 0.079668 0.058495
0.133089 0.080746 0.056868
0.147308 0.081899 0.055773
0.162164 0.083226 0.054989
0.177618 0.084799 0.054466
0.193587 0.086697 0.054210
0.209704 0.088963 0.054336
0.225383 0.091570 0.055019
0.239674 0.094363 0.056493
0.253826 0.097642 0.058430
0.268494 0.101670 0.060770
0.283331 0.106480 0.063716
0.298298 0.112176 0.067428
0.313367 0.118863 0.072106
0.328506 0.126631 0.077952
0.343608 0.135509 0.084871
0.358260 0.145321 0.092809
0.372415 0.155994 0.101704
0.386125 0.167487 0.111502
0.399447 0.179754 0.122138
0.412423 0.192729 0.133540
0.425079 0.206326 0.145637
0.437442 0.220456 0.158344
0.449528 0.235014 0.171572
0.461351 0.249903 0.185232
0.472925 0.265013 0.199226
0.484259 0.280253 0.213468
0.495373 0.295527 0.227866
0.506283 0.310759 0.242343
0.517076 0.325941 0.256884
0.528005 0.341236 0.271632
0.539086 0.356593 0.286540
0.550320 0.371966 0.301553
0.561722 0.387314 0.316631
0.573309 0.402622 0.331742
0.585097 0.417881 0.346872
0.597112 0.433096 0.362009
0.609365 0.448275 0.377154
0.621873 0.463428 0.392306
0.634642 0.478573 0.407474
0.647670 0.493719 0.422660
0.660957 0.508880 0.437871
0.674491 0.524062 0.453109
0.688260 0.539274 0.468378
0.702251 0.554517 0.483679
0.716440 0.569797 0.499013
0.730815 0.585109 0.514379
0.745353 0.600458 0.529772
0.760039 0.615838 0.545195
0.774852 0.631247 0.560643
0.789783 0.646684 0.576115
0.804810 0.662147 0.591605
0.819926 0.677630 0.607117
0.835115 0.693135 0.622642
0.850369 0.708655 0.638184
0.865678 0.724191 0.653735
0.881034 0.739739 0.669299
0.896433 0.755300 0.684870
0.058330 0.087058 0.058333
0.069346 0.084987 0.059559
0.075000 0.075745 0.073503
0.076426 0.077563 0.072805
0.084486 0.080892 0.067760
0.095179 0.084012 0.063544
0.106784 0.086449 0.060774
0.119332 0.088463 0.058814
0.132757 0.090296 0.057362
0.147034 0.092107 0.056251
0.162070 0.093993 0.055414
0.177702 0.096019 0.054851
0.193726 0.098233 0.054597
0.209828 0.100657 0.054745
0.225488 0.103231 0.055448
0.239757 0.105715 0.056935
0.253907 0.108595 0.058879
0.268567 0.112195 0.061232
0.283398 0.116511 0.064193
0.298358 0.121646 0.067923
0.313422 0.127706 0.072621
0.328555 0.134790 0.078471
0.343652 0.142940 0.085374
0.358299 0.151981 0.093289
0.372449 0.161867 0.102158
0.386156 0.172594 0.111924
0.399474 0.184137 0.122527
0.412447 0.196441 0.133896
0.425101 0.209438 0.145959
0.437462 0.223038 0.158632
0.449547 0.237139 0.171828
0.461368 0.251639 0.185458
0.472941 0.266423 0.199425
0.484274 0.281393 0.213642
0.495387 0.296446 0.228016
0.506296 0.311497 0.242473
0.517089 0.326534 0.256997
0.528018 0.341713 0.271729
0.539098 0.356977 0.286625
0.550332 0.372275 0.301625
0.561733 0.387564 0.316694
0.573320 0.402824 0.331795
0.585108 0.418046 0.346918
0.597122 0.433230 0.362048
0.609375 0.448384 0.377188
0.621881 0.463518 0.392335
0.634649 0.478647 0.407499
0.647677 0.493780 0.422681
0.660963 0.508931 0.437889
0.674497 0.524104 0.453124
0.688266 0.539309 0.468391
0.702255 0.554547 0.483690
0.716443 0.569821 0.499022
0.730819 0.585130 0.514386
0.745355 0.600475 0.529779
0.760041 0.615852 0.545201
0.774855 0.631259 0.560647
0.789784 0.646694 0.576119
0.804811 0.662155 0.591609
0.819927 0.677637 0.607120
0.835116 0.693141 0.622644
0.850370 0.708660 0.638186
0.865679 0.724196 0.653736
0.881035 0.739743 0.669301
0.896433 0.755303 0.684872
0.064451 0.084989 0.064452
0.075000 0.075745 0.073503
0.075911 0.077275 0.073170
0.079115 0.082170 0.069596
0.086895 0.087038 0.065824
0.096087 0.090543 0.063166
0.106656 0.093465 0.061076
0.118750 0.096122 0.059345
0.132121 0.098622 0.057916
0.146550 0.101055 0.056755
0.161805 0.103482 0.055858
0.177642 0.105944 0.055250
0.193823 0.108477 0.054975
0.209955 0.111046 0.055136
0.225595 0.113589 0.055860
0.239842 0.115825 0.057361
0.253989 0.118388 0.059315
0.268642 0.121645 0.061682
0.283466 0.125559 0.064660
0.298420 0.130233 0.068408
0.313478 0.135774 0.073127
0.328606 0.142287 0.078979
0.343697 0.149817 0.085869
0.358338 0.158191 0.093763
0.372483 0.167390 0.102606
0.386186 0.177433 0.112342
0.399501 0.188319 0.122913
0.412471 0.200009 0.134248
0.425123 0.212448 0.146277
0.437482 0.225549 0.158918
0.449565 0.239216 0.172082
0.461385 0.253342 0.185683
0.472957 0.267811 0.199623
0.484289 0.282519 0.213815
0.495401 0.297355 0.228167
0.506310 0.312230 0.242604
0.517102 0.327123 0.257110
0.528030 0.342187 0.271827
0.539111 0.357359 0.286709
0.550344 0.372583 0.301698
0.561745 0.387813 0.316756
0.573331 0.403026 0.331849
0.585118 0.418209 0.346964
0.597132 0.433364 0.362088
0.609384 0.448494 0.377221
0.621890 0.463608 0.392364
0.634657 0.478721 0.407524
0.647684 0.493841 0.422702
0.660970 0.508982 0.437907
0.674503 0.524146 0.453140
0.688271 0.539344 0.468404
0.702260 0.554576 0.483701
0.716447 0.569846 0.499031
0.730822 0.585150 0.514394
0.745358 0.600492 0.529785
0.760044 0.615867 0.545207
0.774857 0.631271 0.560652
0.789786 0.646704 0.576123
0.804813 0.662164 0.591612
0.819928 0.677644 0.607123
0.835117 0.693147 0.622647
0.850371 0.708666 0.638188
0.865680 0.724200 0.653738
0.881036 0.739747 0.669302
0.896434 0.755307 0.684873
0.074284 0.075712 0.074284
0.075429 0.078346 0.073224
0.075823 0.081953 0.071327
0.080344 0.087879 0.068024
0.087634 0.092626 0.065320
0.095937 0.096097 0.063393
0.105994 0.099470 0.061582
0.117862 0.102730 0.059940
0.131256 0.105877 0.058495
0.145866 0.108929 0.057275
0.161365 0.111899 0.056315
0.177434 0.114800 0.055660
0.193802 0.117656 0.055359
0.210059 0.120409 0.055515
0.225705 0.122940 0.056258
0.239930 0.124969 0.057775
0.254074 0.127273 0.059740
0.268719 0.130245 0.062123
0.283535 0.133825 0.065119
0.298483 0.138115 0.068886
0.313535 0.143220 0.073627
0.328657 0.149246 0.079480
0.343742 0.156239 0.086357
0.358378 0.164027 0.094231
0.372518 0.172617 0.103050
0.386217 0.182047 0.112757
0.399528 0.192333 0.123296
0.412496 0.203456 0.134598
0.425146 0.215372 0.146594
0.437503 0.228002 0.159203
0.449584 0.241254 0.172336
0.461402 0.255021 0.185908
0.472973 0.269184 0.199821
0.484304 0.283635 0.213988
0.495415 0.298258 0.228317
0.506323 0.312959 0.242734
0.517115 0.327711 0.257223
0.528043 0.342661 0.271924
0.539123 0.357740 0.286793
0.550356 0.372891 0.301770
0.561757 0.388062 0.316818
0.573342 0.403228 0.331902
0.585129 0.418374 0.347010
0.597142 0.433498 0.362127
0.609393 0.448603 0.377255
0.621898 0.463698 0.392393
0.634665 0.478796 0.407548
0.647691 0.493903 0.422723
0.660976 0.509033 0.437924
0.674508 0.524188 0.453155
0.688276 0.539380 0.468417
0.702264 0.554605 0.483712
0.716451 0.569870 0.499041
0.730825 0.585171 0.514402
0.745361 0.600509 0.529792
0.760046 0.615881 0.545212
0.774859 0.631284 0.560657
0.789788 0.646715 0.576127
0.804814 0.662172 0.591616
0.819930 0.677652 0.607125
0.835119 0.693153 0.622649
0.850372 0.708671 0.638190
0.865680 0.724204 0.653740
0.881037 0.739750 0.669304
0.896434 0.755310 0.684874
0.074180 0.079105 0.074174
0.074589 0.082883 0.072174
0.075990 0.087608 0.069892
0.080916 0.093420 0.067337
0.087893 0.098203 0.065185
0.095883 0.101990 0.063515
0.105071 0.105233 0.062165
0.116695 0.109068 0.060599
0.130099 0.112895 0.059139
0.144899 0.116629 0.057860
0.160677 0.120216 0.056833
0.177031 0.123623 0.056123
0.193640 0.126856 0.055790
0.210073 0.129837 0.055937
0.225818 0.132422 0.056690
0.240029 0.134266 0.058224
0.254170 0.136331 0.060203
0.268806 0.139039 0.062605
0.283614 0.142309 0.065622
0.298554 0.146237 0.069413
0.313599 0.150927 0.074179
0.328715 0.156484 0.080032
0.343794 0.162955 0.086895
0.358423 0.170173 0.094749
0.372558 0.178156 0.103541
0.386252 0.186968 0.113217
0.399559 0.196642 0.123722
0.412524 0.207180 0.134988
0.425171 0.218550 0.146948
0.437526 0.230682 0.159521
0.449605 0.243490 0.172620
0.461421 0.256870 0.186160
0.472991 0.270702 0.200042
0.484321 0.284872 0.214181
0.495431 0.299262 0.228486
0.506338 0.313771 0.242880
0.517130 0.328366 0.257349
0.528058 0.343190 0.272034
0.539137 0.358167 0.286887
0.550370 0.373235 0.301851
0.561770 0.388341 0.316888
0.573355 0.403454 0.331962
0.585141 0.418558 0.347061
0.597153 0.433648 0.362171
0.609403 0.448727 0.377292
0.621908 0.463800 0.392425
0.634674 0.478879 0.407576
0.647699 0.493972 0.422746
0.660983 0.509090 0.437945
0.674515 0.524236 0.453172
0.688281 0.539419 0.468432
0.702269 0.554638 0.483725
0.716455 0.569898 0.499051
0.730829 0.585194 0.514411
0.745365 0.600529 0.529800
0.760049 0.615897 0.545219
0.774861 0.631297 0.560663
0.789790 0.646726 0.576132
0.804816 0.662182 0.591620
0.819931 0.677660 0.607129
0.835120 0.693160 0.622652
0.850373 0.708676 0.638193
0.865681 0.724209 0.653742
0.881037 0.739754 0.669306
0.896435 0.755313 0.684876
0.073127 0.084172 0.073107
0.073525 0.087923 0.071042
0.076229 0.093919 0.068925
0.081300 0.099473 0.066926
0.088030 0.104288 0.065150
0.095743 0.108349 0.063663
0.104792 0.112051 0.062376
0.115289 0.115448 0.061299
0.128596 0.119943 0.059856
0.143554 0.124431 0.058530
0.159639 0.128738 0.057435
0.176341 0.132760 0.056665
0.193268 0.136466 0.056293
0.209950 0.139753 0.056425
0.225860 0.142457 0.057185
0.240143 0.144189 0.058737
0.254285 0.146029 0.060734
0.268910 0.148480 0.063160
0.283709 0.151446 0.066203
0.298639 0.155017 0.070023
0.313676 0.159293 0.074821
0.328785 0.164380 0.080670
0.343856 0.170326 0.087520
0.358477 0.176958 0.095351
0.372605 0.184314 0.104114
0.386294 0.192475 0.113754
0.399596 0.201498 0.124220
0.412557 0.211405 0.135445
0.425201 0.222176 0.147363
0.437553 0.233758 0.159894
0.449629 0.246071 0.172954
0.461444 0.259013 0.186456
0.473012 0.272467 0.200303
0.484341 0.286317 0.214410
0.495450 0.300437 0.228685
0.506356 0.314724 0.243053
0.517147 0.329136 0.257499
0.528075 0.343812 0.272163
0.539154 0.358670 0.286998
0.550386 0.373642 0.301947
0.561785 0.388670 0.316970
0.573370 0.403722 0.332033
0.585155 0.418775 0.347122
0.597166 0.433826 0.362223
0.609416 0.448872 0.377337
0.621919 0.463919 0.392463
0.634684 0.478977 0.407608
0.647709 0.494053 0.422775
0.660992 0.509157 0.437968
0.674522 0.524292 0.453192
0.688288 0.539466 0.468449
0.702275 0.554677 0.483739
0.716461 0.569930 0.499064
0.730834 0.585221 0.514422
0.745368 0.600552 0.529809
0.760052 0.615917 0.545226
0.774864 0.631314 0.560669
0.789793 0.646740 0.576137
0.804818 0.662193 0.591624
0.819933 0.677669 0.607133
0.835121 0.693168 0.622655
0.850374 0.708683 0.638195
0.865682 0.724215 0.653744
0.881038 0.739759 0.669308
0.896436 0.755317 0.684878
0.071839 0.090061 0.071796
0.073027 0.095178 0.069902
0.076453 0.101011 0.068220
0.081653 0.106331 0.066608
0.088199 0.111113 0.065114
0.095649 0.115344 0.063790
0.104509 0.119409 0.062559
0.115007 0.123344 0.061471
0.126822 0.126972 0.060600
0.141807 0.132192 0.059265
0.158177 0.137301 0.058113
0.175273 0.142052 0.057282
0.192600 0.146350 0.056865
0.209618 0.150048 0.056978
0.225773 0.152955 0.057743
0.240201 0.154653 0.059316
0.254419 0.156343 0.061341
0.269035 0.158548 0.063797
0.283822 0.161218 0.066872
0.298741 0.164441 0.070728
0.313769 0.168315 0.075563
0.328868 0.172939 0.081407
0.343929 0.178360 0.088243
0.358541 0.184400 0.096050
0.372661 0.191112 0.104780
0.386343 0.198597 0.114380
0.399641 0.206937 0.124802
0.412596 0.216171 0.135979
0.425236 0.226294 0.147849
0.437585 0.237272 0.160333
0.449659 0.249036 0.173346
0.461472 0.261488 0.186804
0.473038 0.274516 0.200609
0.484365 0.287998 0.214679
0.495472 0.301810 0.228920
0.506378 0.315839 0.243257
0.517168 0.330041 0.257675
0.528095 0.344544 0.272315
0.539174 0.359262 0.287130
0.550405 0.374121 0.302061
0.561804 0.389058 0.317068
0.573388 0.404037 0.332117
0.585172 0.419032 0.347194
0.597182 0.434036 0.362285
0.609431 0.449044 0.377390
0.621933 0.464061 0.392508
0.634697 0.479094 0.407647
0.647720 0.494150 0.422808
0.661002 0.509237 0.437997
0.674531 0.524359 0.453216
0.688296 0.539521 0.468470
0.702282 0.554724 0.483757
0.716467 0.569969 0.499079
0.730839 0.585254 0.514434
0.745373 0.600579 0.529819
0.760056 0.615939 0.545235
0.774868 0.631333 0.560677
0.789796 0.646756 0.576144
0.804821 0.662207 0.591630
0.819935 0.677681 0.607137
0.835123 0.693177 0.622659
0.850376 0.708691 0.638199
0.865684 0.724222 0.653747
0.881039 0.739765 0.669310
0.896437 0.755322 0.684880
0.070484 0.097706 0.070399
0.072757 0.103636 0.069009
0.076701 0.109129 0.067640
0.082049 0.114216 0.066308
0.088483 0.118900 0.065039
0.095704 0.123176 0.063867
0.104331 0.127453 0.062712
0.114718 0.131793 0.061614
0.126647 0.135992 0.060699
0.139731 0.139867 0.060024
0.156257 0.145758 0.058848
0.173745 0.151328 0.057961
0.191538 0.156340 0.057496
0.208993 0.160575 0.057587
0.225492 0.163799 0.058357
0.240148 0.165556 0.059953
0.254502 0.167173 0.062022
0.269181 0.169213 0.064526
0.283956 0.171603 0.067641
0.298864 0.174493 0.071540
0.313879 0.177975 0.076412
0.328968 0.182149 0.082253
0.344018 0.187052 0.089076
0.358618 0.192502 0.096858
0.372729 0.198563 0.105551
0.386403 0.205360 0.115108
0.399693 0.212990 0.125479
0.412644 0.221512 0.136603
0.425279 0.230944 0.148418
0.437624 0.241268 0.160846
0.449694 0.252429 0.173806
0.461504 0.264336 0.187213
0.473068 0.276885 0.200970
0.484393 0.289951 0.214996
0.495499 0.303410 0.229196
0.506403 0.317143 0.243497
0.517192 0.331100 0.257883
0.528119 0.345403 0.272496
0.539197 0.359959 0.287286
0.550428 0.374686 0.302195
0.561826 0.389516 0.317183
0.573408 0.404410 0.332216
0.585191 0.419336 0.347279
0.597201 0.434284 0.362358
0.609448 0.449248 0.377453
0.621949 0.464228 0.392562
0.634711 0.479232 0.407693
0.647733 0.494264 0.422847
0.661013 0.509332 0.438030
0.674542 0.524437 0.453245
0.688305 0.539587 0.468494
0.702290 0.554778 0.483777
0.716474 0.570015 0.499096
0.730845 0.585292 0.514449
0.745378 0.600611 0.529832
0.760061 0.615967 0.545246
0.774872 0.631355 0.560686
0.789799 0.646775 0.576152
0.804824 0.662223 0.591636
0.819938 0.677694 0.607143
0.835125 0.693189 0.622664
0.850378 0.708701 0.638203
0.865685 0.724230 0.653751
0.881041 0.739772 0.669313
0.896438 0.755328 0.684882
0.069569 0.107745 0.069409
0.072592 0.113289 0.068260
0.077002 0.118464 0.067122
0.082531 0.123304 0.066002
0.088924 0.127824 0.064916
0.095971 0.132034 0.063885
0.104359 0.136361 0.062827
0.114536 0.140918 0.061755
0.126417 0.145526 0.060786
0.139693 0.149969 0.060055
0.153946 0.154061 0.059601
0.171715 0.160437 0.058681
0.189995 0.166261 0.058170
0.207975 0.171172 0.058234
0.224934 0.174856 0.059008
0.239925 0.176799 0.060633
0.254469 0.178416 0.062762
0.269285 0.180380 0.065339
0.284115 0.182572 0.068523
0.299009 0.185146 0.072473
0.314011 0.188254 0.077383
0.329088 0.191992 0.083222
0.344124 0.196390 0.090033
0.358710 0.201260 0.097788
0.372810 0.206676 0.106442
0.386474 0.212778 0.115951
0.399757 0.219680 0.126265
0.412700 0.227461 0.137329
0.425329 0.236164 0.149082
0.437670 0.245788 0.161447
0.449736 0.256291 0.174344
0.461543 0.267598 0.187692
0.473104 0.279613 0.201394
0.484427 0.292211 0.215368
0.495531 0.305270 0.229522
0.506433 0.318664 0.243780
0.517222 0.332339 0.258129
0.528147 0.346411 0.272709
0.539225 0.360777 0.287469
0.550455 0.375350 0.302354
0.561852 0.390056 0.317320
0.573433 0.404849 0.332334
0.585215 0.419694 0.347380
0.597223 0.434578 0.362444
0.609468 0.449488 0.377527
0.621968 0.464426 0.392625
0.634728 0.479395 0.407747
0.647749 0.494399 0.422893
0.661028 0.509444 0.438070
0.674554 0.524530 0.453279
0.688316 0.539665 0.468522
0.702300 0.554843 0.483802
0.716482 0.570069 0.499117
0.730852 0.585337 0.514467
0.745385 0.600649 0.529847
0.760067 0.615998 0.545259
0.774876 0.631382 0.560696
0.789803 0.646797 0.576161
0.804827 0.662242 0.591644
0.819941 0.677710 0.607149
0.835128 0.693202 0.622670
0.850380 0.708712 0.638207
0.865687 0.724239 0.653754
0.881042 0.739780 0.669316
0.896439 0.755334 0.684885
0.068834 0.119138 0.068562
0.072525 0.124299 0.067596
0.077387 0.129144 0.066636
0.083132 0.133706 0.065686
0.089548 0.138002 0.064755
0.096481 0.142054 0.063854
0.104655 0.146290 0.062903
0.114570 0.150867 0.061895
0.126252 0.155658 0.060913
0.139515 0.160471 0.060096
0.153996 0.165088 0.059589
0.169241 0.169329 0.059412
0.187921 0.175970 0.058865
0.206476 0.181672 0.058896
0.224007 0.185972 0.059670
0.239463 0.188260 0.061330
0.254258 0.189962 0.063540
0.269275 0.191931 0.066213
0.284239 0.194022 0.069503
0.299181 0.196363 0.073546
0.314169 0.199118 0.078487
0.329231 0.202442 0.084326
0.344250 0.206357 0.091127
0.358821 0.210665 0.098855
0.372907 0.215448 0.107468
0.386559 0.220856 0.116924
0.399832 0.227021 0.127176
0.412768 0.234045 0.138172
0.425390 0.241986 0.149854
0.437725 0.250868 0.162147
0.449787 0.260664 0.174974
0.461589 0.271319 0.188254
0.473147 0.282743 0.201891
0.484467 0.294819 0.215805
0.495568 0.307426 0.229904
0.506469 0.320434 0.244113
0.517256 0.333786 0.258418
0.528181 0.347590 0.272959
0.539258 0.361736 0.287686
0.550487 0.376131 0.302541
0.561883 0.390691 0.317481
0.573463 0.405367 0.332472
0.585243 0.420117 0.347499
0.597249 0.434924 0.362546
0.609493 0.449772 0.377614
0.621990 0.464660 0.392700
0.634749 0.479588 0.407811
0.647767 0.494559 0.422948
0.661044 0.509577 0.438116
0.674569 0.524641 0.453318
0.688329 0.539757 0.468557
0.702311 0.554920 0.483831
0.716492 0.570133 0.499142
0.730861 0.585391 0.514488
0.745392 0.600694 0.529865
0.760073 0.616036 0.545274
0.774882 0.631414 0.560709
0.789808 0.646824 0.576171
0.804831 0.662265 0.591653
0.819944 0.677729 0.607157
0.835131 0.693218 0.622676
0.850382 0.708726 0.638213
0.865689 0.724251 0.653759
0.881044 0.739789 0.669320
0.896441 0.755343 0.684888
0.068249 0.131986 0.067813
0.072573 0.136742 0.066997
0.077889 0.141226 0.066183
0.083882 0.145467 0.065375
0.090372 0.149481 0.064578
0.097245 0.153293 0.063799
0.105245 0.157321 0.062961
0.114892 0.161743 0.062043
0.126273 0.166490 0.061099
0.139325 0.171429 0.060233
0.153808 0.176369 0.059610
0.169301 0.181090 0.059386
0.185357 0.185411 0.059557
0.204439 0.191936 0.059551
0.222619 0.196984 0.060315
0.238686 0.199802 0.062006
0.253793 0.201681 0.064320
0.269091 0.203759 0.067118
0.284252 0.205836 0.070547
0.299324 0.208051 0.074738
0.314354 0.210539 0.079742
0.329400 0.213474 0.085583
0.344401 0.216930 0.092372
0.358953 0.220696 0.100074
0.373022 0.224862 0.108643
0.386662 0.229589 0.118042
0.399923 0.235023 0.128227
0.412849 0.241279 0.139148
0.425463 0.248439 0.150750
0.437791 0.256542 0.162962
0.449847 0.265588 0.175708
0.461644 0.275539 0.188910
0.473198 0.286316 0.202473
0.484515 0.297815 0.216319
0.495613 0.309915 0.230354
0.506511 0.322486 0.244505
0.517297 0.335471 0.258758
0.528221 0.348968 0.273255
0.539297 0.362860 0.287942
0.550525 0.377047 0.302762
0.561919 0.391438 0.317671
0.573498 0.405977 0.332636
0.585276 0.420615 0.347640
0.597280 0.435332 0.362667
0.609522 0.450108 0.377718
0.622017 0.464936 0.392789
0.634773 0.479817 0.407887
0.647789 0.494748 0.423013
0.661064 0.509733 0.438172
0.674586 0.524771 0.453366
0.688345 0.539865 0.468596
0.702325 0.555011 0.483865
0.716504 0.570209 0.499171
0.730872 0.585455 0.514512
0.745401 0.600747 0.529886
0.760081 0.616081 0.545291
0.774889 0.631452 0.560724
0.789814 0.646856 0.576184
0.804836 0.662291 0.591664
0.819948 0.677752 0.607166
0.835135 0.693237 0.622684
0.850385 0.708742 0.638219
0.865692 0.724264 0.653765
0.881046 0.739801 0.669325
0.896443 0.755352 0.684892
0.067827 0.146271 0.067155
0.072774 0.150583 0.066467
0.078550 0.154662 0.065781
0.084811 0.158530 0.065099
0.091411 0.162204 0.064424
0.098264 0.165709 0.063759
0.106129 0.169439 0.063035
0.115526 0.173584 0.062223
0.126575 0.178118 0.061353
0.139288 0.182958 0.060495
0.153537 0.187960 0.059783
0.169009 0.192918 0.059415
0.185273 0.197622 0.059559
0.201887 0.201899 0.060183
0.220712 0.207767 0.060916
0.237521 0.211301 0.062621
0.252993 0.213442 0.065058
0.268658 0.215742 0.068008
0.284097 0.217907 0.071617
0.299363 0.220084 0.075994
0.314517 0.222418 0.081119
0.329601 0.225049 0.087012
0.344581 0.228070 0.093789
0.359111 0.231325 0.101462
0.373161 0.234901 0.109985
0.386784 0.238968 0.119323
0.400032 0.243682 0.129434
0.412945 0.249173 0.140273
0.425550 0.255537 0.151787
0.437869 0.262838 0.163906
0.449918 0.271099 0.176563
0.461710 0.280299 0.189675
