looks/Brejon_A1_TLog_EGamut2_v016_65.cube
TITLE "Generated by Foundry::LUT"
LUT_3D_SIZE 9
0.046874 0.046874 0.046874
0.125302 0.044430 0.049097
0.251324 0.052834 0.040435
0.370438 0.134434 0.088053
0.468931 0.259113 0.197096
0.555119 0.382348 0.315690
0.652817 0.503754 0.435453
0.765962 0.626551 0.557066
0.887274 0.750852 0.680850
0.058047 0.111297 0.052368
0.130429 0.128279 0.045051
0.252235 0.148285 0.043266
0.370788 0.185360 0.092475
0.469073 0.271382 0.198990
0.555223 0.384551 0.316269
0.652875 0.504199 0.435620
0.765983 0.626655 0.557112
0.887280 0.750878 0.680862
0.092106 0.233975 0.054669
0.156465 0.238227 0.063844
0.253271 0.250789 0.053388
0.372023 0.265149 0.102197
0.469554 0.302508 0.204513
0.555559 0.391324 0.318089
0.653064 0.505621 0.436153
0.766048 0.626991 0.557259
0.887299 0.750962 0.680901
0.183289 0.351598 0.116359
0.212199 0.352898 0.124869
0.270485 0.357585 0.140113
0.374030 0.371462 0.127679
0.471656 0.371552 0.219136
0.556885 0.413785 0.324502
0.653790 0.510954 0.438171
0.766301 0.628282 0.557827
0.887370 0.751288 0.681052
0.288056 0.455588 0.219644
0.296454 0.455951 0.222375
0.319281 0.457144 0.230029
0.376399 0.462090 0.245815
0.476934 0.473563 0.244444
0.562253 0.471145 0.341836
0.656568 0.529423 0.445317
0.767275 0.633152 0.559974
0.887647 0.752541 0.681632
0.396490 0.551986 0.340385
0.398458 0.552119 0.340989
0.404541 0.552545 0.342869
0.424980 0.554212 0.349184
0.478817 0.560840 0.361305
0.577032 0.571711 0.367457
0.666756 0.581460 0.465266
0.770944 0.650315 0.567598
0.888708 0.757276 0.683827
0.519223 0.663191 0.473039
0.519669 0.663238 0.473161
0.521091 0.663387 0.473550
0.526413 0.663963 0.475003
0.544707 0.666185 0.479845
0.595698 0.674585 0.488236
0.691982 0.684941 0.494775
0.783826 0.700740 0.589142
0.892690 0.774061 0.691627
0.644931 0.783596 0.602705
0.645038 0.783609 0.602732
0.645383 0.783652 0.602819
0.646707 0.783820 0.603153
0.651681 0.784467 0.604397
0.668977 0.786943 0.608520
0.718576 0.796087 0.615109
0.813888 0.806107 0.620949
0.906478 0.824037 0.713741
0.770282 0.907292 0.729222
0.770309 0.907295 0.729229
0.770396 0.907307 0.729250
0.770733 0.907352 0.729333
0.772027 0.907525 0.729649
0.776893 0.908194 0.730827
0.793875 0.910751 0.734723
0.843035 0.920122 0.740745
0.938044 0.930037 0.746311
0.047622 0.047101 0.127191
0.130840 0.045514 0.130840
0.250972 0.057626 0.145522
0.370249 0.138098 0.166099
0.468879 0.260375 0.222659
0.555140 0.382743 0.321087
0.652844 0.503884 0.436616
0.765973 0.626589 0.557347
0.887277 0.750862 0.680921
0.051202 0.131177 0.125719
0.131692 0.131692 0.131692
0.252315 0.149203 0.146800
0.370642 0.187172 0.167998
0.469025 0.272457 0.224098
0.555243 0.384936 0.321636
0.652903 0.504328 0.436780
0.765994 0.626694 0.557393
0.887283 0.750888 0.680933
0.096058 0.238931 0.138556
0.160613 0.240777 0.147557
0.253871 0.252647 0.149328
0.372024 0.265512 0.172150
0.469517 0.303204 0.228331
0.555580 0.391679 0.323363
0.653091 0.505748 0.437309
0.766059 0.627029 0.557540
0.887302 0.750972 0.680972
0.186077 0.353112 0.168761
0.214654 0.354195 0.174681
0.272047 0.358326 0.186993
0.374330 0.372095 0.182819
0.471659 0.371760 0.239729
0.556907 0.414054 0.329460
0.653817 0.511074 0.439306
0.766312 0.628320 0.558106
0.887373 0.751298 0.681123
0.289129 0.455969 0.236926
0.297466 0.456318 0.239307
0.320143 0.457468 0.246069
0.376885 0.462291 0.260652
0.477054 0.473770 0.259776
0.562280 0.471268 0.346031
0.656593 0.529522 0.446387
0.767286 0.633188 0.560249
0.887650 0.752551 0.681702
0.396883 0.552104 0.344271
0.398846 0.552235 0.344859
0.404909 0.552659 0.346687
0.425287 0.554313 0.352849
0.478978 0.560909 0.364833
0.577089 0.571796 0.370708
0.666777 0.581515 0.466174
0.770954 0.650345 0.567856
0.888711 0.757285 0.683897
0.519345 0.663227 0.473883
0.519789 0.663274 0.474004
0.521210 0.663423 0.474391
0.526526 0.663998 0.475837
0.544802 0.666216 0.480660
0.595746 0.674608 0.489057
0.692002 0.684971 0.495510
0.783834 0.700758 0.589361
0.892693 0.774069 0.691692
0.644964 0.783606 0.602906
0.645071 0.783619 0.602933
0.645415 0.783662 0.603020
0.646740 0.783830 0.603353
0.651712 0.784476 0.604596
0.669002 0.786952 0.608716
0.718589 0.796093 0.615312
0.813894 0.806116 0.621130
0.906481 0.824041 0.713797
0.770290 0.907294 0.729273
0.770317 0.907298 0.729279
0.770405 0.907310 0.729301
0.770742 0.907354 0.729383
0.772036 0.907528 0.729699
0.776901 0.908197 0.730877
0.793882 0.910753 0.734772
0.843038 0.920124 0.740796
0.938046 0.930040 0.746357
0.037722 0.058701 0.260290
0.150540 0.056088 0.259501
0.253869 0.071470 0.253869
0.370165 0.150239 0.260624
0.468785 0.264431 0.275349
0.555215 0.384011 0.336559
0.652934 0.504300 0.440265
0.766009 0.626712 0.558246
0.887288 0.750895 0.681150
0.044965 0.156553 0.257951
0.151449 0.155076 0.258113
0.254546 0.155165 0.254546
0.370642 0.193673 0.261392
0.468940 0.275933 0.276173
0.555319 0.386172 0.337031
0.652992 0.504743 0.440425
0.766029 0.626816 0.558292
0.887293 0.750921 0.681162
0.090552 0.254250 0.248056
0.161905 0.254327 0.251471
0.255838 0.255838 0.255838
0.372357 0.267011 0.263034
0.469461 0.305486 0.278624
0.555657 0.392819 0.338519
0.653180 0.506157 0.440937
0.766094 0.627152 0.558438
0.887312 0.751005 0.681201
0.192526 0.358061 0.250185
0.220673 0.358630 0.253535
0.276892 0.360949 0.262678
0.375193 0.373927 0.266135
0.471715 0.372451 0.285319
0.556987 0.414920 0.343802
0.653905 0.511461 0.442875
0.766347 0.628441 0.559000
0.887384 0.751331 0.681352
0.292428 0.457190 0.277453
0.300589 0.457496 0.279212
0.322830 0.458512 0.284344
0.378473 0.462922 0.296772
0.477433 0.474424 0.296883
0.562375 0.471664 0.358360
0.656676 0.529840 0.449754
0.767320 0.633303 0.561128
0.887660 0.752584 0.681930
0.398143 0.552481 0.355801
0.400085 0.552609 0.356342
0.406087 0.553022 0.358030
0.426272 0.554638 0.363771
0.479496 0.561129 0.375386
0.577270 0.572068 0.380485
0.666845 0.581691 0.469041
0.770985 0.650443 0.568686
0.888721 0.757317 0.684121
0.519735 0.663344 0.476551
0.520178 0.663390 0.476671
0.521593 0.663538 0.477052
0.526891 0.664110 0.478477
0.545105 0.666318 0.483241
0.595898 0.674681 0.491658
0.692068 0.685068 0.497841
0.783858 0.700814 0.590065
0.892702 0.774096 0.691903
0.645069 0.783638 0.603550
0.645176 0.783651 0.603577
0.645521 0.783694 0.603664
0.646844 0.783862 0.603997
0.651811 0.784507 0.605236
0.669085 0.786980 0.609348
0.718630 0.796114 0.615962
0.813913 0.806144 0.621710
0.906487 0.824057 0.713975
0.770318 0.907303 0.729436
0.770345 0.907306 0.729442
0.770432 0.907318 0.729463
0.770769 0.907363 0.729546
0.772063 0.907536 0.729862
0.776927 0.908205 0.731039
0.793903 0.910761 0.734932
0.843049 0.920129 0.740962
0.938051 0.930047 0.746505
0.082019 0.146994 0.384010
0.170526 0.144955 0.383917
0.268805 0.143929 0.382681
0.374704 0.186263 0.374704
0.469373 0.279674 0.363916
0.555638 0.388819 0.379353
0.653289 0.505895 0.453163
0.766146 0.627187 0.561651
0.887327 0.751023 0.682032
0.089353 0.198736 0.383265
0.172728 0.197577 0.383217
0.269118 0.196142 0.382284
0.374977 0.217944 0.374977
0.469543 0.289242 0.364265
0.555742 0.390861 0.379670
0.653347 0.506331 0.453307
0.766166 0.627290 0.561695
0.887333 0.751049 0.682044
0.110341 0.277009 0.381019
0.179664 0.276469 0.381240
0.270267 0.275414 0.381003
0.375998 0.277962 0.375998
0.470118 0.314619 0.365321
0.556080 0.397161 0.380674
0.653534 0.507722 0.453768
0.766231 0.627624 0.561837
0.887352 0.751134 0.682083
0.195856 0.375624 0.369420
0.224980 0.375704 0.370535
0.282817 0.376022 0.373513
0.378223 0.378223 0.378223
0.472585 0.375407 0.368307
0.557413 0.418249 0.384284
0.654253 0.512944 0.455513
0.766483 0.628908 0.562385
0.887423 0.751459 0.682232
0.302916 0.461851 0.357603
0.310572 0.462039 0.358578
0.331595 0.462660 0.361579
0.384544 0.465488 0.371106
0.478837 0.476812 0.373422
0.562814 0.473213 0.394545
0.657003 0.531066 0.461735
0.767453 0.633748 0.564459
0.887699 0.752710 0.682807
0.402896 0.553915 0.390495
0.404763 0.554031 0.390923
0.410536 0.554406 0.392267
0.430019 0.555879 0.396958
0.481535 0.561952 0.407721
0.577963 0.573112 0.410947
0.667114 0.582370 0.479369
0.771108 0.650819 0.571831
0.888759 0.757437 0.684984
0.521237 0.663791 0.486228
0.521674 0.663836 0.486341
0.523070 0.663981 0.486702
0.528295 0.664542 0.488056
0.546277 0.666706 0.492619
0.596491 0.674960 0.501108
0.692320 0.685440 0.506365
0.783953 0.701031 0.592742
0.892738 0.774198 0.692718
0.645478 0.783762 0.606006
0.645585 0.783775 0.606033
0.645928 0.783818 0.606119
0.647246 0.783985 0.606447
0.652194 0.784627 0.607674
0.669404 0.787088 0.611752
0.718788 0.796194 0.618437
0.813986 0.806252 0.623923
0.906514 0.824117 0.714665
0.770425 0.907336 0.730064
0.770452 0.907339 0.730070
0.770539 0.907351 0.730092
0.770876 0.907395 0.730174
0.772168 0.907569 0.730489
0.777027 0.908237 0.731663
0.793987 0.910789 0.735550
0.843090 0.920151 0.741602
0.938070 0.930076 0.747075
0.184199 0.267062 0.489540
0.217333 0.266320 0.489565
0.279456 0.264347 0.489565
0.374394 0.265107 0.488426
0.477560 0.323776 0.477560
0.558916 0.405757 0.459441
0.654796 0.511822 0.490800
0.766684 0.628998 0.573778
0.887481 0.751518 0.685373
0.187210 0.281361 0.489288
0.219329 0.280732 0.489316
0.280302 0.279029 0.489330
0.374548 0.279075 0.488306
0.477677 0.329883 0.477677
0.559013 0.407437 0.459606
0.654852 0.512233 0.490908
0.766704 0.629100 0.573818
0.887487 0.751544 0.685385
0.196373 0.316078 0.488505
0.225554 0.315666 0.488540
0.283037 0.314495 0.488595
0.375065 0.313379 0.487915
0.478066 0.347062 0.478066
0.559329 0.412654 0.460131
0.655032 0.513544 0.491253
0.766768 0.629428 0.573948
0.887505 0.751628 0.685422
0.227008 0.387156 0.485708
0.247662 0.386975 0.485832
0.293805 0.386541 0.486041
0.377448 0.385243 0.486245
0.479690 0.392706 0.479690
0.560571 0.430484 0.462066
0.655725 0.518475 0.492567
0.767017 0.630690 0.574448
0.887576 0.751952 0.685568
0.322164 0.479190 0.473415
0.328802 0.479234 0.473748
0.347411 0.479379 0.474773
0.396516 0.480009 0.478039
0.483438 0.483438 0.483438
0.565610 0.479227 0.468021
0.658382 0.535675 0.497297
0.767976 0.635450 0.576343
0.887852 0.753197 0.686129
0.419239 0.559244 0.464203
0.420878 0.559324 0.464472
0.425967 0.559583 0.465325
0.443319 0.560609 0.468451
0.489747 0.565066 0.477900
0.580564 0.576991 0.479692
0.668219 0.584971 0.511041
0.771590 0.652259 0.583101
0.888909 0.757903 0.688253
0.526930 0.665470 0.516463
0.527344 0.665511 0.516559
0.528668 0.665645 0.516867
0.533629 0.666163 0.518026
0.550761 0.668170 0.522041
0.598828 0.675991 0.530766
0.693281 0.686861 0.533663
0.784322 0.701867 0.602445
0.892874 0.774594 0.695805
0.647055 0.784238 0.614961
0.647159 0.784251 0.614987
0.647497 0.784293 0.615069
0.648795 0.784456 0.615385
0.653669 0.785086 0.616566
0.670638 0.787503 0.620530
0.719404 0.796499 0.627460
0.814266 0.806669 0.632043
0.906617 0.824348 0.717291
0.770839 0.907462 0.732458
0.770866 0.907466 0.732464
0.770953 0.907477 0.732485
0.771288 0.907522 0.732567
0.772575 0.907694 0.732879
0.777414 0.908359 0.734042
0.794311 0.910900 0.737903
0.843250 0.920233 0.744043
0.938145 0.930187 0.749255
0.312066 0.400257 0.594714
0.319566 0.399965 0.594767
0.340228 0.399048 0.594929
0.392799 0.395980 0.595416
0.480708 0.395606 0.594954
0.577869 0.454695 0.577869
0.662266 0.531261 0.567286
0.768868 0.635632 0.609888
0.888082 0.753406 0.697304
0.313021 0.403148 0.594609
0.320434 0.402866 0.594663
0.340891 0.401984 0.594825
0.393110 0.399019 0.595318
0.480769 0.398427 0.594910
0.577929 0.455755 0.577929
0.662312 0.531600 0.567351
0.768887 0.635727 0.609919
0.888088 0.753431 0.697314
0.316047 0.411853 0.594277
0.323191 0.411603 0.594330
0.343008 0.410818 0.594494
0.394114 0.408148 0.595003
0.480967 0.406971 0.594767
0.578124 0.459085 0.578124
0.662461 0.532686 0.567557
0.768949 0.636036 0.610020
0.888106 0.753514 0.697349
0.327072 0.438998 0.593033
0.333312 0.438832 0.593087
0.350924 0.438304 0.593256
0.398021 0.436436 0.593812
0.481765 0.434051 0.594186
0.578884 0.470895 0.578884
0.663035 0.536784 0.568344
0.769186 0.637222 0.610408
0.888177 0.753832 0.697482
0.362856 0.499153 0.588716
0.366785 0.499106 0.588791
0.378448 0.498963 0.589015
0.413412 0.498456 0.589680
0.485568 0.496589 0.591438
0.581848 0.505775 0.581848
0.665240 0.551280 0.571242
0.770097 0.641703 0.611884
0.888448 0.755056 0.697996
0.454102 0.580660 0.575597
0.455330 0.580686 0.575699
0.459179 0.580768 0.576023
0.472706 0.581092 0.577223
0.511608 0.582445 0.581070
0.588677 0.588677 0.588677
0.673550 0.594332 0.580238
0.773543 0.657598 0.617193
0.889491 0.759681 0.699943
0.546692 0.671534 0.584588
0.547042 0.671564 0.584657
0.548160 0.671661 0.584880
0.552365 0.672037 0.585730
0.567013 0.673517 0.588821
0.608490 0.679655 0.597830
0.696849 0.692084 0.598475
0.785798 0.705033 0.632689
0.893409 0.776108 0.706891
0.653033 0.786014 0.643364
0.653132 0.786026 0.643387
0.653451 0.786065 0.643460
0.654675 0.786216 0.643739
0.659280 0.786803 0.644791
0.675364 0.789058 0.648424
0.721837 0.797623 0.656054
0.815333 0.808254 0.658295
0.907019 0.825236 0.726821
0.772434 0.907946 0.741200
0.772460 0.907950 0.741206
0.772546 0.907961 0.741226
0.772875 0.908005 0.741305
0.774143 0.908174 0.741606
0.778908 0.908827 0.742732
0.795561 0.911324 0.746504
0.843871 0.920547 0.752940
0.938434 0.930617 0.757264
0.451268 0.538035 0.711428
0.452765 0.537935 0.711461
0.457433 0.537614 0.711564
0.473558 0.536401 0.711948
0.517992 0.532255 0.713188
0.600007 0.529802 0.714002
0.693013 0.584252 0.693013
0.778703 0.656431 0.685692
0.890501 0.760280 0.733036
0.451519 0.538626 0.711396
0.453011 0.538527 0.711428
0.457665 0.538209 0.711531
0.473744 0.537008 0.711915
0.518088 0.532895 0.713157
0.600026 0.530398 0.713990
0.693036 0.584472 0.693036
0.778718 0.656510 0.685712
0.890506 0.760304 0.733045
0.452326 0.540504 0.711290
0.453802 0.540408 0.711323
0.458408 0.540100 0.711426
0.474342 0.538932 0.711810
0.518395 0.534927 0.713054
0.600088 0.532294 0.713949
0.693108 0.585178 0.693108
0.778766 0.656766 0.685774
0.890523 0.760382 0.733072
0.455394 0.547397 0.710886
0.456813 0.547311 0.710918
0.461244 0.547035 0.711021
0.476632 0.545989 0.711404
0.519587 0.542364 0.712662
0.600330 0.539288 0.713789
0.693387 0.587862 0.693387
0.778953 0.657752 0.686015
0.890590 0.760680 0.733176
0.466563 0.569647 0.709376
0.467788 0.569589 0.709408
0.471632 0.569403 0.709508
0.485158 0.568696 0.709886
0.524205 0.566156 0.711175
0.601304 0.562258 0.713116
0.694460 0.597579 0.694460
0.779673 0.661489 0.686934
0.890847 0.761830 0.733579
0.502429 0.621902 0.704236
0.503181 0.621890 0.704269
0.505568 0.621852 0.704374
0.514290 0.621710 0.704762
0.542096 0.621155 0.706031
0.605997 0.618912 0.709655
0.698482 0.627932 0.698482
0.782410 0.674884 0.690308
0.891836 0.766180 0.735108
0.586990 0.696554 0.691982
0.587245 0.696564 0.692012
0.588062 0.696597 0.692106
0.591159 0.696724 0.692469
0.602252 0.697221 0.693811
0.635761 0.699218 0.698150
0.707466 0.707466 0.707466
0.792398 0.716018 0.700717
0.895556 0.781693 0.740608
0.673777 0.792360 0.708959
0.673859 0.792369 0.708977
0.674125 0.792398 0.709033
0.675148 0.792509 0.709253
0.679005 0.792942 0.710088
0.692570 0.794634 0.713117
0.731999 0.801504 0.721806
0.819271 0.814033 0.721767
0.908617 0.828589 0.756678
0.778485 0.909752 0.769056
0.778510 0.909756 0.769062
0.778590 0.909766 0.769080
0.778901 0.909807 0.769150
0.780095 0.909964 0.769421
0.784591 0.910572 0.770437
0.800353 0.912906 0.773943
0.846330 0.921700 0.781219
0.939531 0.932251 0.783224
0.583320 0.668593 0.833359
0.583659 0.668565 0.833370
0.584744 0.668473 0.833406
0.588829 0.668119 0.833544
0.603153 0.666778 0.834058
0.644092 0.662156 0.835730
0.723521 0.658657 0.837277
0.814986 0.710888 0.814986
0.901132 0.781500 0.808742
0.583384 0.668731 0.833350
0.583723 0.668703 0.833361
0.584806 0.668611 0.833397
0.588888 0.668258 0.833535
0.603202 0.666920 0.834049
0.644118 0.662307 0.835722
0.723526 0.658799 0.837274
0.814992 0.710940 0.814992
0.901136 0.781520 0.808747
0.583589 0.669173 0.833321
0.583927 0.669145 0.833332
0.585008 0.669054 0.833368
0.589078 0.668704 0.833506
0.603358 0.667376 0.834020
0.644201 0.662794 0.835694
0.723543 0.659255 0.837263
0.815013 0.711110 0.815013
0.901150 0.781584 0.808764
0.584379 0.670864 0.833212
0.584713 0.670836 0.833223
0.585783 0.670748 0.833259
0.589813 0.670408 0.833396
0.603961 0.669117 0.833909
0.644525 0.664652 0.835585
0.723608 0.661001 0.837222
0.815094 0.711765 0.815094
0.901201 0.781833 0.808829
0.587388 0.677097 0.832790
0.587709 0.677072 0.832801
0.588737 0.676993 0.832837
0.592613 0.676687 0.832973
0.606269 0.675527 0.833484
0.645776 0.671481 0.835167
0.723864 0.667468 0.837059
0.815407 0.714259 0.815407
0.901401 0.782790 0.809081
0.598349 0.697489 0.831216
0.598626 0.697472 0.831226
0.599514 0.697419 0.831261
0.602875 0.697214 0.831393
0.614858 0.696429 0.831889
0.650618 0.693598 0.833585
0.724897 0.688993 0.836362
0.816604 0.723350 0.816604
0.902171 0.786424 0.810043
0.633552 0.746604 0.825894
0.633722 0.746601 0.825904
0.634270 0.746592 0.825938
0.636363 0.746556 0.826065
0.644073 0.746416 0.826539
0.669251 0.745853 0.828121
0.729908 0.743477 0.832653
0.821032 0.752311 0.821032
0.905086 0.799506 0.813567
0.715035 0.818779 0.814393
0.715096 0.818782 0.814401
0.715291 0.818791 0.814427
0.716045 0.818829 0.814525
0.718906 0.818976 0.814903
0.729218 0.819547 0.816302
0.760923 0.821809 0.820840
0.830792 0.830792 0.830792
0.915619 0.840089 0.824418
0.799476 0.916185 0.833869
0.799496 0.916187 0.833873
0.799563 0.916195 0.833888
0.799822 0.916225 0.833944
0.800817 0.916341 0.834162
0.804570 0.916792 0.834992
0.817815 0.918551 0.837997
0.856631 0.925647 0.846577
0.943576 0.938200 0.846318
0.710521 0.795261 0.957440
0.710605 0.795253 0.957443
0.710875 0.795229 0.957453
0.711913 0.795134 0.957492
0.715829 0.794770 0.957642
0.729625 0.793391 0.958201
0.769505 0.788624 0.960019
0.848140 0.784795 0.961811
0.939159 0.836349 0.939159
0.710537 0.795295 0.957438
0.710621 0.795287 0.957441
0.710891 0.795263 0.957451
0.711929 0.795169 0.957490
0.715844 0.794805 0.957640
0.729637 0.793427 0.958198
0.769511 0.788662 0.960017
0.848141 0.784830 0.961810
0.939161 0.836362 0.939161
0.710590 0.795406 0.957430
0.710673 0.795398 0.957433
0.710943 0.795374 0.957443
0.711981 0.795280 0.957483
0.715893 0.794917 0.957633
0.729677 0.793541 0.958191
0.769533 0.788784 0.960010
0.848145 0.784945 0.961807
0.939167 0.836405 0.939167
0.710793 0.795834 0.957402
0.710876 0.795827 0.957405
0.711145 0.795802 0.957415
0.712180 0.795709 0.957454
0.716082 0.795349 0.957604
0.729833 0.793983 0.958162
0.769618 0.789258 0.959981
0.848163 0.785390 0.961797
0.939188 0.836571 0.939188
0.711576 0.797471 0.957291
0.711658 0.797464 0.957294
0.711925 0.797440 0.957304
0.712949 0.797349 0.957343
0.716812 0.796999 0.957493
0.730436 0.795671 0.958050
0.769945 0.791067 0.959871
0.848229 0.787094 0.961756
0.939272 0.837212 0.939272
0.714558 0.803514 0.956866
0.714638 0.803508 0.956869
0.714894 0.803487 0.956879
0.715877 0.803405 0.956918
0.719594 0.803091 0.957066
0.732744 0.801897 0.957619
0.771212 0.797723 0.959447
0.848489 0.793414 0.961592
0.939594 0.839655 0.939594
0.725430 0.823365 0.955279
0.725499 0.823361 0.955282
0.725720 0.823347 0.955292
0.726570 0.823292 0.955329
0.729794 0.823081 0.955471
0.741329 0.822273 0.956007
0.776112 0.819355 0.957839
0.849537 0.814530 0.960890
0.940828 0.848577 0.940828
0.760369 0.871553 0.949924
0.760411 0.871553 0.949927
0.760547 0.871550 0.949936
0.761073 0.871541 0.949971
0.763084 0.871505 0.950106
0.770510 0.871367 0.950608
0.794935 0.870802 0.952291
0.854638 0.868389 0.957111
0.945373 0.877161 0.945373
0.840912 0.943022 0.938691
0.840927 0.943022 0.938693
0.840977 0.943025 0.938700
0.841168 0.943035 0.938726
0.841904 0.943074 0.938825
0.844700 0.943227 0.939208
0.854798 0.943821 0.940624
0.886000 0.946162 0.945220
0.955356 0.955356 0.955356
