looks/Brejon_A1_TLog_EGamut2_v007_65.cube
# The Brejon Look Modification Transform
# Brejon for ACES 1.3 v007 - A pleasing, colorful and natural look for ACES 1.3
# Created by Chris Brejon - chrisbrejon.com - 2026-02-02 10:36:26
# 3 columns rgb, 274625 rows
# Width     65 65 65
# Process Color Space = TLog - Egamut2
# LUT size
LUT_3D_SIZE 65
0.021066 0.021066 0.021066
0.034210 0.022165 0.021765
0.046214 0.023617 0.023987
0.057306 0.025100 0.028802
0.056139 0.029795 0.040731
0.046076 0.044214 0.045039
0.074624 0.031290 0.045122
0.103303 0.021928 0.040010
0.125922 0.020796 0.028879
0.144283 0.020419 0.020865
0.158501 0.020707 0.020311
0.172997 0.021039 0.019754
0.187859 0.021358 0.019126
0.203085 0.021688 0.018400
0.218666 0.022074 0.017556
0.234588 0.022587 0.016589
0.250821 0.023330 0.015513
0.267312 0.024458 0.014368
0.283960 0.026195 0.013245
0.300592 0.028855 0.012305
0.316927 0.032860 0.011816
0.332514 0.038733 0.012196
0.347206 0.046828 0.013649
0.361722 0.057318 0.015801
0.376071 0.070890 0.018861
0.390240 0.087546 0.023116
0.404186 0.105470 0.028946
0.417471 0.124206 0.036988
0.430117 0.143446 0.047644
0.442299 0.163037 0.061353
0.454195 0.182928 0.078654
0.465913 0.203078 0.097598
0.477228 0.223200 0.116807
0.488141 0.243160 0.136034
0.498684 0.262865 0.155103
0.508892 0.282235 0.173889
0.518799 0.301205 0.192316
0.528445 0.319723 0.210340
0.537869 0.337754 0.227949
0.547116 0.355278 0.245155
0.556230 0.372289 0.261984
0.565263 0.388799 0.278476
0.574495 0.405058 0.294887
0.584068 0.421190 0.311352
0.593999 0.437208 0.327891
0.604302 0.453127 0.344510
0.614987 0.468964 0.361202
0.626060 0.484736 0.377953
0.637518 0.500456 0.394741
0.649357 0.516138 0.411543
0.661564 0.531792 0.428333
0.674125 0.547426 0.445089
0.687018 0.563045 0.461792
0.700224 0.578656 0.478428
0.713716 0.594260 0.494987
0.727471 0.609862 0.511464
0.741465 0.625462 0.527858
0.755672 0.641063 0.544169
0.770069 0.656664 0.560403
0.784635 0.672267 0.576563
0.799348 0.687872 0.592657
0.814191 0.703478 0.608689
0.829146 0.719087 0.624666
0.844199 0.734697 0.640595
0.859336 0.750310 0.656482
0.020307 0.036913 0.020307
0.034916 0.034154 0.022784
0.046608 0.034875 0.025232
0.053505 0.036085 0.034200
0.046111 0.044163 0.045027
0.069867 0.035816 0.043532
0.092515 0.035220 0.035726
0.113118 0.035005 0.026612
0.130085 0.034719 0.021496
0.144326 0.034710 0.020919
0.158609 0.034883 0.020397
0.173155 0.035122 0.019838
0.188042 0.035409 0.019193
0.203277 0.035763 0.018445
0.218855 0.036225 0.017579
0.234768 0.036859 0.016592
0.250988 0.037766 0.015499
0.267464 0.039091 0.014343
0.284095 0.041041 0.013212
0.300711 0.043903 0.012270
0.317029 0.048054 0.011783
0.332597 0.053936 0.012171
0.347276 0.061884 0.013632
0.361783 0.072200 0.015795
0.376124 0.085013 0.018869
0.390285 0.099383 0.023140
0.404225 0.115165 0.028991
0.417503 0.132011 0.037055
0.430145 0.149643 0.047735
0.442323 0.167909 0.061469
0.454216 0.186729 0.078791
0.465932 0.206028 0.097732
0.477245 0.225479 0.116934
0.488156 0.244915 0.136153
0.498698 0.264215 0.155211
0.508904 0.283274 0.173988
0.518811 0.302005 0.192405
0.528456 0.320341 0.210420
0.537880 0.338232 0.228021
0.547126 0.355650 0.245219
0.556239 0.372579 0.262040
0.565272 0.389027 0.278526
0.574504 0.405238 0.294931
0.584077 0.421333 0.311391
0.594008 0.437322 0.327926
0.604310 0.453218 0.344539
0.614995 0.469038 0.361227
0.626066 0.484796 0.377975
0.637524 0.500505 0.394761
0.649363 0.516178 0.411560
0.661570 0.531825 0.428347
0.674129 0.547453 0.445101
0.687022 0.563067 0.461802
0.700227 0.578674 0.478436
0.713719 0.594276 0.494994
0.727474 0.609875 0.511470
0.741467 0.625473 0.527863
0.755674 0.641072 0.544174
0.770071 0.656672 0.560407
0.784636 0.672273 0.576567
0.799349 0.687877 0.592659
0.814192 0.703483 0.608691
0.829147 0.719091 0.624668
0.844200 0.734700 0.640597
0.859337 0.750312 0.656483
0.020573 0.050708 0.020573
0.035278 0.047844 0.023060
0.048255 0.044762 0.027704
0.045349 0.045756 0.043733
0.060669 0.049526 0.037717
0.081105 0.049585 0.030952
0.100596 0.049533 0.023367
0.115760 0.049030 0.022244
0.130120 0.048846 0.021599
0.144363 0.048844 0.021051
0.158732 0.048954 0.020507
0.173334 0.049149 0.019918
0.188238 0.049433 0.019248
0.203476 0.049829 0.018474
0.219049 0.050377 0.017585
0.234950 0.051140 0.016580
0.251157 0.052214 0.015472
0.267617 0.053736 0.014305
0.284231 0.055899 0.013169
0.300830 0.058964 0.012225
0.317130 0.063257 0.011742
0.332680 0.069145 0.012139
0.347347 0.076925 0.013609
0.361844 0.086359 0.015784
0.376176 0.097334 0.018872
0.390331 0.109876 0.023160
0.404264 0.123940 0.029032
0.417535 0.139208 0.037119
0.430172 0.155451 0.047824
0.442347 0.172536 0.061583
0.454237 0.190381 0.078927
0.465950 0.208887 0.097865
0.477262 0.227703 0.117061
0.488171 0.246638 0.136271
0.498711 0.265546 0.155320
0.508917 0.284301 0.174087
0.518823 0.302798 0.192494
0.528467 0.320954 0.210500
0.537890 0.338708 0.228092
0.547136 0.356019 0.245282
0.556249 0.372868 0.262096
0.565281 0.389254 0.278576
0.574513 0.405417 0.294975
0.584086 0.421475 0.311431
0.594016 0.437436 0.327960
0.604318 0.453310 0.344569
0.615002 0.469112 0.361253
0.626073 0.484855 0.377997
0.637531 0.500554 0.394780
0.649368 0.516218 0.411576
0.661575 0.531857 0.428362
0.674134 0.547479 0.445113
0.687027 0.563090 0.461813
0.700231 0.578692 0.478445
0.713722 0.594291 0.495001
0.727477 0.609887 0.511476
0.741470 0.625484 0.527868
0.755676 0.641080 0.544178
0.770073 0.656679 0.560410
0.784638 0.672280 0.576570
0.799351 0.687882 0.592662
0.814193 0.703487 0.608693
0.829148 0.719094 0.624670
0.844201 0.734704 0.640598
0.859337 0.750315 0.656484
0.021030 0.064121 0.021030
0.037187 0.058052 0.025271
0.045349 0.045756 0.043733
0.050976 0.058803 0.035036
0.069741 0.061967 0.027065
0.086439 0.062809 0.024309
0.101268 0.062942 0.023215
0.115724 0.062901 0.022449
0.130035 0.062858 0.021817
0.144367 0.062874 0.021229
0.158832 0.062969 0.020634
0.173505 0.063159 0.019998
0.188437 0.063459 0.019292
0.203676 0.063906 0.018491
0.219242 0.064544 0.017580
0.235132 0.065438 0.016556
0.251325 0.066679 0.015434
0.267769 0.068398 0.014257
0.284367 0.070774 0.013116
0.300948 0.074038 0.012171
0.317231 0.078408 0.011693
0.332763 0.083919 0.012100
0.347417 0.090615 0.013580
0.361905 0.098670 0.015767
0.376229 0.108206 0.018870
0.390376 0.119300 0.023177
0.404302 0.131955 0.029070
0.417568 0.145886 0.037181
0.430200 0.160916 0.047910
0.442371 0.176944 0.061696
0.454258 0.193894 0.079061
0.465969 0.211661 0.097997
0.477279 0.229875 0.117187
0.488186 0.248329 0.136388
0.498725 0.266858 0.155428
0.508930 0.285316 0.174185
0.518835 0.303584 0.192583
0.528479 0.321563 0.210580
0.537901 0.339181 0.228164
0.547146 0.356388 0.245346
0.556258 0.373156 0.262153
0.565290 0.389480 0.278626
0.574522 0.405596 0.295019
0.584094 0.421618 0.311470
0.594024 0.437549 0.327994
0.604325 0.453401 0.344599
0.615009 0.469185 0.361279
0.626080 0.484915 0.378020
0.637537 0.500602 0.394799
0.649374 0.516258 0.411593
0.661580 0.531890 0.428376
0.674138 0.547506 0.445125
0.687031 0.563112 0.461823
0.700234 0.578711 0.478454
0.713726 0.594306 0.495009
0.727480 0.609900 0.511482
0.741472 0.625494 0.527873
0.755678 0.641089 0.544182
0.770074 0.656686 0.560414
0.784639 0.672286 0.576573
0.799352 0.687887 0.592664
0.814194 0.703491 0.608695
0.829149 0.719098 0.624672
0.844201 0.734707 0.640600
0.859338 0.750317 0.656486
0.029872 0.060766 0.029872
0.045349 0.045756 0.043733
0.049437 0.060032 0.034732
0.057444 0.071375 0.027993
0.072039 0.074554 0.025709
0.086751 0.075845 0.024472
0.101046 0.076417 0.023560
0.115431 0.076654 0.022791
0.129839 0.076749 0.022099
0.144302 0.076821 0.021440
0.158880 0.076939 0.020779
0.173636 0.077146 0.020086
0.188619 0.077475 0.019334
0.203871 0.077964 0.018500
0.219432 0.078666 0.017565
0.235312 0.079643 0.016522
0.251491 0.080971 0.015386
0.267920 0.082748 0.014200
0.284502 0.085095 0.013054
0.301067 0.088147 0.012110
0.317332 0.092028 0.011637
0.332845 0.096802 0.012055
0.347488 0.102540 0.013546
0.361966 0.109535 0.015746
0.376281 0.117935 0.018865
0.390422 0.127852 0.023190
0.404341 0.139331 0.029105
0.417600 0.152114 0.037240
0.430228 0.166076 0.047994
0.442395 0.181151 0.061806
0.454280 0.197278 0.079193
0.465988 0.214354 0.098127
0.477295 0.231998 0.117311
0.488201 0.249991 0.136505
0.498739 0.268152 0.155536
0.508943 0.286321 0.174284
0.518847 0.304363 0.192672
0.528490 0.322168 0.210659
0.537912 0.339651 0.228235
0.547156 0.356755 0.245410
0.556268 0.373443 0.262209
0.565299 0.389706 0.278676
0.574530 0.405775 0.295064
0.584103 0.421760 0.311509
0.594032 0.437663 0.328028
0.604333 0.453492 0.344629
0.615016 0.469259 0.361305
0.626086 0.484974 0.378042
0.637543 0.500651 0.394818
0.649379 0.516297 0.411609
0.661585 0.531923 0.428390
0.674143 0.547533 0.445137
0.687035 0.563134 0.461833
0.700238 0.578729 0.478462
0.713729 0.594321 0.495016
0.727483 0.609913 0.511488
0.741475 0.625505 0.527878
0.755680 0.641098 0.544187
0.770076 0.656694 0.560418
0.784641 0.672292 0.576576
0.799353 0.687893 0.592667
0.814195 0.703496 0.608697
0.829150 0.719102 0.624674
0.844202 0.734710 0.640601
0.859339 0.750320 0.656487
0.044252 0.046384 0.044252
0.046446 0.060856 0.037795
0.047339 0.077626 0.030022
0.058332 0.083634 0.027301
0.072143 0.086406 0.025884
0.086356 0.087881 0.024890
0.100504 0.088731 0.024011
0.114955 0.089200 0.023190
0.129518 0.089444 0.022419
0.144144 0.089595 0.021678
0.158858 0.089747 0.020942
0.173712 0.089964 0.020185
0.188761 0.090294 0.019382
0.204051 0.090779 0.018508
0.219616 0.091464 0.017545
0.235487 0.092418 0.016483
0.251655 0.093707 0.015332
0.268070 0.095411 0.014137
0.284636 0.097623 0.012986
0.301184 0.100440 0.012042
0.317433 0.103944 0.011575
0.332927 0.108150 0.012004
0.347558 0.113140 0.013507
0.362027 0.119291 0.015720
0.376334 0.126768 0.018856
0.390467 0.135708 0.023200
0.404380 0.146185 0.029137
0.417633 0.157969 0.037296
0.430255 0.170980 0.048076
0.442419 0.185188 0.061916
0.454301 0.200555 0.079325
0.466007 0.216980 0.098257
0.477312 0.234080 0.117436
0.488216 0.251628 0.136622
0.498753 0.269432 0.155644
0.508955 0.287319 0.174382
0.518859 0.305139 0.192760
0.528501 0.322771 0.210739
0.537922 0.340121 0.228307
0.547166 0.357122 0.245473
0.556277 0.373731 0.262266
0.565308 0.389932 0.278726
0.574539 0.405953 0.295108
0.584111 0.421902 0.311548
0.594040 0.437776 0.328063
0.604341 0.453583 0.344659
0.615024 0.469332 0.361331
0.626093 0.485034 0.378065
0.637549 0.500699 0.394838
0.649385 0.516337 0.411626
0.661590 0.531955 0.428404
0.674147 0.547560 0.445149
0.687039 0.563156 0.461843
0.700241 0.578747 0.478471
0.713732 0.594337 0.495023
0.727485 0.609925 0.511494
0.741477 0.625515 0.527883
0.755682 0.641107 0.544191
0.770078 0.656701 0.560421
0.784642 0.672298 0.576579
0.799355 0.687898 0.592669
0.814197 0.703500 0.608700
0.829151 0.719105 0.624675
0.844203 0.734713 0.640603
0.859340 0.750323 0.656488
0.041768 0.063089 0.041765
0.042683 0.079841 0.034022
0.047013 0.091377 0.028520
0.058512 0.095437 0.027181
0.071818 0.097992 0.026185
0.085676 0.099610 0.025336
0.099710 0.100687 0.024527
0.114248 0.101394 0.023663
0.129003 0.101816 0.022809
0.143837 0.102076 0.021975
0.158730 0.102287 0.021151
0.173720 0.102531 0.020318
0.188863 0.102871 0.019450
0.204211 0.103358 0.018525
0.219807 0.104039 0.017524
0.235677 0.104968 0.016435
0.251833 0.106218 0.015267
0.268234 0.107854 0.014059
0.284785 0.109945 0.012903
0.301315 0.112557 0.011959
0.317545 0.115731 0.011499
0.333019 0.119435 0.011941
0.347637 0.123760 0.013457
0.362095 0.129150 0.015686
0.376393 0.135779 0.018841
0.390519 0.143804 0.023208
0.404424 0.153325 0.029169
0.417670 0.164133 0.037357
0.430286 0.176196 0.048166
0.442446 0.189523 0.062036
0.454325 0.204102 0.079470
0.466029 0.219843 0.098401
0.477331 0.236364 0.117574
0.488233 0.253433 0.136752
0.498768 0.270849 0.155764
0.508970 0.288427 0.174492
0.518872 0.306003 0.192860
0.528514 0.323444 0.210829
0.537934 0.340646 0.228387
0.547177 0.357532 0.245545
0.556288 0.374052 0.262329
0.565318 0.390185 0.278782
0.574549 0.406154 0.295158
0.584121 0.422061 0.311592
0.594049 0.437904 0.328101
0.604350 0.453686 0.344693
0.615032 0.469415 0.361361
0.626101 0.485101 0.378090
0.637556 0.500754 0.394860
0.649391 0.516382 0.411645
0.661596 0.531992 0.428420
0.674153 0.547590 0.445163
0.687043 0.563181 0.461854
0.700245 0.578768 0.478480
0.713735 0.594354 0.495031
0.727488 0.609940 0.511501
0.741480 0.625527 0.527889
0.755685 0.641117 0.544196
0.770080 0.656709 0.560425
0.784644 0.672305 0.576582
0.799356 0.687904 0.592672
0.814198 0.703505 0.608702
0.829152 0.719109 0.624678
0.844204 0.734716 0.640605
0.859340 0.750325 0.656490
0.037270 0.085041 0.037257
0.038162 0.099079 0.029504
0.047081 0.104373 0.027898
0.058492 0.107635 0.027142
0.071355 0.109990 0.026457
0.084837 0.111679 0.025769
0.098713 0.112956 0.025019
0.113258 0.113862 0.024220
0.128205 0.114500 0.023301
0.143293 0.114915 0.022369
0.158428 0.115218 0.021441
0.173612 0.115511 0.020510
0.188895 0.115874 0.019558
0.204337 0.116369 0.018565
0.219989 0.117049 0.017510
0.235885 0.117965 0.016382
0.252036 0.119172 0.015188
0.268423 0.120739 0.013964
0.284957 0.122715 0.012799
0.301468 0.125135 0.011855
0.317676 0.128002 0.011402
0.333128 0.131242 0.011859
0.347730 0.134946 0.013392
0.362176 0.139616 0.015640
0.376463 0.145431 0.018818
0.390579 0.152561 0.023211
0.404476 0.161126 0.029204
0.417713 0.170939 0.037425
0.430323 0.182016 0.048270
0.442478 0.194408 0.062176
0.454354 0.208134 0.079640
0.466054 0.223124 0.098571
0.477354 0.238999 0.117738
0.488253 0.255527 0.136906
0.498787 0.272501 0.155906
0.508987 0.289722 0.174622
0.518888 0.307016 0.192978
0.528528 0.324236 0.210935
0.537948 0.341264 0.228482
0.547191 0.358016 0.245629
0.556301 0.374432 0.262404
0.565330 0.390484 0.278848
0.574561 0.406391 0.295216
0.584132 0.422250 0.311643
0.594060 0.438055 0.328147
0.604360 0.453807 0.344733
0.615041 0.469513 0.361395
0.626110 0.485181 0.378120
0.637564 0.500819 0.394885
0.649399 0.516435 0.411666
0.661602 0.532035 0.428439
0.674159 0.547626 0.445179
0.687049 0.563211 0.461868
0.700250 0.578793 0.478492
0.713740 0.594374 0.495041
0.727492 0.609956 0.511509
0.741483 0.625541 0.527896
0.755687 0.641129 0.544202
0.770083 0.656719 0.560430
0.784646 0.672313 0.576586
0.799358 0.687910 0.592676
0.814199 0.703511 0.608705
0.829154 0.719114 0.624680
0.844205 0.734720 0.640607
0.859341 0.750329 0.656491
0.031895 0.106351 0.031858
0.037105 0.114057 0.027978
0.047083 0.117574 0.027465
0.058409 0.120279 0.027070
0.070890 0.122417 0.026640
0.083975 0.124096 0.026131
0.097593 0.125500 0.025495
0.112083 0.126624 0.024732
0.127085 0.127413 0.023902
0.142433 0.128031 0.022889
0.157864 0.128475 0.021848
0.173311 0.128850 0.020798
0.188800 0.129256 0.019738
0.204387 0.129770 0.018651
0.220133 0.130453 0.017520
0.236085 0.131360 0.016336
0.252258 0.132537 0.015102
0.268636 0.134033 0.013852
0.285154 0.135897 0.012673
0.301644 0.138137 0.011726
0.317829 0.140721 0.011280
0.333254 0.143532 0.011755
0.347839 0.146662 0.013307
0.362271 0.150659 0.015578
0.376546 0.155701 0.018784
0.390651 0.161965 0.023209
0.404537 0.169590 0.029239
0.417764 0.178403 0.037501
0.430367 0.188467 0.048388
0.442516 0.199879 0.062339
0.454387 0.212694 0.079838
0.466084 0.226865 0.098769
0.477380 0.242026 0.117930
0.488277 0.257948 0.137087
0.498809 0.274419 0.156074
0.509007 0.291233 0.174775
0.518907 0.308201 0.193117
0.528546 0.325164 0.211060
0.537965 0.341991 0.228594
0.547207 0.358586 0.245729
0.556316 0.374880 0.262493
0.565344 0.390837 0.278927
0.574575 0.406671 0.295286
0.584146 0.422473 0.311705
0.594073 0.438233 0.328201
0.604372 0.453951 0.344780
0.615053 0.469629 0.361436
0.626120 0.485275 0.378155
0.637574 0.500895 0.394916
0.649408 0.516497 0.411693
0.661610 0.532087 0.428461
0.674166 0.547668 0.445198
0.687055 0.563246 0.461884
0.700256 0.578822 0.478505
0.713745 0.594398 0.495052
0.727496 0.609976 0.511519
0.741487 0.625558 0.527904
0.755691 0.641143 0.544209
0.770085 0.656731 0.560436
0.784649 0.672323 0.576591
0.799360 0.687919 0.592680
0.814201 0.703518 0.608708
0.829155 0.719120 0.624683
0.844207 0.734725 0.640609
0.859342 0.750333 0.656493
0.027681 0.124863 0.027602
0.036768 0.128336 0.027261
0.047047 0.131089 0.027089
0.058313 0.133367 0.026937
0.070490 0.135279 0.026714
0.083198 0.136880 0.026386
0.096487 0.138327 0.025907
0.110784 0.139608 0.025248
0.125810 0.140625 0.024442
0.141215 0.141327 0.023556
0.156953 0.141969 0.022414
0.172728 0.142478 0.021233
0.188498 0.142961 0.020036
0.204300 0.143513 0.018823
0.220197 0.144210 0.017587
0.236244 0.145112 0.016319
0.252472 0.146266 0.015023
0.268870 0.147705 0.013733
0.285375 0.149458 0.012529
0.301846 0.151528 0.011572
0.318005 0.153849 0.011131
0.333401 0.156265 0.011625
0.347966 0.158868 0.013197
0.362382 0.162241 0.015496
0.376643 0.166558 0.018735
0.390735 0.171998 0.023199
0.404609 0.178708 0.029273
0.417825 0.186531 0.037584
0.430419 0.195569 0.048522
0.442561 0.205968 0.062526
0.454427 0.217820 0.080068
0.466119 0.231110 0.099001
0.477412 0.245487 0.118154
0.488306 0.260735 0.137299
0.498835 0.276641 0.156271
0.509031 0.292992 0.174956
0.518929 0.309587 0.193281
0.528567 0.326252 0.211208
0.537985 0.342845 0.228726
0.547226 0.359257 0.245847
0.556334 0.375407 0.262598
0.565361 0.391254 0.279020
0.574592 0.407001 0.295369
0.584162 0.422736 0.311778
0.594088 0.438444 0.328265
0.604387 0.454120 0.344836
0.615066 0.469766 0.361485
0.626133 0.485386 0.378197
0.637586 0.500986 0.394952
0.649418 0.516572 0.411723
0.661620 0.532148 0.428487
0.674174 0.547718 0.445220
0.687063 0.563287 0.461903
0.700263 0.578856 0.478521
0.713751 0.594427 0.495066
0.727502 0.610000 0.511530
0.741491 0.625578 0.527914
0.755695 0.641159 0.544217
0.770089 0.656745 0.560443
0.784652 0.672335 0.576597
0.799363 0.687928 0.592685
0.814203 0.703526 0.608712
0.829157 0.719127 0.624686
0.844208 0.734731 0.640612
0.859344 0.750338 0.656496
0.026847 0.140095 0.026704
0.036498 0.142723 0.026681
0.046987 0.144948 0.026719
0.058222 0.146879 0.026737
0.070176 0.148571 0.026679
0.082563 0.150052 0.026519
0.095515 0.151469 0.026214
0.109516 0.152824 0.025715
0.124404 0.154018 0.025011
0.139896 0.154956 0.024140
0.155655 0.155594 0.023176
0.171775 0.156301 0.021872
0.187897 0.156914 0.020518
0.203997 0.157541 0.019144
0.220117 0.158272 0.017762
0.236319 0.159180 0.016371
0.252645 0.160316 0.014981
0.269097 0.161711 0.013624
0.285617 0.163371 0.012378
0.302072 0.165276 0.011398
0.318206 0.167353 0.010955
0.333570 0.169405 0.011466
0.348114 0.171527 0.013061
0.362512 0.174327 0.015390
0.376757 0.177969 0.018668
0.390835 0.182631 0.023178
0.404695 0.188466 0.029305
0.417897 0.195320 0.037674
0.430480 0.203334 0.048674
0.442614 0.212697 0.062742
0.454475 0.223547 0.080334
0.466162 0.235898 0.099271
0.477449 0.249427 0.118418
0.488340 0.263932 0.137548
0.498865 0.279207 0.156503
0.509059 0.295033 0.175169
0.518956 0.311201 0.193474
0.528592 0.327524 0.211383
0.538008 0.343846 0.228883
0.547248 0.360045 0.245987
0.556355 0.376029 0.262722
0.565381 0.391745 0.279130
0.574611 0.407391 0.295466
0.584180 0.423047 0.311864
0.594106 0.438693 0.328340
0.604404 0.454321 0.344902
0.615082 0.469928 0.361542
0.626148 0.485518 0.378247
0.637599 0.501093 0.394994
0.649431 0.516659 0.411760
0.661631 0.532220 0.428518
0.674185 0.547778 0.445246
0.687072 0.563336 0.461925
0.700271 0.578896 0.478540
0.713758 0.594460 0.495082
0.727508 0.610028 0.511544
0.741496 0.625601 0.527925
0.755699 0.641179 0.544226
0.770093 0.656761 0.560451
0.784655 0.672348 0.576604
0.799366 0.687940 0.592690
0.814206 0.703535 0.608717
0.829159 0.719135 0.624690
0.844210 0.734738 0.640616
0.859345 0.750344 0.656499
0.026220 0.155248 0.025982
0.036259 0.157320 0.026147
0.046916 0.159153 0.026324
0.058151 0.160798 0.026467
0.069953 0.162283 0.026541
0.082093 0.163625 0.026524
0.094744 0.164961 0.026389
0.108417 0.166314 0.026078
0.123043 0.167604 0.025546
0.138445 0.168733 0.024781
0.154341 0.169612 0.023825
0.170411 0.170207 0.022760
0.186906 0.171019 0.021258
0.203378 0.171776 0.019698
0.219810 0.172580 0.018124
0.236245 0.173517 0.016560
0.252730 0.174649 0.015027
0.269280 0.176007 0.013562
0.285854 0.177592 0.012244
0.302319 0.179357 0.011222
0.318432 0.181202 0.010760
0.333763 0.182918 0.011281
0.348286 0.184601 0.012895
0.362664 0.186876 0.015257
0.376890 0.189897 0.018578
0.390952 0.193834 0.023142
0.404795 0.198839 0.029332
0.417981 0.204756 0.037771
0.430552 0.211762 0.048845
0.442677 0.220084 0.062989
0.454531 0.229902 0.080643
0.466212 0.241268 0.099586
0.477494 0.253887 0.118725
0.488380 0.267582 0.137841
0.498902 0.282157 0.156776
0.509093 0.297394 0.175420
0.518987 0.313078 0.193702
0.528622 0.329009 0.211588
0.538036 0.345019 0.229068
0.547274 0.360970 0.246152
0.556380 0.376759 0.262869
0.565405 0.392323 0.279260
0.574634 0.407851 0.295582
0.584203 0.423414 0.311966
0.594128 0.438988 0.328430
0.604424 0.454558 0.344980
0.615101 0.470120 0.361610
0.626165 0.485673 0.378306
0.637615 0.501220 0.395045
0.649446 0.516763 0.411803
0.661644 0.532305 0.428555
0.674196 0.547848 0.445278
0.687082 0.563394 0.461952
0.700280 0.578944 0.478563
0.713766 0.594500 0.495101
0.727515 0.610061 0.511560
0.741503 0.625629 0.527938
0.755705 0.641202 0.544238
0.770097 0.656780 0.560460
0.784659 0.672364 0.576612
0.799369 0.687953 0.592697
0.814209 0.703547 0.608723
0.829162 0.719145 0.624695
0.844212 0.734746 0.640620
0.859347 0.750350 0.656502
0.025706 0.170499 0.025324
0.036040 0.172175 0.025610
0.046848 0.173703 0.025886
0.058110 0.175108 0.026125
0.069827 0.176404 0.026304
0.081792 0.177603 0.026407
0.094201 0.178832 0.026423
0.107570 0.180126 0.026301
0.121882 0.181434 0.025979
0.137053 0.182676 0.025404
0.152902 0.183759 0.024563
0.169147 0.184596 0.023504
0.185488 0.185162 0.022313
0.202355 0.186119 0.020577
0.219177 0.187055 0.018779
0.235936 0.188062 0.016986
0.252661 0.189216 0.015246
0.269374 0.190555 0.013614
0.286046 0.192077 0.012172
0.302561 0.193727 0.011073
0.318678 0.195371 0.010572
0.333980 0.196772 0.011083
0.348481 0.198055 0.012707
0.362839 0.199853 0.015097
0.377045 0.202304 0.018466
0.391089 0.205571 0.023089
0.404913 0.209796 0.029352
0.418081 0.214822 0.037874
0.430638 0.220847 0.049035
0.442752 0.228135 0.063271
0.454597 0.236906 0.080997
0.466271 0.247251 0.099950
0.477546 0.258907 0.119084
0.488427 0.271727 0.138184
0.498945 0.285534 0.157096
0.509133 0.300115 0.175715
0.519024 0.315253 0.193971
0.528657 0.330738 0.211831
0.538069 0.346389 0.229286
0.547305 0.362054 0.246347
0.556409 0.377617 0.263043
0.565433 0.393004 0.279414
0.574662 0.408393 0.295718
0.584229 0.423848 0.312086
0.594153 0.439335 0.328536
0.604448 0.454838 0.345072
0.615124 0.470346 0.361691
0.626186 0.485857 0.378375
0.637635 0.501370 0.395105
0.649463 0.516886 0.411854
0.661660 0.532406 0.428599
0.674211 0.547931 0.445315
0.687095 0.563463 0.461983
0.700291 0.579001 0.478589
0.713776 0.594547 0.495123
0.727524 0.610101 0.511579
0.741510 0.625661 0.527954
0.755711 0.641229 0.544251
0.770103 0.656803 0.560472
0.784664 0.672384 0.576621
0.799373 0.687969 0.592705
0.814212 0.703560 0.608730
0.829165 0.719156 0.624701
0.844215 0.734755 0.640624
0.859349 0.750358 0.656506
0.025263 0.185935 0.024668
0.035846 0.187314 0.025039
0.046802 0.188598 0.025391
0.058122 0.189800 0.025706
0.069808 0.190928 0.025971
0.081664 0.191988 0.026174
0.093894 0.193098 0.026320
0.107011 0.194300 0.026372
0.121020 0.195565 0.026266
0.135893 0.196842 0.025930
0.151539 0.198051 0.025306
0.167772 0.199101 0.024376
0.184315 0.199908 0.023193
0.200890 0.200458 0.021853
0.218127 0.201597 0.019844
0.235290 0.202738 0.017782
0.252351 0.203958 0.015767
0.269312 0.205308 0.013887
0.286149 0.206790 0.012248
0.302761 0.208342 0.011009
0.318921 0.209819 0.010426
0.334215 0.210944 0.010904
0.348700 0.211859 0.012513
0.363039 0.213221 0.014920
0.377225 0.215153 0.018332
0.391248 0.217804 0.023021
0.405052 0.221306 0.029366
0.418199 0.225489 0.037984
0.430739 0.230573 0.049248
0.442840 0.236850 0.063594
0.454676 0.244573 0.081406
0.466341 0.253873 0.100373
