looks/Brejon_A1_TLog_EGamut2_v011_65.cube
# The Brejon Look Modification Transform
# Brejon for ACES 1.3 v011 - A pleasing, colorful and natural look for ACES 1.3
# Created by Chris Brejon - chrisbrejon.com - 2026-02-17 12:53:04
# 3 columns rgb, 274625 rows
# Width     65 65 65
# Process Color Space = TLog - Egamut2
# LUT size
LUT_3D_SIZE 65
0.016184 0.016184 0.016184
0.032301 0.017736 0.016967
0.046617 0.021666 0.019746
0.052287 0.031455 0.028567
0.045788 0.038992 0.040440
0.042836 0.042389 0.042503
0.074639 0.027781 0.041923
0.105217 0.018035 0.036367
0.129252 0.015909 0.025024
0.148295 0.015182 0.016759
0.162642 0.016861 0.015876
0.177122 0.018561 0.015125
0.191862 0.020396 0.014376
0.206829 0.022489 0.013596
0.222007 0.024968 0.012767
0.237369 0.027980 0.011885
0.252901 0.031708 0.010962
0.268560 0.036383 0.010033
0.284300 0.042300 0.009167
0.300022 0.049825 0.008484
0.315588 0.059396 0.008174
0.330757 0.071491 0.008529
0.345362 0.085888 0.009826
0.359517 0.101038 0.012156
0.373222 0.116679 0.015756
0.386523 0.132663 0.020892
0.399464 0.148894 0.027910
0.412095 0.165305 0.037252
0.424472 0.181866 0.049472
0.436675 0.198572 0.065278
0.448817 0.215465 0.085019
0.461043 0.232622 0.105834
0.473193 0.249865 0.126974
0.485112 0.267004 0.148156
0.496817 0.283982 0.169175
0.508321 0.300743 0.189877
0.519648 0.317255 0.210152
0.530987 0.333634 0.230058
0.542415 0.349915 0.249608
0.553944 0.366067 0.268772
0.565593 0.382082 0.287543
0.577387 0.397953 0.305922
0.589350 0.413695 0.323929
0.601512 0.429319 0.341590
0.613888 0.444849 0.358937
0.626501 0.460303 0.376008
0.639358 0.475708 0.392836
0.652462 0.491076 0.409462
0.665814 0.506430 0.425912
0.679405 0.521777 0.442219
0.693222 0.537132 0.458402
0.707252 0.552499 0.474490
0.721477 0.567883 0.490492
0.735883 0.583287 0.506432
0.750446 0.598713 0.522313
0.765156 0.614159 0.538153
0.779989 0.629626 0.553954
0.794936 0.645113 0.569726
0.809978 0.660616 0.585472
0.825106 0.676135 0.601199
0.840304 0.691670 0.616908
0.855569 0.707217 0.632605
0.870884 0.722774 0.648287
0.886248 0.738341 0.663963
0.901650 0.753917 0.679630
0.016181 0.031812 0.016182
0.031938 0.031557 0.016309
0.046915 0.033327 0.017702
0.047956 0.039180 0.033561
0.042845 0.042378 0.042497
0.069299 0.032607 0.040449
0.093951 0.031162 0.032472
0.115531 0.029554 0.023511
0.133512 0.029300 0.017928
0.148308 0.030584 0.016921
0.162744 0.031953 0.016227
0.177260 0.033440 0.015585
0.192010 0.035151 0.014906
0.206975 0.037179 0.014175
0.222144 0.039635 0.013382
0.237496 0.042654 0.012529
0.253015 0.046413 0.011634
0.268663 0.051135 0.010731
0.284390 0.057105 0.009892
0.300102 0.064676 0.009236
0.315656 0.074260 0.008954
0.330815 0.085659 0.009335
0.345411 0.098069 0.010655
0.359559 0.111325 0.013006
0.373258 0.125268 0.016625
0.386554 0.139766 0.021779
0.399490 0.154725 0.028813
0.412118 0.170061 0.038171
0.424491 0.185724 0.050407
0.436693 0.201689 0.066228
0.448833 0.217976 0.085883
0.461058 0.234639 0.106538
0.473206 0.251482 0.127546
0.485125 0.268297 0.148620
0.496829 0.285016 0.169550
0.508333 0.301570 0.190181
0.519659 0.317917 0.210398
0.530998 0.334164 0.230258
0.542426 0.350341 0.249771
0.553954 0.366411 0.268906
0.565604 0.382359 0.287653
0.577397 0.398178 0.306013
0.589360 0.413878 0.324004
0.601521 0.429468 0.341652
0.613896 0.444972 0.358989
0.626509 0.460405 0.376051
0.639365 0.475791 0.392873
0.652468 0.491145 0.409493
0.665820 0.506487 0.425937
0.679410 0.521825 0.442240
0.693227 0.537172 0.458420
0.707256 0.552532 0.474505
0.721481 0.567911 0.490505
0.735886 0.583310 0.506443
0.750449 0.598732 0.522322
0.765158 0.614175 0.538161
0.779991 0.629640 0.553960
0.794938 0.645124 0.569732
0.809979 0.660626 0.585476
0.825107 0.676143 0.601203
0.840306 0.691677 0.616912
0.855570 0.707222 0.632608
0.870885 0.722779 0.648290
0.886249 0.738345 0.663965
0.901651 0.753920 0.679631
0.016175 0.047444 0.016179
0.031997 0.047062 0.016370
0.046973 0.047642 0.017473
0.042643 0.043824 0.040212
0.057773 0.044563 0.036296
0.079618 0.043501 0.029681
0.100471 0.042087 0.022389
0.118088 0.043154 0.019360
0.133556 0.044302 0.018111
0.148295 0.045478 0.017342
0.162848 0.046734 0.016728
0.177431 0.048131 0.016138
0.192177 0.049772 0.015503
0.207132 0.051770 0.014803
0.222289 0.054224 0.014035
0.237628 0.057267 0.013205
0.253134 0.061069 0.012330
0.268768 0.065847 0.011449
0.284483 0.071878 0.010633
0.300182 0.079393 0.010001
0.315726 0.088124 0.009745
0.330874 0.097973 0.010151
0.345460 0.108818 0.011492
0.359601 0.120573 0.013862
0.373293 0.133117 0.017499
0.386584 0.146358 0.022669
0.399516 0.160205 0.029719
0.412140 0.174580 0.039092
0.424511 0.189426 0.051343
0.436711 0.204704 0.067181
0.448849 0.220419 0.086740
0.461073 0.236612 0.107238
0.473220 0.253071 0.128114
0.485138 0.269573 0.149081
0.496841 0.286039 0.169923
0.508345 0.302389 0.190483
0.519671 0.318574 0.210644
0.531009 0.334692 0.230458
0.542437 0.350765 0.249934
0.553965 0.366753 0.269040
0.565614 0.382636 0.287763
0.577407 0.398403 0.306104
0.589369 0.414061 0.324079
0.601530 0.429618 0.341715
0.613905 0.445095 0.359040
0.626517 0.460506 0.376095
0.639372 0.475874 0.392909
0.652475 0.491214 0.409523
0.665826 0.506544 0.425963
0.679415 0.521872 0.442261
0.693231 0.537212 0.458438
0.707261 0.552566 0.474520
0.721485 0.567939 0.490518
0.735889 0.583334 0.506453
0.750452 0.598752 0.522331
0.765161 0.614192 0.538168
0.779993 0.629654 0.553966
0.794940 0.645136 0.569737
0.809981 0.660636 0.585481
0.825108 0.676152 0.601207
0.840307 0.691684 0.616915
0.855571 0.707228 0.632610
0.870886 0.722784 0.648292
0.886249 0.738349 0.663967
0.901651 0.753924 0.679633
0.016173 0.063072 0.016178
0.033771 0.059138 0.018145
0.042643 0.043824 0.040212
0.046050 0.047114 0.038504
0.063842 0.050829 0.030096
0.084042 0.053590 0.024168
0.101918 0.055794 0.021203
0.118106 0.057371 0.019583
0.133376 0.058686 0.018610
0.148215 0.059932 0.017923
0.162900 0.061224 0.017341
0.177585 0.062649 0.016770
0.192358 0.064289 0.016157
0.207300 0.066278 0.015477
0.222441 0.068748 0.014725
0.237764 0.071826 0.013910
0.253255 0.075677 0.013051
0.268875 0.080363 0.012187
0.284577 0.085946 0.011390
0.300264 0.092525 0.010780
0.315796 0.100158 0.010546
0.330933 0.108824 0.010975
0.345510 0.118436 0.012336
0.359643 0.128968 0.014724
0.373329 0.140345 0.018377
0.386615 0.152506 0.023564
0.399543 0.165374 0.030628
0.412163 0.178887 0.040016
0.424531 0.192983 0.052282
0.436729 0.207621 0.068134
0.448866 0.222798 0.087590
0.461089 0.238543 0.107933
0.473234 0.254632 0.128681
0.485151 0.270831 0.149540
0.496853 0.287050 0.170295
0.508356 0.303202 0.190785
0.519682 0.319226 0.210888
0.531020 0.335216 0.230657
0.542448 0.351188 0.250097
0.553976 0.367094 0.269173
0.565625 0.382912 0.287872
0.577417 0.398627 0.306194
0.589379 0.414244 0.324154
0.601539 0.429767 0.341777
0.613914 0.445217 0.359092
0.626525 0.460606 0.376138
0.639380 0.475958 0.392945
0.652482 0.491283 0.409553
0.665833 0.506602 0.425988
0.679421 0.521920 0.442283
0.693236 0.537251 0.458456
0.707265 0.552599 0.474535
0.721489 0.567967 0.490531
0.735893 0.583357 0.506464
0.750455 0.598772 0.522340
0.765163 0.614208 0.538176
0.779995 0.629668 0.553973
0.794942 0.645147 0.569743
0.809982 0.660646 0.585485
0.825110 0.676160 0.601211
0.840308 0.691691 0.616918
0.855572 0.707234 0.632613
0.870887 0.722788 0.648294
0.886250 0.738353 0.663969
0.901652 0.753928 0.679635
0.025788 0.059474 0.025790
0.042643 0.043824 0.040212
0.044871 0.046730 0.039154
0.051757 0.054361 0.033052
0.067673 0.061614 0.027025
0.085142 0.065893 0.023578
0.101714 0.068729 0.021473
0.117644 0.070808 0.020138
0.133014 0.072472 0.019253
0.148029 0.073955 0.018594
0.162872 0.075410 0.018024
0.177674 0.076937 0.017463
0.192523 0.078620 0.016862
0.207473 0.080549 0.016193
0.222597 0.082871 0.015450
0.237904 0.085695 0.014644
0.253379 0.089117 0.013795
0.268985 0.093239 0.012945
0.284673 0.098168 0.012164
0.300348 0.104001 0.011573
0.315867 0.110790 0.011359
0.330993 0.118522 0.011808
0.345561 0.127135 0.013187
0.359686 0.136655 0.015592
0.373365 0.147044 0.019261
0.386645 0.158265 0.024461
0.399569 0.170267 0.031541
0.412186 0.183000 0.040942
0.424551 0.196406 0.053222
0.436747 0.210449 0.069089
0.448882 0.225117 0.088434
0.461104 0.240435 0.108623
0.473248 0.256167 0.129243
0.485164 0.272072 0.149997
0.496866 0.288050 0.170665
0.508368 0.304007 0.191086
0.519693 0.319874 0.211132
0.531031 0.335738 0.230856
0.542459 0.351608 0.250260
0.553987 0.367434 0.269306
0.565635 0.383187 0.287982
0.577428 0.398851 0.306285
0.589389 0.414426 0.324229
0.601549 0.429916 0.341839
0.613922 0.445340 0.359144
0.626532 0.460707 0.376182
0.639387 0.476041 0.392981
0.652488 0.491352 0.409584
0.665838 0.506659 0.426014
0.679426 0.521968 0.442304
0.693241 0.537291 0.458474
0.707269 0.552632 0.474550
0.721492 0.567995 0.490544
0.735896 0.583380 0.506475
0.750458 0.598791 0.522349
0.765166 0.614225 0.538184
0.779997 0.629682 0.553979
0.794944 0.645159 0.569748
0.809984 0.660655 0.585490
0.825111 0.676168 0.601215
0.840309 0.691698 0.616922
0.855572 0.707240 0.632616
0.870888 0.722793 0.648297
0.886251 0.738357 0.663971
0.901652 0.753931 0.679636
0.041469 0.043794 0.041469
0.043698 0.048243 0.039528
0.044689 0.054434 0.036274
0.053740 0.064485 0.030701
0.068270 0.072030 0.026520
0.084641 0.077037 0.023843
0.100864 0.080546 0.022031
0.116872 0.083135 0.020795
0.132469 0.085131 0.019942
0.147717 0.086795 0.019299
0.162750 0.088316 0.018741
0.177689 0.089825 0.018192
0.192631 0.091428 0.017603
0.207637 0.093216 0.016947
0.222757 0.095287 0.016210
0.238046 0.097799 0.015408
0.253506 0.100855 0.014566
0.269096 0.104550 0.013725
0.284770 0.108976 0.012957
0.300432 0.114224 0.012381
0.315940 0.120343 0.012186
0.331053 0.127316 0.012654
0.345612 0.135102 0.014049
0.359729 0.143769 0.016468
0.373402 0.153305 0.020152
0.386677 0.163698 0.025366
0.399596 0.174926 0.032459
0.412209 0.186948 0.041873
0.424572 0.199716 0.054166
0.436765 0.213201 0.070049
0.448899 0.227385 0.089273
0.461119 0.242295 0.109312
0.473262 0.257682 0.129805
0.485177 0.273301 0.150453
0.496878 0.289043 0.171036
0.508380 0.304808 0.191386
0.519705 0.320519 0.211376
0.531042 0.336258 0.231055
0.542470 0.352028 0.250423
0.553997 0.367774 0.269440
0.565646 0.383463 0.288092
0.577438 0.399075 0.306376
0.589398 0.414608 0.324304
0.601558 0.430066 0.341902
0.613931 0.445462 0.359196
0.626540 0.460808 0.376225
0.639394 0.476125 0.393018
0.652495 0.491421 0.409614
0.665845 0.506716 0.426039
0.679432 0.522016 0.442326
0.693246 0.537331 0.458492
0.707273 0.552665 0.474566
0.721496 0.568022 0.490556
0.735899 0.583404 0.506486
0.750460 0.598811 0.522358
0.765168 0.614241 0.538191
0.779999 0.629696 0.553986
0.794945 0.645171 0.569754
0.809985 0.660665 0.585495
0.825112 0.676176 0.601219
0.840310 0.691705 0.616925
0.855573 0.707246 0.632619
0.870888 0.722798 0.648299
0.886251 0.738362 0.663973
0.901653 0.753935 0.679638
0.041318 0.049397 0.041309
0.042237 0.055904 0.037916
0.045014 0.064221 0.034076
0.054352 0.074431 0.029880
0.067888 0.082193 0.026615
0.083495 0.087524 0.024351
0.099539 0.091531 0.022702
0.115728 0.094623 0.021517
0.131645 0.097016 0.020688
0.147206 0.098949 0.020070
0.162490 0.100626 0.019540
0.177614 0.102204 0.019017
0.192682 0.103802 0.018452
0.207768 0.105520 0.017816
0.222931 0.107452 0.017098
0.238208 0.109709 0.016298
0.253649 0.112452 0.015459
0.269222 0.115775 0.014624
0.284881 0.119761 0.013867
0.300528 0.124488 0.013306
0.316022 0.129999 0.013129
0.331122 0.136275 0.013615
0.345670 0.143293 0.015025
0.359778 0.151150 0.017461
0.373443 0.159860 0.021159
0.386712 0.169441 0.026387
0.399626 0.179891 0.033494
0.412235 0.191187 0.042922
0.424595 0.203297 0.055231
0.436785 0.216196 0.071128
0.448917 0.229868 0.090209
0.461137 0.244339 0.110080
0.473278 0.259354 0.130432
0.485192 0.274662 0.150964
0.496892 0.290145 0.171450
0.508393 0.305700 0.191723
0.519717 0.321239 0.211651
0.531055 0.336839 0.231278
0.542482 0.352497 0.250605
0.554009 0.368154 0.269589
0.565657 0.383771 0.288215
0.577449 0.399326 0.306477
0.589409 0.414813 0.324388
0.601568 0.430233 0.341972
0.613941 0.445600 0.359255
0.626550 0.460922 0.376274
0.639403 0.476218 0.393058
0.652503 0.491499 0.409649
0.665851 0.506781 0.426068
0.679438 0.522069 0.442350
0.693251 0.537376 0.458512
0.707278 0.552703 0.474583
0.721500 0.568054 0.490571
0.735903 0.583430 0.506498
0.750464 0.598833 0.522369
0.765171 0.614260 0.538200
0.780002 0.629711 0.553993
0.794947 0.645184 0.569760
0.809987 0.660676 0.585500
0.825114 0.676186 0.601223
0.840311 0.691712 0.616929
0.855574 0.707253 0.632622
0.870889 0.722804 0.648302
0.886252 0.738366 0.663975
0.901654 0.753938 0.679640
0.039670 0.057990 0.039639
0.040547 0.064580 0.036219
0.045403 0.075333 0.032746
0.054561 0.084830 0.029556
0.067174 0.092176 0.026903
0.081993 0.097680 0.024911
0.097778 0.102137 0.023401
0.114121 0.105791 0.022268
0.130414 0.108698 0.021468
0.146383 0.111025 0.020895
0.162013 0.112969 0.020424
0.177394 0.114705 0.019960
0.192643 0.116372 0.019445
0.207848 0.118085 0.018851
0.223086 0.119945 0.018167
0.238397 0.122048 0.017392
0.253820 0.124511 0.016552
0.269373 0.127492 0.015720
0.285013 0.131071 0.014971
0.300642 0.135311 0.014424
0.316119 0.140249 0.014263
0.331204 0.145860 0.014768
0.345739 0.152129 0.016195
0.359836 0.159181 0.018647
0.373493 0.167058 0.022360
0.386754 0.175803 0.027603
0.399662 0.185441 0.034725
0.412266 0.195965 0.044169
0.424622 0.207363 0.056494
0.436810 0.219619 0.072408
0.448940 0.232725 0.091306
0.461157 0.246703 0.110981
0.473297 0.261295 0.131169
0.485209 0.276247 0.151565
0.496908 0.291434 0.171939
0.508409 0.306744 0.192120
0.519732 0.322084 0.211974
0.531070 0.337523 0.231543
0.542497 0.353050 0.250821
0.554024 0.368602 0.269767
0.565671 0.384135 0.288361
0.577462 0.399622 0.306598
0.589422 0.415055 0.324487
0.601580 0.430431 0.342054
0.613952 0.445762 0.359323
0.626560 0.461056 0.376331
0.639412 0.476329 0.393107
0.652512 0.491591 0.409689
0.665859 0.506857 0.426102
0.679445 0.522133 0.442379
0.693258 0.537429 0.458537
0.707284 0.552747 0.474603
0.721505 0.568091 0.490588
0.735907 0.583461 0.506512
0.750467 0.598859 0.522381
0.765174 0.614282 0.538210
0.780004 0.629730 0.554002
0.794950 0.645199 0.569767
0.809989 0.660689 0.585506
0.825116 0.676197 0.601229
0.840313 0.691722 0.616933
0.855576 0.707260 0.632626
0.870890 0.722811 0.648305
0.886253 0.738372 0.663978
0.901654 0.753943 0.679642
0.037727 0.068217 0.037659
0.039903 0.077342 0.034615
0.045713 0.087202 0.031937
0.054671 0.095454 0.029435
0.066447 0.102248 0.027243
0.080387 0.107724 0.025468
0.095745 0.112482 0.024037
0.112076 0.116627 0.022967
0.128695 0.120091 0.022213
0.145135 0.122917 0.021703
0.161214 0.125240 0.021328
0.176952 0.127233 0.020972
0.192459 0.129053 0.020558
0.207841 0.130832 0.020046
0.223193 0.132681 0.019426
0.238573 0.134701 0.018702
0.254021 0.136987 0.017895
0.269553 0.139662 0.017062
0.285171 0.142868 0.016316
0.300779 0.146662 0.015778
0.316236 0.151066 0.015633
0.331302 0.156046 0.016155
0.345822 0.161592 0.017598
0.359906 0.167860 0.020064
0.373551 0.174907 0.023793
0.386804 0.182807 0.029052
0.399705 0.191604 0.036190
0.412304 0.201318 0.045651
0.424654 0.211956 0.057994
0.436839 0.223514 0.073930
0.448966 0.235994 0.092591
0.461182 0.249425 0.112041
0.473320 0.263541 0.132037
0.485230 0.278090 0.152273
0.496928 0.292937 0.172515
0.508427 0.307966 0.192589
0.519750 0.323074 0.212355
0.531087 0.338326 0.231855
0.542514 0.353701 0.251076
0.554041 0.369130 0.269976
0.565688 0.384564 0.288533
0.577478 0.399972 0.306740
0.589437 0.415340 0.324606
0.601595 0.430665 0.342153
0.613966 0.445955 0.359406
0.626573 0.461214 0.376400
0.639424 0.476460 0.393164
0.652522 0.491700 0.409737
0.665869 0.506948 0.426142
0.679453 0.522208 0.442413
0.693265 0.537492 0.458565
0.707290 0.552800 0.474627
0.721511 0.568135 0.490608
0.735912 0.583498 0.506530
0.750472 0.598890 0.522395
0.765178 0.614308 0.538223
0.780008 0.629752 0.554012
0.794953 0.645218 0.569776
0.809992 0.660705 0.585513
0.825118 0.676210 0.601235
0.840315 0.691733 0.616938
0.855577 0.707270 0.632630
0.870892 0.722818 0.648309
0.886254 0.738378 0.663981
0.901655 0.753949 0.679645
0.035830 0.081544 0.035701
0.039660 0.091115 0.033544
0.046019 0.099361 0.031429
0.054807 0.106505 0.029416
0.065872 0.112656 0.027583
0.078909 0.117893 0.026008
0.093646 0.122737 0.024629
0.109741 0.127224 0.023552
0.126508 0.131171 0.022848
0.143372 0.134528 0.022418
0.159976 0.137328 0.022163
0.176183 0.139682 0.021970
0.192052 0.141749 0.021725
0.207689 0.143674 0.021363
0.223212 0.145582 0.020863
0.238701 0.147583 0.020232
0.254214 0.149774 0.019498
0.269764 0.152246 0.018706
0.285358 0.155115 0.017958
0.300942 0.158498 0.017425
0.316376 0.162406 0.017292
0.331419 0.166795 0.017828
0.345921 0.171659 0.019283
0.359989 0.177169 0.021764
0.373622 0.183406 0.025506
0.386864 0.190459 0.030781
0.399756 0.198400 0.037935
0.412348 0.207276 0.047414
0.424693 0.217112 0.059777
0.436873 0.227920 0.075731
0.448997 0.239721 0.094092
0.461211 0.252547 0.113280
0.473346 0.266133 0.133055
0.485255 0.280226 0.153104
0.496951 0.294686 0.173193
0.508449 0.309393 0.193141
0.519772 0.324234 0.212806
0.531108 0.339268 0.232222
0.542534 0.354465 0.251377
0.554061 0.369751 0.270223
0.565707 0.385069 0.288737
0.577497 0.400384 0.306909
0.589456 0.415677 0.324745
0.601612 0.430942 0.342269
0.613982 0.446182 0.359502
0.626588 0.461402 0.376481
0.639438 0.476615 0.393232
0.652535 0.491828 0.409794
0.665880 0.507055 0.426190
0.679464 0.522297 0.442453
0.693274 0.537566 0.458599
0.707298 0.552862 0.474656
0.721518 0.568187 0.490632
0.735918 0.583542 0.506550
0.750477 0.598927 0.522412
0.765183 0.614338 0.538237
0.780012 0.629777 0.554024
0.794956 0.645239 0.569786
0.809995 0.660723 0.585522
0.825120 0.676225 0.601242
0.840317 0.691746 0.616944
0.855579 0.707281 0.632635
0.870893 0.722828 0.648313
0.886256 0.738386 0.663985
0.901657 0.753955 0.679648
0.034807 0.097134 0.034573
0.039608 0.104979 0.032838
0.046366 0.111905 0.031124
0.055025 0.118068 0.029468
0.065514 0.123547 0.027918
0.077717 0.128398 0.026524
0.091709 0.133106 0.025217
0.107317 0.137731 0.024083
0.123999 0.142034 0.023325
0.141113 0.145847 0.022963
0.158201 0.149147 0.022843
0.174966 0.151957 0.022843
0.191315 0.154368 0.022840
0.207314 0.156526 0.022719
0.223090 0.158569 0.022428
0.238746 0.160618 0.021964
0.254363 0.162775 0.021358
0.269973 0.165132 0.020666
0.285578 0.167769 0.019971
0.301135 0.170778 0.019435
0.316542 0.174233 0.019306
0.331559 0.178076 0.019852
0.346039 0.182301 0.021314
0.360088 0.187091 0.023804
0.373706 0.192540 0.027558
0.386935 0.198760 0.032846
0.399817 0.205844 0.040016
0.412401 0.213863 0.049513
0.424740 0.222863 0.061898
0.436914 0.232879 0.077835
0.449035 0.243948 0.095843
0.461246 0.256111 0.114731
0.473378 0.269110 0.134247
0.485285 0.282692 0.154081
0.496979 0.296716 0.173991
0.508476 0.311054 0.193791
0.519797 0.325589 0.213337
0.531133 0.340371 0.232656
0.542559 0.355363 0.251732
0.554085 0.370482 0.270515
0.565731 0.385665 0.288977
0.577520 0.400870 0.307107
0.589477 0.416075 0.324910
0.601632 0.431268 0.342406
0.614001 0.446451 0.359617
0.626606 0.461623 0.376576
0.639454 0.476799 0.393312
0.652550 0.491980 0.409861
0.665894 0.507181 0.426246
0.679476 0.522403 0.442500
0.693285 0.537654 0.458639
0.707308 0.552935 0.474689
0.721526 0.568249 0.490661
0.735925 0.583593 0.506574
0.750483 0.598970 0.522433
0.765188 0.614375 0.538254
0.780016 0.629808 0.554039
0.794960 0.645265 0.569799
0.809998 0.660745 0.585532
0.825123 0.676243 0.601251
0.840319 0.691761 0.616952
0.855581 0.707294 0.632641
0.870895 0.722839 0.648318
0.886257 0.738395 0.663989
0.901658 0.753963 0.679652
0.034200 0.112552 0.033822
0.039726 0.119023 0.032395
0.046789 0.124861 0.030976
0.055356 0.130162 0.029587
0.065398 0.134987 0.028259
0.076883 0.139378 0.027026
0.090112 0.143794 0.025807
0.105048 0.148336 0.024652
0.121364 0.152806 0.023744
0.138511 0.156974 0.023299
0.155915 0.160691 0.023284
0.173198 0.163962 0.023489
0.190125 0.166807 0.023766
0.206610 0.169291 0.023980
0.222748 0.171553 0.024016
0.238652 0.173725 0.023831
0.254431 0.175918 0.023449
0.270140 0.178226 0.022929
0.285800 0.180725 0.022367
0.301362 0.183466 0.021897
0.316739 0.186508 0.021763
0.331725 0.189848 0.022307
0.346179 0.193478 0.023768
0.360207 0.197591 0.026260
0.373807 0.202289 0.030019
0.387021 0.207701 0.035317
0.399891 0.213939 0.042500
0.412464 0.221092 0.052015
0.424795 0.229232 0.064420
0.436964 0.238421 0.080275
0.449080 0.248711 0.097881
0.461287 0.260158 0.116423
0.473416 0.272514 0.135642
0.485320 0.285529 0.155226
0.497012 0.299061 0.174927
0.508507 0.312983 0.194556
0.519827 0.327167 0.213961
0.531162 0.341661 0.233167
0.542588 0.356415 0.252152
0.554113 0.371340 0.270860
0.565758 0.386365 0.289262
0.577546 0.401443 0.307343
0.589502 0.416544 0.325105
0.601656 0.431654 0.342568
0.614023 0.446768 0.359752
0.626626 0.461885 0.376689
0.639473 0.477015 0.393407
0.652567 0.492160 0.409941
0.665909 0.507331 0.426313
0.679490 0.522527 0.442557
0.693297 0.537758 0.458686
0.707319 0.553022 0.474729
0.721536 0.568322 0.490695
0.735934 0.583654 0.506602
0.750491 0.599021 0.522456
0.765194 0.614418 0.538274
0.780022 0.629844 0.554056
0.794965 0.645296 0.569813
0.810002 0.660770 0.585544
0.825127 0.676265 0.601261
0.840322 0.691779 0.616960
0.855584 0.707309 0.632649
0.870897 0.722852 0.648324
0.886259 0.738406 0.663994
0.901659 0.753972 0.679656
0.033931 0.127929 0.033358
0.040014 0.133297 0.032160
0.047319 0.138227 0.030961
0.055830 0.142781 0.029777
0.065532 0.146997 0.028627
0.076432 0.150912 0.027533
0.088948 0.154946 0.026408
0.103143 0.159237 0.025268
0.118862 0.163654 0.024252
0.135749 0.168007 0.023570
0.153280 0.172072 0.023453
0.170915 0.175716 0.023815
0.188377 0.178984 0.024383
0.205454 0.181882 0.024979
0.222079 0.184454 0.025459
0.238342 0.186830 0.025704
0.254366 0.189130 0.025687
0.270231 0.191456 0.025459
0.285985 0.193882 0.025122
0.301596 0.196457 0.024825
0.316971 0.199189 0.024767
0.331922 0.202068 0.025297
0.346347 0.205152 0.026742
0.360349 0.208637 0.029225
0.373927 0.212629 0.032980
0.387124 0.217267 0.038279
0.399979 0.222676 0.045471
0.412540 0.228969 0.055000
0.424861 0.236242 0.067427
0.437023 0.244577 0.083096
0.449133 0.254048 0.100246
0.461337 0.264730 0.118393
0.473461 0.276389 0.137271
0.485362 0.288777 0.156566
0.497051 0.301764 0.176025
0.508544 0.315216 0.195453
0.519863 0.329003 0.214695
0.531197 0.343166 0.233768
0.542622 0.357646 0.252646
0.554146 0.372347 0.271267
0.565791 0.387188 0.289597
0.577578 0.402116 0.307621
0.589532 0.417096 0.325336
0.601685 0.432108 0.342760
0.614050 0.447142 0.359913
0.626651 0.462195 0.376823
0.639496 0.477271 0.393519
0.652588 0.492373 0.410035
0.665928 0.507508 0.426392
0.679507 0.522675 0.442623
0.693312 0.537882 0.458742
0.707332 0.553125 0.474777
0.721547 0.568408 0.490734
0.735944 0.583727 0.506636
0.750499 0.599082 0.522485
0.765202 0.614469 0.538298
0.780028 0.629887 0.554076
0.794970 0.645332 0.569830
0.810007 0.660801 0.585559
0.825131 0.676291 0.601273
0.840326 0.691801 0.616971
0.855587 0.707327 0.632657
0.870900 0.722867 0.648332
0.886261 0.738419 0.664001
0.901661 0.753983 0.679661
0.033963 0.143352 0.033129
0.040488 0.147829 0.032105
0.047996 0.152002 0.031076
0.056479 0.155907 0.030051
0.065931 0.159570 0.029044
0.076370 0.163019 0.028069
0.088255 0.166639 0.027038
0.101724 0.170583 0.025940
0.116736 0.174781 0.024868
0.133100 0.179105 0.023989
0.150459 0.183365 0.023548
0.168297 0.187350 0.023797
0.186121 0.190934 0.024586
0.203737 0.194212 0.025575
0.220962 0.197176 0.026558
0.237712 0.199842 0.027377
0.254091 0.202330 0.027910
0.270195 0.204745 0.028152
0.286099 0.207169 0.028189
0.301797 0.209646 0.028180
0.317213 0.212179 0.028339
0.332154 0.214702 0.028950
0.346546 0.217287 0.030359
0.360518 0.220191 0.032813
0.374071 0.223522 0.036549
0.387246 0.227426 0.041838
0.400084 0.232042 0.049029
0.412631 0.237493 0.058566
0.424941 0.243899 0.071009
0.437093 0.251365 0.086346
0.449197 0.259987 0.102982
0.461396 0.269864 0.120679
