looks/Brejon_A1_TLog_EGamut2_v016_65.cube
TITLE "Generated by Foundry::LUT"
LUT_3D_SIZE 5
0.046874 0.046874 0.046874
0.251324 0.052834 0.040435
0.468931 0.259113 0.197096
0.652817 0.503754 0.435453
0.887274 0.750852 0.680850
0.092106 0.233975 0.054669
0.253271 0.250789 0.053388
0.469554 0.302508 0.204513
0.653064 0.505621 0.436153
0.887299 0.750962 0.680901
0.288056 0.455588 0.219644
0.319281 0.457144 0.230029
0.476934 0.473563 0.244444
0.656568 0.529423 0.445317
0.887647 0.752541 0.681632
0.519223 0.663191 0.473039
0.521091 0.663387 0.473550
0.544707 0.666185 0.479845
0.691982 0.684941 0.494775
0.892690 0.774061 0.691627
0.770282 0.907292 0.729222
0.770396 0.907307 0.729250
0.772027 0.907525 0.729649
0.793875 0.910751 0.734723
0.938044 0.930037 0.746311
0.037722 0.058701 0.260290
0.253869 0.071470 0.253869
0.468785 0.264431 0.275349
0.652934 0.504300 0.440265
0.887288 0.750895 0.681150
0.090552 0.254250 0.248056
0.255838 0.255838 0.255838
0.469461 0.305486 0.278624
0.653180 0.506157 0.440937
0.887312 0.751005 0.681201
0.292428 0.457190 0.277453
0.322830 0.458512 0.284344
0.477433 0.474424 0.296883
0.656676 0.529840 0.449754
0.887660 0.752584 0.681930
0.519735 0.663344 0.476551
0.521593 0.663538 0.477052
0.545105 0.666318 0.483241
0.692068 0.685068 0.497841
0.892702 0.774096 0.691903
0.770318 0.907303 0.729436
0.770432 0.907318 0.729463
0.772063 0.907536 0.729862
0.793903 0.910761 0.734932
0.938051 0.930047 0.746505
0.184199 0.267062 0.489540
0.279456 0.264347 0.489565
0.477560 0.323776 0.477560
0.654796 0.511822 0.490800
0.887481 0.751518 0.685373
0.196373 0.316078 0.488505
0.283037 0.314495 0.488595
0.478066 0.347062 0.478066
0.655032 0.513544 0.491253
0.887505 0.751628 0.685422
0.322164 0.479190 0.473415
0.347411 0.479379 0.474773
0.483438 0.483438 0.483438
0.658382 0.535675 0.497297
0.887852 0.753197 0.686129
0.526930 0.665470 0.516463
0.528668 0.665645 0.516867
0.550761 0.668170 0.522041
0.693281 0.686861 0.533663
0.892874 0.774594 0.695805
0.770839 0.907462 0.732458
0.770953 0.907477 0.732485
0.772575 0.907694 0.732879
0.794311 0.910900 0.737903
0.938145 0.930187 0.749255
0.451268 0.538035 0.711428
0.457433 0.537614 0.711564
0.517992 0.532255 0.713188
0.693013 0.584252 0.693013
0.890501 0.760280 0.733036
0.452326 0.540504 0.711290
0.458408 0.540100 0.711426
0.518395 0.534927 0.713054
0.693108 0.585178 0.693108
0.890523 0.760382 0.733072
0.466563 0.569647 0.709376
0.471632 0.569403 0.709508
0.524205 0.566156 0.711175
0.694460 0.597579 0.694460
0.890847 0.761830 0.733579
0.586990 0.696554 0.691982
0.588062 0.696597 0.692106
0.602252 0.697221 0.693811
0.707466 0.707466 0.707466
0.895556 0.781693 0.740608
0.778485 0.909752 0.769056
0.778590 0.909766 0.769080
0.780095 0.909964 0.769421
0.800353 0.912906 0.773943
0.939531 0.932251 0.783224
0.710521 0.795261 0.957440
0.710875 0.795229 0.957453
0.715829 0.794770 0.957642
0.769505 0.788624 0.960019
0.939159 0.836349 0.939159
0.710590 0.795406 0.957430
0.710943 0.795374 0.957443
0.715893 0.794917 0.957633
0.769533 0.788784 0.960010
0.939167 0.836405 0.939167
0.711576 0.797471 0.957291
0.711925 0.797440 0.957304
0.716812 0.796999 0.957493
0.769945 0.791067 0.959871
0.939272 0.837212 0.939272
0.725430 0.823365 0.955279
0.725720 0.823347 0.955292
0.729794 0.823081 0.955471
0.776112 0.819355 0.957839
0.940828 0.848577 0.940828
0.840912 0.943022 0.938691
0.840977 0.943025 0.938700
0.841904 0.943074 0.938825
0.854798 0.943821 0.940624
0.955356 0.955356 0.955356
