looks/Brejon_A1_TLog_EGamut2_v005_65.cube
# The Brejon Look Modification Transform
# Brejon for ACES 1.3 v005 - A pleasing, colorful and natural look for ACES 1.3
# Created by Chris Brejon - chrisbrejon.com - 2025-11-29 22:25:13
# 3 columns rgb, 274625 rows
# Width     65 65 65
# Process Color Space = TLog - Egamut2
# LUT size
LUT_3D_SIZE 5
0.021066 0.021066 0.021066
0.250578 0.023280 0.017087
0.476302 0.237893 0.130961
0.638553 0.498067 0.420268
0.862617 0.744059 0.676846
0.031494 0.222925 0.023674
0.253223 0.252168 -0.003485
0.476887 0.293754 0.135971
0.638775 0.499936 0.420978
0.862642 0.744163 0.676892
0.232383 0.466856 0.056105
0.287527 0.469430 0.047957
0.483725 0.483178 0.039215
0.641899 0.523827 0.430427
0.863001 0.745651 0.677559
0.487119 0.640495 0.397781
0.489286 0.640804 0.398475
0.516540 0.645106 0.406936
0.671708 0.673049 0.466053
0.868173 0.766164 0.686801
0.727440 0.865111 0.652711
0.727581 0.865150 0.652773
0.729594 0.865711 0.653659
0.756397 0.873433 0.665107
0.910891 0.912626 0.724337
0.037408 0.099143 0.254387
0.247398 0.095472 0.247398
0.476013 0.242897 0.258489
0.638662 0.498375 0.425600
0.862631 0.744084 0.677122
0.059837 0.242380 0.237041
0.251878 0.251878 0.251878
0.476776 0.295367 0.259249
0.638883 0.500238 0.426276
0.862656 0.744188 0.677168
0.238317 0.467800 0.232723
0.290575 0.470186 0.233498
0.484030 0.483737 0.238140
0.642006 0.524053 0.435294
0.863015 0.745676 0.677833
0.487555 0.640602 0.403840
0.489713 0.640911 0.404512
0.516876 0.645211 0.412766
0.671810 0.673163 0.469803
0.868186 0.766184 0.687057
0.727467 0.865119 0.653012
0.727608 0.865158 0.653074
0.729620 0.865719 0.653959
0.756420 0.873441 0.665399
0.910900 0.912636 0.724547
0.198722 0.331071 0.477750
0.279559 0.323381 0.479940
0.480395 0.331880 0.480395
0.640243 0.503346 0.480607
0.862836 0.744456 0.681013
0.213314 0.356065 0.476775
0.284289 0.350925 0.479038
0.480938 0.354709 0.480938
0.640462 0.505106 0.481030
0.862861 0.744559 0.681058
0.320606 0.481368 0.468481
0.346194 0.481772 0.470525
0.487754 0.487754 0.487754
0.643549 0.527745 0.486759
0.863219 0.746042 0.681704
0.493591 0.641925 0.463799
0.495634 0.642230 0.464332
0.521520 0.646504 0.471151
0.673245 0.674765 0.512121
0.868376 0.766481 0.690672
0.727853 0.865230 0.657245
0.727993 0.865269 0.657307
0.730000 0.865830 0.658180
0.756746 0.873561 0.669511
0.911032 0.912777 0.727514
0.443632 0.539400 0.619905
0.447132 0.539534 0.620451
0.488157 0.541567 0.628159
0.676595 0.566549 0.676595
0.865873 0.750415 0.726044
0.444573 0.540383 0.619965
0.448039 0.540522 0.620508
0.488723 0.542609 0.628190
0.676672 0.567679 0.676672
0.865897 0.750513 0.726077
0.457107 0.553425 0.620854
0.460151 0.553613 0.621366
0.496583 0.556343 0.628663
0.677772 0.582618 0.677772
0.866238 0.751913 0.726552
0.545561 0.648286 0.633386
0.546776 0.648512 0.633766
0.563144 0.651769 0.639138
0.692244 0.692243 0.692244
0.871175 0.771275 0.733202
0.733211 0.866498 0.704432
0.733346 0.866538 0.704487
0.735281 0.867102 0.705273
0.761222 0.874958 0.715734
0.912955 0.914822 0.763877
0.674804 0.752240 0.815171
0.675019 0.752296 0.815251
0.678083 0.753110 0.816405
0.717760 0.764435 0.832712
0.918113 0.815005 0.918113
0.674864 0.752304 0.815191
0.675079 0.752361 0.815272
0.678142 0.753175 0.816426
0.717801 0.764497 0.832726
0.918119 0.815074 0.918119
0.675730 0.753226 0.815488
0.675943 0.753283 0.815568
0.678984 0.754095 0.816715
0.718394 0.765393 0.832926
0.918209 0.816075 0.918209
0.687831 0.766217 0.819728
0.688024 0.766271 0.819802
0.690780 0.767047 0.820853
0.726867 0.777948 0.835814
0.919540 0.829960 0.919540
0.778356 0.871714 0.857071
0.778442 0.871742 0.857109
0.779670 0.872137 0.857653
0.797067 0.877952 0.865590
0.936432 0.936432 0.936432
