looks/Brejon_A1_TLog_EGamut2_v011_65.cube
# The Brejon Look Modification Transform
# Brejon for ACES 1.3 v011 - A pleasing, colorful and natural look for ACES 1.3
# Created by Chris Brejon - chrisbrejon.com - 2026-02-17 12:53:04
# 3 columns rgb, 274625 rows
# Width     65 65 65
# Process Color Space = TLog - Egamut2
# LUT size
LUT_3D_SIZE 5
0.016184 0.016184 0.016184
0.252901 0.031708 0.010962
0.473193 0.249865 0.126974
0.665814 0.506430 0.425912
0.901650 0.753917 0.679630
0.035971 0.190485 0.033714
0.250926 0.241123 0.031903
0.473750 0.297350 0.146864
0.666045 0.508601 0.426883
0.901673 0.754051 0.679694
0.227141 0.454863 0.177456
0.282749 0.458547 0.178266
0.482859 0.473767 0.252452
0.669299 0.535675 0.439904
0.901995 0.755964 0.680611
0.531433 0.697947 0.485992
0.533711 0.698048 0.486241
0.561641 0.699519 0.489131
0.707027 0.699396 0.524812
0.906656 0.781329 0.693445
0.787981 0.943639 0.746727
0.788115 0.943647 0.746743
0.790016 0.943763 0.746971
0.814844 0.945512 0.749664
0.953599 0.946198 0.777469
0.031802 0.068426 0.243991
0.251809 0.053619 0.252650
0.472813 0.260331 0.250699
0.665975 0.506774 0.431508
0.901667 0.753939 0.679950
0.075296 0.239673 0.241244
0.255209 0.255209 0.255209
0.473464 0.303533 0.255665
0.666205 0.508940 0.432426
0.901690 0.754073 0.680014
0.234953 0.457553 0.263148
0.286939 0.460823 0.264992
0.483254 0.474885 0.300989
0.669448 0.535959 0.444778
0.902012 0.755985 0.680928
0.531662 0.697961 0.490421
0.533930 0.698063 0.490660
0.561752 0.699543 0.493417
0.707100 0.699499 0.527102
0.906672 0.781349 0.693727
0.787995 0.943641 0.746981
0.788128 0.943649 0.746997
0.790029 0.943765 0.747225
0.814851 0.945515 0.749911
0.953605 0.946206 0.777611
0.215846 0.297371 0.471531
0.280427 0.291468 0.473365
0.478901 0.304223 0.480988
0.668434 0.511164 0.489042
0.901916 0.754251 0.684446
0.230018 0.330000 0.471766
0.287057 0.326478 0.473555
0.479667 0.333837 0.481402
0.668651 0.513277 0.489550
0.901939 0.754385 0.684507
0.327337 0.477452 0.476470
0.350084 0.478189 0.477763
0.486425 0.486425 0.486425
0.671730 0.539667 0.496578
0.902259 0.756295 0.685385
0.535045 0.698209 0.537576
0.537185 0.698312 0.537755
0.563546 0.699877 0.539653
0.708155 0.700991 0.555025
0.906895 0.781627 0.697699
0.788188 0.943670 0.750568
0.788321 0.943678 0.750583
0.790215 0.943795 0.750804
0.814953 0.945553 0.753398
0.953689 0.946316 0.779640
0.462658 0.542228 0.698396
0.467462 0.541781 0.698592
0.518444 0.535707 0.701223
0.706660 0.558275 0.709383
0.905729 0.758431 0.735322
0.463651 0.544349 0.698425
0.468400 0.543918 0.698621
0.518936 0.538049 0.701247
0.706749 0.559929 0.709438
0.905749 0.758563 0.735360
0.476995 0.570446 0.698841
0.481050 0.570171 0.699030
0.525811 0.566416 0.701595
0.708019 0.580805 0.710256
0.906044 0.760449 0.735908
0.579429 0.710084 0.707673
0.580674 0.710124 0.707772
0.596922 0.710726 0.709164
0.719432 0.719432 0.719432
0.910317 0.785420 0.743740
0.791160 0.944160 0.791890
0.791287 0.944168 0.791903
0.793088 0.944283 0.792080
0.816651 0.946102 0.794032
0.954948 0.947969 0.805746
0.713840 0.792739 0.945980
0.714153 0.792709 0.945994
0.718562 0.792274 0.946197
0.767955 0.786130 0.949009
0.954416 0.809175 0.957211
0.713905 0.792878 0.945982
0.714219 0.792847 0.945997
0.718624 0.792413 0.946199
0.767988 0.786284 0.949010
0.954423 0.809282 0.957215
0.714844 0.794845 0.946014
0.715155 0.794815 0.946028
0.719512 0.794395 0.946230
0.768463 0.788461 0.949037
0.954515 0.810803 0.957274
0.728007 0.820181 0.946486
0.728272 0.820162 0.946500
0.732002 0.819893 0.946694
0.775374 0.816080 0.949430
0.955887 0.830918 0.958181
0.830149 0.958403 0.955822
0.830229 0.958406 0.955829
0.831375 0.958446 0.955929
0.847029 0.959084 0.957387
0.968097 0.968097 0.968097
