looks/Brejon_A1_TLog_EGamut2_v007_65.cube
# The Brejon Look Modification Transform
# Brejon for ACES 1.3 v007 - A pleasing, colorful and natural look for ACES 1.3
# Created by Chris Brejon - chrisbrejon.com - 2026-02-02 10:36:26
# 3 columns rgb, 274625 rows
# Width     65 65 65
# Process Color Space = TLog - Egamut2
# LUT size
LUT_3D_SIZE 9
0.021066 0.021066 0.021066
0.125922 0.020796 0.028879
0.250821 0.023330 0.015513
0.376071 0.070890 0.018861
0.477228 0.223200 0.116807
0.556230 0.372289 0.261984
0.637518 0.500456 0.394741
0.741465 0.625462 0.527858
0.859336 0.750310 0.656482
0.031895 0.106351 0.031858
0.127085 0.127413 0.023902
0.252258 0.132537 0.015102
0.376546 0.155701 0.018784
0.477380 0.242026 0.117930
0.556316 0.374880 0.262493
0.637574 0.500895 0.394916
0.741487 0.625558 0.527904
0.859342 0.750333 0.656493
0.024471 0.233748 0.022440
0.120609 0.240145 0.026214
0.249054 0.248365 0.020825
0.377912 0.256015 0.018077
0.477875 0.285204 0.121210
0.556593 0.382785 0.264112
0.637754 0.502299 0.395476
0.741557 0.625865 0.528054
0.859363 0.750408 0.656531
0.062127 0.362247 0.026042
0.143597 0.363741 0.034430
0.245716 0.367911 0.056509
0.376187 0.374925 0.063763
0.479717 0.368636 0.134044
0.557670 0.408427 0.270114
0.638447 0.507568 0.397615
0.741828 0.627048 0.528631
0.859443 0.750699 0.656678
0.236815 0.468846 0.123954
0.252447 0.469139 0.131204
0.290205 0.470064 0.151067
0.368513 0.473376 0.198988
0.481853 0.480313 0.235568
0.561756 0.470937 0.292492
0.641095 0.525873 0.405522
0.742870 0.631526 0.530834
0.859754 0.751820 0.657245
0.398120 0.553941 0.290122
0.400096 0.553996 0.291661
0.406185 0.554174 0.296440
0.426495 0.554890 0.312688
0.478516 0.558137 0.353570
0.570029 0.569222 0.386751
0.650553 0.577383 0.432858
0.746803 0.647500 0.538939
0.860946 0.756073 0.659407
0.512868 0.626785 0.425416
0.513213 0.626827 0.425720
0.514316 0.626964 0.426692
0.518476 0.627497 0.430359
0.533122 0.629611 0.443219
0.575806 0.638489 0.477880
0.666274 0.666131 0.513800
0.760103 0.695111 0.566027
0.865420 0.771381 0.667366
0.619369 0.716310 0.538218
0.619455 0.716335 0.538299
0.619730 0.716416 0.538560
0.620792 0.716727 0.539567
0.624817 0.717926 0.543377
0.639259 0.722464 0.556864
0.683193 0.738807 0.594049
0.779703 0.779737 0.637466
0.880208 0.817833 0.693781
0.736261 0.827530 0.655744
0.736283 0.827539 0.655767
0.736356 0.827566 0.655839
0.736636 0.827670 0.656118
0.737715 0.828073 0.657190
0.741811 0.829619 0.661246
0.756573 0.835387 0.675579
0.801838 0.855191 0.714931
0.901180 0.901250 0.761796
0.033590 0.043331 0.108277
0.130985 0.018831 0.131137
0.249633 0.028320 0.134108
0.375699 0.080803 0.137701
0.477104 0.225576 0.172200
0.556220 0.372701 0.272065
0.637535 0.500540 0.396485
0.741474 0.625482 0.528208
0.859339 0.750315 0.656564
0.037539 0.123836 0.122307
0.130544 0.130544 0.130544
0.252754 0.133390 0.130279
0.376319 0.159028 0.136645
0.477267 0.243888 0.172657
0.556306 0.375278 0.272514
0.637591 0.500978 0.396656
0.741496 0.625578 0.528254
0.859345 0.750338 0.656575
0.031762 0.239341 0.119901
0.125070 0.245194 0.123276
0.251695 0.250470 0.126529
0.378077 0.256533 0.132817
0.477792 0.286226 0.173966
0.556585 0.383144 0.273943
0.637770 0.502380 0.397206
0.741566 0.625885 0.528403
0.859366 0.750413 0.656613
0.072068 0.363789 0.123014
0.148485 0.365190 0.128342
0.247426 0.369073 0.141971
0.376872 0.375460 0.150059
0.479732 0.368883 0.179631
0.557668 0.408680 0.279264
0.638463 0.507645 0.399306
0.741837 0.627068 0.528978
0.859446 0.750704 0.656760
0.239317 0.469184 0.166762
0.254577 0.469470 0.171484
0.291645 0.470370 0.185096
0.369103 0.473603 0.221695
0.482017 0.480458 0.252405
0.561776 0.471040 0.299477
0.641111 0.525935 0.407076
0.742879 0.631545 0.531174
0.859757 0.751825 0.657326
0.398557 0.554015 0.296030
0.400524 0.554069 0.297479
0.406586 0.554246 0.301990
0.426816 0.554958 0.317435
0.478692 0.558187 0.356876
0.570095 0.569284 0.389197
0.650575 0.577422 0.434012
0.746812 0.647516 0.539254
0.860949 0.756078 0.659487
0.512979 0.626833 0.426255
0.513323 0.626876 0.426557
0.514425 0.627012 0.427522
0.518582 0.627545 0.431164
0.533218 0.629658 0.443947
0.575877 0.638529 0.478462
0.666312 0.666167 0.514275
0.760113 0.695124 0.566268
0.865422 0.771385 0.667440
0.619407 0.716337 0.538401
0.619493 0.716362 0.538482
0.619768 0.716442 0.538743
0.620829 0.716754 0.539749
0.624854 0.717952 0.543554
0.639293 0.722489 0.557027
0.683220 0.738827 0.594187
0.779716 0.779750 0.637579
0.880211 0.817837 0.693839
0.736272 0.827539 0.655791
0.736295 0.827547 0.655813
0.736367 0.827574 0.655885
0.736647 0.827679 0.656164
0.737726 0.828082 0.657236
0.741822 0.829628 0.661291
0.756583 0.835395 0.675621
0.801845 0.855197 0.714966
0.901184 0.901254 0.761825
0.051005 0.101552 0.229990
0.138012 0.092570 0.236815
0.251843 0.011074 0.252794
0.374535 0.094519 0.258300
0.476715 0.232498 0.255867
0.556192 0.374018 0.298763
0.637589 0.500808 0.401903
0.741503 0.625547 0.529329
0.859348 0.750331 0.656827
0.066448 0.155364 0.234779
0.143692 0.156732 0.239634
0.252697 0.125174 0.253533
0.375419 0.164305 0.257327
0.476907 0.249400 0.255834
0.556280 0.376552 0.299080
0.637645 0.501245 0.402065
0.741525 0.625642 0.529374
0.859355 0.750354 0.656839
0.088075 0.243213 0.242527
0.155908 0.245709 0.246498
0.251878 0.251878 0.251878
0.378029 0.257810 0.253430
0.477526 0.289355 0.255655
0.556564 0.384294 0.300090
0.637824 0.502643 0.402583
0.741595 0.625949 0.529522
0.859375 0.750430 0.656877
0.104482 0.367421 0.239101
0.163383 0.368842 0.240446
0.252421 0.372343 0.245006
0.378549 0.376985 0.252808
0.479762 0.369707 0.255343
0.557665 0.409495 0.303892
0.638517 0.507893 0.404566
0.741866 0.627132 0.530091
0.859456 0.750721 0.657023
0.246787 0.470248 0.239828
0.260990 0.470511 0.242115
0.296047 0.471340 0.249078
0.370961 0.474313 0.270960
0.482525 0.480921 0.292350
0.561836 0.471373 0.319031
0.641163 0.526137 0.411922
0.742907 0.631606 0.532263
0.859766 0.751841 0.657588
0.399948 0.554253 0.312847
0.401884 0.554306 0.314070
0.407859 0.554480 0.317899
0.427839 0.555175 0.331250
0.479257 0.558348 0.366784
0.570306 0.569481 0.396688
0.650644 0.577547 0.437645
0.746838 0.647569 0.540261
0.860958 0.756094 0.659744
0.513334 0.626990 0.428912
0.513677 0.627032 0.429207
0.514776 0.627169 0.430151
0.518922 0.627700 0.433715
0.533525 0.629808 0.446255
0.576107 0.638658 0.480318
0.666434 0.666283 0.515792
0.760144 0.695165 0.567042
0.865431 0.771399 0.667679
0.619529 0.716423 0.538990
0.619615 0.716448 0.539071
0.619890 0.716528 0.539331
0.620950 0.716839 0.540333
0.624972 0.718036 0.544124
0.639403 0.722568 0.557553
0.683305 0.738890 0.594630
0.779760 0.779792 0.637944
0.880220 0.817848 0.694027
0.736308 0.827568 0.655941
0.736330 0.827576 0.655963
0.736403 0.827603 0.656035
0.736683 0.827707 0.656313
0.737761 0.828110 0.657385
0.741857 0.829655 0.661436
0.756615 0.835421 0.675755
0.801871 0.855217 0.715079
0.901197 0.901266 0.761918
0.133347 0.209636 0.359524
0.181689 0.208692 0.360981
0.261302 0.198475 0.365965
0.375732 0.104176 0.379189
0.475400 0.251750 0.369414
0.556134 0.378941 0.362393
0.637805 0.501847 0.420440
0.741617 0.625797 0.533554
0.859385 0.750394 0.657843
0.142214 0.231301 0.360680
0.186687 0.231033 0.362052
0.262687 0.226201 0.366565
0.376074 0.170175 0.379420
0.475651 0.265450 0.369229
0.556228 0.381324 0.362510
0.637861 0.502279 0.420572
0.741639 0.625892 0.533598
0.859391 0.750418 0.657854
0.164849 0.279596 0.364060
0.200867 0.280078 0.365272
0.267661 0.281461 0.368565
0.377020 0.261545 0.379924
0.476462 0.299538 0.368557
0.556528 0.388627 0.362885
0.638040 0.503662 0.420997
0.741709 0.626199 0.533740
0.859412 0.750493 0.657892
0.203949 0.371491 0.369558
0.229724 0.372024 0.370705
0.284195 0.373696 0.373684
0.379473 0.379473 0.379473
0.479474 0.373244 0.365425
0.557687 0.412632 0.364315
0.638731 0.508854 0.422623
0.741979 0.627378 0.534286
0.859492 0.750784 0.658037
0.271276 0.473651 0.347958
0.282279 0.473889 0.348650
0.310988 0.474615 0.350858
0.377826 0.476835 0.359924
0.484207 0.482598 0.373227
0.562040 0.472690 0.370733
0.641371 0.526922 0.428707
0.743018 0.631843 0.536373
0.859802 0.751904 0.658596
0.405058 0.555185 0.358787
0.406892 0.555234 0.359563
0.412561 0.555393 0.362016
0.431644 0.556034 0.370905
0.481421 0.558979 0.397351
0.571114 0.570239 0.421209
0.650904 0.578028 0.450568
0.746939 0.647773 0.544069
0.860993 0.756154 0.660733
0.514696 0.627598 0.438560
0.515036 0.627640 0.438832
0.516124 0.627776 0.439702
0.520229 0.628302 0.442997
0.534706 0.630391 0.454698
0.576991 0.639159 0.487184
0.666904 0.666729 0.521468
0.760264 0.695325 0.569983
0.865462 0.771452 0.668598
0.620001 0.716756 0.541241
0.620086 0.716780 0.541321
0.620361 0.716861 0.541577
0.621418 0.717170 0.542564
0.625430 0.718362 0.546302
0.639826 0.722874 0.559565
0.683636 0.739134 0.596328
0.779928 0.779954 0.639344
0.880257 0.817894 0.694748
0.736447 0.827678 0.656519
0.736469 0.827686 0.656542
0.736541 0.827713 0.656613
0.736821 0.827817 0.656891
0.737899 0.828219 0.657958
0.741991 0.829762 0.661996
0.756739 0.835520 0.676272
0.801968 0.855293 0.715518
0.901244 0.901312 0.762275
0.235578 0.317210 0.470592
0.251934 0.317001 0.470916
0.290904 0.316377 0.471921
0.370670 0.311276 0.475512
0.476852 0.299691 0.485627
0.556556 0.396679 0.466183
0.638743 0.505881 0.470804
0.742067 0.626770 0.548429
0.859526 0.750640 0.661682
0.238349 0.323595 0.470827
0.254215 0.323425 0.471149
0.292300 0.322944 0.472142
0.371074 0.318875 0.475660
0.477012 0.308500 0.485689
0.556652 0.398629 0.466175
0.638797 0.506295 0.470878
0.742089 0.626865 0.548467
0.859532 0.750663 0.661694
0.246720 0.341669 0.471565
0.261187 0.341587 0.471878
0.296678 0.341428 0.472836
0.372396 0.339757 0.476132
0.477528 0.332321 0.485877
0.556964 0.404658 0.466148
0.638973 0.507620 0.471119
0.742158 0.627168 0.548589
0.859553 0.750738 0.661730
0.273345 0.390555 0.474030
0.284182 0.390599 0.474334
0.312324 0.390831 0.475223
0.377954 0.392483 0.477915
0.479536 0.391123 0.486478
0.558176 0.424968 0.465992
0.639653 0.512601 0.472044
0.742425 0.628338 0.549062
0.859633 0.751029 0.661870
0.333686 0.480428 0.475121
0.339535 0.480524 0.475472
0.356253 0.480840 0.476547
0.402352 0.482131 0.480031
0.487754 0.487754 0.487754
0.562829 0.478466 0.465218
0.642252 0.530008 0.475556
0.743454 0.632764 0.550872
0.859942 0.752146 0.662410
0.421375 0.558920 0.444685
0.422934 0.558958 0.445014
0.427786 0.559080 0.446068
0.444434 0.559558 0.450071
0.489426 0.561729 0.464466
0.574128 0.573065 0.482020
0.651788 0.579831 0.489008
0.747339 0.648568 0.557587
0.861129 0.756389 0.664473
0.519793 0.629981 0.468871
0.520121 0.630021 0.469084
0.521171 0.630152 0.469766
0.525133 0.630660 0.472363
0.539142 0.632669 0.481785
0.580357 0.641096 0.509905
0.668689 0.668421 0.540943
0.760712 0.695933 0.580628
0.865585 0.771658 0.672082
0.621807 0.718034 0.549546
0.621892 0.718059 0.549622
0.622163 0.718137 0.549865
0.623210 0.718442 0.550801
0.627182 0.719612 0.554348
0.641446 0.724049 0.567015
0.684906 0.740074 0.602659
0.780576 0.780577 0.644607
0.880398 0.818069 0.697494
0.736982 0.828102 0.658733
0.737004 0.828111 0.658755
0.737076 0.828137 0.658825
0.737355 0.828241 0.659099
0.738429 0.828641 0.660152
0.742510 0.830176 0.664138
0.757220 0.835904 0.678255
0.802342 0.855590 0.717198
0.901429 0.901491 0.763649
0.335740 0.417334 0.565791
0.339995 0.417285 0.565872
0.352519 0.417161 0.566125
0.389480 0.417067 0.567027
0.466284 0.418762 0.569834
0.564269 0.441628 0.578659
0.643520 0.522114 0.566440
0.743933 0.630593 0.591655
0.860082 0.751597 0.675326
0.336584 0.418995 0.565833
0.340798 0.418948 0.565914
0.353210 0.418829 0.566167
0.389916 0.418749 0.567068
0.466434 0.420490 0.569868
0.564346 0.442952 0.578681
0.643568 0.522466 0.566460
0.743953 0.630684 0.591679
0.860088 0.751620 0.675336
0.339261 0.424160 0.565968
0.343345 0.424117 0.566048
0.355408 0.424012 0.566301
0.391313 0.423972 0.567200
0.466921 0.425848 0.569978
0.564595 0.447100 0.578751
0.643720 0.523591 0.566524
0.744020 0.630978 0.591759
0.860108 0.751694 0.675368
0.349042 0.441836 0.566466
0.352687 0.441807 0.566546
0.363548 0.441739 0.566798
0.396607 0.441798 0.567692
0.468813 0.444019 0.570401
0.565558 0.461612 0.579018
0.644312 0.527837 0.566769
0.744275 0.632109 0.592067
0.860187 0.751982 0.675492
0.380665 0.489668 0.568008
0.383199 0.489661 0.568096
0.390919 0.489649 0.568372
0.415838 0.489754 0.569311
0.476420 0.491978 0.571960
0.569285 0.502909 0.579995
0.646593 0.542847 0.567679
0.745260 0.636392 0.593251
0.860493 0.753091 0.675969
0.454383 0.572475 0.563303
0.455490 0.572512 0.563438
0.458974 0.572631 0.563866
0.471370 0.573102 0.565459
0.508147 0.575044 0.570755
0.583129 0.583129 0.583129
0.655242 0.587181 0.571146
0.748986 0.651713 0.597699
0.861665 0.757302 0.677792
0.536762 0.639594 0.539206
0.537060 0.639628 0.539331
0.538016 0.639737 0.539734
0.541628 0.640162 0.541281
0.554461 0.641832 0.547064
0.592499 0.648822 0.566808
0.675167 0.674497 0.594298
0.762230 0.698125 0.613754
0.866069 0.772460 0.684550
0.628505 0.722857 0.576879
0.628586 0.722879 0.576943
0.628848 0.722953 0.577148
0.629858 0.723237 0.577937
0.633689 0.724331 0.580941
0.647465 0.728483 0.591814
0.689664 0.743613 0.624094
0.783016 0.782917 0.662921
0.880928 0.818733 0.707484
0.739027 0.829730 0.666926
0.739049 0.829738 0.666947
0.739121 0.829764 0.667014
0.739397 0.829865 0.667275
0.740459 0.830257 0.668279
0.744496 0.831759 0.672079
0.759058 0.837373 0.685615
0.803779 0.856726 0.723473
0.902140 0.902177 0.768817
0.454081 0.531777 0.668225
0.455023 0.531766 0.668255
0.458000 0.531734 0.668353
0.468705 0.531651 0.668722
0.501458 0.531850 0.670008
0.573209 0.536287 0.673804
0.667910 0.566840 0.685077
0.752444 0.646419 0.681947
0.862361 0.755368 0.715954
0.454311 0.532167 0.668236
0.455251 0.532156 0.668267
0.458219 0.532124 0.668365
0.468899 0.532043 0.668733
0.501588 0.532243 0.670020
0.573261 0.536673 0.673815
0.667938 0.567110 0.685086
0.752460 0.646498 0.681955
0.862367 0.755390 0.715961
0.455049 0.533413 0.668274
0.455981 0.533402 0.668305
0.458925 0.533372 0.668403
0.469521 0.533293 0.668771
0.502008 0.533499 0.670058
0.573431 0.537907 0.673849
0.668029 0.567977 0.685114
0.752513 0.646753 0.681983
0.862387 0.755462 0.715983
0.457863 0.538085 0.668420
0.458765 0.538076 0.668451
0.461615 0.538049 0.668549
0.471900 0.537983 0.668917
0.503621 0.538208 0.670202
0.574089 0.542533 0.673981
0.668380 0.571261 0.685223
0.752716 0.647737 0.682090
0.862461 0.755742 0.716067
0.468133 0.554250 0.668963
0.468933 0.554244 0.668994
0.471468 0.554227 0.669091
0.480681 0.554193 0.669459
0.509701 0.554461 0.670746
0.576616 0.558492 0.674492
0.669729 0.582991 0.685639
0.753500 0.651469 0.682502
0.862750 0.756818 0.716393
0.500969 0.598888 0.670542
0.501520 0.598893 0.670579
0.503275 0.598909 0.670699
0.509765 0.598974 0.671139
0.531245 0.599283 0.672560
0.586283 0.602302 0.676419
0.674823 0.618161 0.687202
0.756503 0.664893 0.684045
0.863861 0.760905 0.717645
0.570944 0.672673 0.661608
0.571189 0.672699 0.661664
0.571975 0.672780 0.661841
0.574963 0.673094 0.662521
0.585778 0.674291 0.665043
0.619335 0.678682 0.673401
0.692244 0.692243 0.692244
0.767632 0.706355 0.689782
0.868046 0.775636 0.722334
0.650251 0.740091 0.646065
0.650325 0.740108 0.646106
0.650564 0.740165 0.646241
0.651482 0.740383 0.646758
0.654970 0.741224 0.648740
0.667521 0.744426 0.656081
0.705998 0.756363 0.680374
0.791644 0.791089 0.714748
0.882714 0.821090 0.738994
0.746569 0.835787 0.694171
0.746590 0.835795 0.694189
0.746659 0.835819 0.694247
0.746924 0.835912 0.694469
0.747947 0.836273 0.695326
0.751829 0.837659 0.698583
0.765848 0.842850 0.710325
0.809134 0.860970 0.744840
0.904813 0.904751 0.786873
0.581100 0.655970 0.785109
0.581318 0.655966 0.785118
0.582018 0.655956 0.785149
0.584681 0.655919 0.785268
0.594335 0.655820 0.785713
0.624524 0.655978 0.787266
0.693074 0.660630 0.791795
0.786350 0.691842 0.804396
0.872428 0.771097 0.804119
0.581158 0.656063 0.785112
0.581376 0.656059 0.785122
0.582076 0.656049 0.785153
0.584736 0.656013 0.785271
0.594385 0.655914 0.785717
0.624559 0.656072 0.787269
0.693089 0.660723 0.791798
0.786358 0.691907 0.804398
0.872433 0.771116 0.804121
0.581345 0.656363 0.785124
0.581563 0.656360 0.785133
0.582261 0.656349 0.785164
0.584916 0.656313 0.785283
0.594545 0.656215 0.785728
0.624671 0.656376 0.787280
0.693137 0.661021 0.791808
0.786384 0.692115 0.804407
0.872448 0.771180 0.804129
0.582067 0.657516 0.785168
0.582283 0.657513 0.785177
0.582975 0.657503 0.785208
0.585609 0.657468 0.785327
0.595165 0.657374 0.785772
0.625104 0.657543 0.787323
0.693325 0.662167 0.791846
0.786485 0.692920 0.804440
0.872505 0.771425 0.804161
0.584818 0.661851 0.785337
0.585027 0.661849 0.785346
0.585697 0.661840 0.785377
0.588250 0.661809 0.785495
0.597530 0.661731 0.785939
0.626766 0.661928 0.787487
0.694049 0.666472 0.791993
0.786876 0.695971 0.804566
0.872727 0.772371 0.804284
0.594864 0.676975 0.785966
0.595050 0.676973 0.785975
0.595647 0.676968 0.786006
0.597924 0.676950 0.786123
0.606256 0.676913 0.786563
0.633009 0.677182 0.788104
0.696818 0.681438 0.792562
0.788376 0.706934 0.805049
0.873583 0.775965 0.804753
0.626895 0.719452 0.787743
0.627025 0.719455 0.787755
0.627444 0.719463 0.787794
0.629048 0.719494 0.787942
0.635002 0.719613 0.788485
0.654898 0.720032 0.790186
0.707212 0.723302 0.794726
0.793987 0.740345 0.806866
0.876850 0.788959 0.806512
0.692184 0.788168 0.776492
0.692245 0.788177 0.776510
0.692442 0.788207 0.776566
0.693200 0.788324 0.776785
0.696089 0.788773 0.777620
0.706601 0.790462 0.780707
0.739682 0.796390 0.790808
0.812655 0.812655 0.812655
0.888858 0.829644 0.812997
0.770666 0.856545 0.764436
0.770686 0.856550 0.764448
0.770747 0.856568 0.764486
0.770987 0.856637 0.764634
0.771909 0.856905 0.765202
0.775414 0.857933 0.767376
0.788071 0.861810 0.775396
0.827174 0.875780 0.801563
0.914181 0.913654 0.838412
0.707154 0.781020 0.907699
0.707208 0.781020 0.907702
0.707383 0.781017 0.907710
0.708056 0.781006 0.907743
0.710617 0.780967 0.907869
0.719929 0.780860 0.908344
0.749263 0.780989 0.909996
0.816724 0.785618 0.914801
0.909564 0.816838 0.927850
0.707169 0.781044 0.907700
0.707223 0.781043 0.907703
0.707398 0.781040 0.907711
0.708070 0.781029 0.907744
0.710631 0.780990 0.907870
0.719941 0.780883 0.908345
0.749272 0.781012 0.909997
0.816728 0.785641 0.914802
0.909567 0.816854 0.927850
0.707217 0.781119 0.907703
0.707271 0.781119 0.907706
0.707445 0.781116 0.907714
0.708118 0.781105 0.907747
0.710677 0.781066 0.907873
0.719982 0.780959 0.908348
0.749301 0.781089 0.910000
0.816741 0.785717 0.914805
0.909574 0.816907 0.927853
0.707401 0.781411 0.907715
0.707455 0.781410 0.907718
0.707630 0.781407 0.907726
0.708300 0.781397 0.907759
0.710854 0.781358 0.907885
0.720142 0.781253 0.908360
0.749413 0.781385 0.910012
0.816791 0.786008 0.914815
0.909600 0.817111 0.927862
0.708114 0.782532 0.907762
0.708167 0.782532 0.907765
0.708340 0.782529 0.907773
0.709005 0.782519 0.907806
0.711539 0.782482 0.907932
0.720756 0.782380 0.908406
0.749848 0.782522 0.910057
0.816984 0.787127 0.914854
0.909705 0.817899 0.927896
0.710829 0.786753 0.907943
0.710881 0.786753 0.907945
0.711048 0.786750 0.907954
0.711693 0.786741 0.907986
0.714150 0.786709 0.908112
0.723105 0.786624 0.908584
0.751518 0.786799 0.910230
0.817727 0.791334 0.915007
0.910107 0.820889 0.928027
0.720751 0.801522 0.908614
0.720797 0.801521 0.908616
0.720946 0.801520 0.908624
0.721521 0.801515 0.908657
0.723716 0.801497 0.908781
0.731768 0.801458 0.909248
0.757785 0.801719 0.910880
0.820564 0.805995 0.915598
0.911651 0.831651 0.928531
0.752384 0.843267 0.910489
0.752417 0.843268 0.910492
0.752522 0.843271 0.910503
0.752929 0.843280 0.910544
0.754488 0.843318 0.910703
0.760283 0.843456 0.911283
0.779696 0.843913 0.913080
0.831159 0.847256 0.917851
0.917413 0.864593 0.930425
0.815985 0.910326 0.898480
0.816001 0.910329 0.898485
0.816052 0.910338 0.898501
0.816247 0.910371 0.898561
0.817000 0.910501 0.898794
0.819869 0.910997 0.899683
0.830325 0.912858 0.902963
0.863352 0.919311 0.913649
0.936432 0.936432 0.936432
