looks/Brejon_A1_TLog_EGamut2_v014_65.cube
# The Brejon Look Modification Transform
# Brejon for ACES 1.3 v014 - A pleasing, colorful and natural look for ACES 1.3
# Created by Chris Brejon - chrisbrejon.com - 2026-02-25 10:10:58
# 3 columns rgb, 274625 rows
# Width     65 65 65
# Process Color Space = TLog - Egamut2
# LUT size
LUT_3D_SIZE 9
0.058720 0.058720 0.058720
0.130230 0.058618 0.062222
0.253670 0.070942 0.057491
0.372347 0.142985 0.100778
0.472893 0.262127 0.198826
0.561698 0.386813 0.316507
0.660944 0.508779 0.437835
0.774848 0.631223 0.560633
0.896431 0.755294 0.684868
0.071839 0.090061 0.071796
0.126822 0.126972 0.060600
0.254419 0.156343 0.061341
0.372661 0.191112 0.104780
0.473038 0.274516 0.200609
0.561804 0.389058 0.317068
0.661002 0.509237 0.437997
0.774868 0.631333 0.560677
0.896437 0.755322 0.684880
0.068227 0.195577 0.066086
0.129141 0.217110 0.062922
0.248016 0.247857 0.066648
0.373757 0.268480 0.115217
0.473523 0.305871 0.205937
0.562146 0.395954 0.318840
0.661186 0.510703 0.438515
0.774930 0.631685 0.560818
0.896454 0.755411 0.684917
0.104138 0.327499 0.084644
0.152243 0.332754 0.085910
0.239933 0.346606 0.089076
0.372086 0.370973 0.130921
0.475578 0.375134 0.222368
0.563492 0.418756 0.325205
0.661898 0.516193 0.440480
0.775172 0.633041 0.561362
0.896522 0.755757 0.685060
0.228686 0.458446 0.177381
0.244656 0.459280 0.178871
0.283710 0.461801 0.183223
0.366600 0.469588 0.195420
0.481914 0.478772 0.254410
0.568818 0.476704 0.344756
0.664612 0.535132 0.447545
0.776104 0.638142 0.563427
0.896784 0.757084 0.685613
0.383119 0.576854 0.327121
0.386025 0.576954 0.327538
0.394834 0.577273 0.328839
0.422875 0.578457 0.333276
0.489034 0.582316 0.343762
0.586781 0.581204 0.385867
0.674475 0.588058 0.469229
0.779613 0.656000 0.570848
0.897790 0.762087 0.687711
0.524090 0.694896 0.475243
0.524663 0.694916 0.475326
0.526489 0.694981 0.475593
0.533244 0.695233 0.476589
0.555636 0.696219 0.479898
0.613068 0.699870 0.486353
0.702922 0.695915 0.514930
0.791914 0.707694 0.593576
0.901568 0.779675 0.695251
0.653965 0.816199 0.608693
0.654098 0.816206 0.608712
0.654528 0.816225 0.608773
0.656175 0.816300 0.609007
0.662298 0.816593 0.609876
0.682908 0.817736 0.612721
0.737614 0.821944 0.617587
0.825024 0.817512 0.641159
0.914669 0.831094 0.718320
0.780336 0.940069 0.736156
0.780369 0.940070 0.736161
0.780477 0.940076 0.736176
0.780894 0.940096 0.736234
0.782492 0.940176 0.736458
0.788440 0.940485 0.737289
0.808556 0.941692 0.739992
0.862498 0.946106 0.744375
0.949218 0.941563 0.766485
0.063104 0.061602 0.125898
0.135700 0.058941 0.136014
0.254155 0.070806 0.153102
0.372491 0.143171 0.171661
0.472959 0.262318 0.224084
0.561767 0.386886 0.321847
0.660988 0.508808 0.438937
0.774863 0.631233 0.560892
0.896436 0.755297 0.684933
0.063625 0.125216 0.123970
0.137172 0.137172 0.137172
0.255312 0.155938 0.153937
0.372856 0.191081 0.173219
0.473108 0.274666 0.225377
0.561873 0.389130 0.322372
0.661045 0.509267 0.439097
0.774883 0.631342 0.560935
0.896441 0.755325 0.684944
0.070374 0.215302 0.128160
0.136986 0.228366 0.135637
0.252358 0.252148 0.151368
0.374093 0.268358 0.177267
0.473608 0.305941 0.229271
0.562216 0.396020 0.324033
0.661229 0.510733 0.439608
0.774945 0.631695 0.561076
0.896459 0.755414 0.684981
0.109366 0.332194 0.142384
0.156768 0.336820 0.145372
0.242440 0.349199 0.152497
0.373079 0.371993 0.182592
0.475707 0.375131 0.241586
0.563563 0.418808 0.330015
0.661940 0.516222 0.441550
0.775188 0.633050 0.561619
0.896526 0.755759 0.685125
0.230641 0.459134 0.204972
0.246341 0.459938 0.206283
0.284837 0.462378 0.210049
0.366957 0.469976 0.220298
0.482077 0.478964 0.267900
0.568894 0.476738 0.348531
0.664653 0.535159 0.448535
0.776118 0.638151 0.563678
0.896788 0.757087 0.685677
0.383415 0.576907 0.333004
0.386310 0.577007 0.333400
0.395082 0.577324 0.334629
0.423025 0.578506 0.338821
0.489048 0.582372 0.348625
0.586833 0.581271 0.388421
0.674510 0.588079 0.470006
0.779627 0.656009 0.571081
0.897794 0.762090 0.687774
0.524136 0.694902 0.476374
0.524709 0.694922 0.476457
0.526533 0.694987 0.476720
0.533282 0.695240 0.477704
0.555658 0.696227 0.480971
0.613066 0.699886 0.487316
0.702941 0.695939 0.515482
0.791926 0.707702 0.593760
0.901572 0.779678 0.695309
0.653975 0.816202 0.608949
0.654108 0.816208 0.608968
0.654538 0.816227 0.609029
0.656184 0.816303 0.609263
0.662306 0.816595 0.610130
0.682913 0.817739 0.612967
0.737613 0.821949 0.617811
0.825030 0.817519 0.641293
0.914672 0.831096 0.718366
0.780338 0.940069 0.736220
0.780372 0.940071 0.736224
0.780480 0.940076 0.736240
0.780897 0.940097 0.736298
0.782494 0.940176 0.736522
0.788442 0.940486 0.737352
0.808557 0.941693 0.740053
0.862498 0.946107 0.744431
0.949219 0.941565 0.766519
0.058620 0.081261 0.252072
0.152167 0.070692 0.254674
0.255211 0.086949 0.256004
0.372923 0.146676 0.264036
0.473204 0.263014 0.276805
0.561995 0.387120 0.337235
0.661127 0.508903 0.442407
0.774912 0.631264 0.561721
0.896450 0.755306 0.685142
0.067384 0.160496 0.251619
0.154290 0.157481 0.254859
0.256356 0.161595 0.256744
0.373422 0.192607 0.264361
0.473366 0.275222 0.277420
0.562102 0.389358 0.337669
0.661185 0.509362 0.442561
0.774932 0.631373 0.561765
0.896455 0.755333 0.685153
0.091310 0.245832 0.243450
0.160266 0.250595 0.249520
0.258463 0.258463 0.258463
0.375086 0.268342 0.264875
0.473908 0.306221 0.279278
0.562446 0.396233 0.339042
0.661369 0.510827 0.443053
0.774995 0.631726 0.561904
0.896473 0.755423 0.685190
0.128519 0.344265 0.236642
0.171798 0.347327 0.239681
0.250015 0.355921 0.246804
0.375715 0.374765 0.264217
0.476137 0.375140 0.285265
0.563799 0.418976 0.344021
0.662078 0.516315 0.444923
0.775236 0.633081 0.562442
0.896540 0.755768 0.685333
0.236783 0.461184 0.261949
0.251655 0.461900 0.262992
0.288445 0.464091 0.265934
0.368052 0.471140 0.273158
0.482590 0.479574 0.301522
0.569141 0.476846 0.359753
0.664785 0.535244 0.451658
0.776166 0.638182 0.564485
0.896802 0.757096 0.685884
0.384364 0.577075 0.349762
0.387222 0.577172 0.350108
0.395882 0.577485 0.351169
0.423509 0.578660 0.354730
0.489091 0.582553 0.362770
0.587002 0.581486 0.396215
0.674624 0.588147 0.472470
0.779672 0.656038 0.571828
0.897808 0.762098 0.687977
0.524283 0.694922 0.479926
0.524855 0.694942 0.480007
0.526674 0.695007 0.480262
0.533404 0.695261 0.481208
0.555727 0.696254 0.484347
0.613059 0.699939 0.490354
0.703001 0.696016 0.517241
0.791962 0.707725 0.594351
0.901585 0.779686 0.695497
0.654006 0.816209 0.609773
0.654140 0.816215 0.609792
0.654570 0.816234 0.609852
0.656215 0.816310 0.610084
0.662332 0.816603 0.610943
0.682928 0.817748 0.613754
0.737611 0.821965 0.618530
0.825047 0.817541 0.641725
0.914682 0.831103 0.718515
0.780346 0.940071 0.736425
0.780380 0.940073 0.736430
0.780488 0.940078 0.736445
0.780904 0.940099 0.736503
0.782501 0.940179 0.736726
0.788448 0.940488 0.737555
0.808561 0.941695 0.740250
0.862497 0.946112 0.744612
0.949224 0.941571 0.766629
0.106675 0.164495 0.371263
0.172589 0.157777 0.372363
0.262893 0.145960 0.374625
0.374810 0.187489 0.376200
0.474397 0.268071 0.368270
0.562957 0.388023 0.380514
0.661675 0.509265 0.454788
0.775103 0.631383 0.564871
0.896503 0.755339 0.685947
0.114537 0.205505 0.371255
0.176073 0.201579 0.372354
0.263749 0.193963 0.374799
0.375290 0.218989 0.376469
0.474590 0.279496 0.368373
0.563064 0.390242 0.380758
0.661731 0.509723 0.454922
0.775122 0.631493 0.564913
0.896509 0.755367 0.685959
0.137492 0.275764 0.371075
0.187522 0.274699 0.372338
0.266490 0.271330 0.375287
0.376903 0.278870 0.377535
0.475230 0.308882 0.368650
0.563412 0.397061 0.381532
0.661914 0.511186 0.455351
0.775185 0.631845 0.565048
0.896526 0.755456 0.685996
0.189114 0.369784 0.366609
0.218966 0.370819 0.368225
0.278500 0.373713 0.372546
0.380106 0.380106 0.380106
0.477791 0.375769 0.369162
0.564774 0.419645 0.384370
0.662617 0.516668 0.456982
0.775426 0.633200 0.565569
0.896594 0.755801 0.686138
0.259411 0.467311 0.360051
0.271384 0.467787 0.360720
0.302134 0.469279 0.362643
0.372295 0.474628 0.366983
0.484345 0.481785 0.374424
0.570128 0.477289 0.393755
0.665301 0.535574 0.462892
0.776353 0.638299 0.567548
0.896855 0.757129 0.686684
0.387954 0.577689 0.395527
0.390674 0.577780 0.395771
0.398942 0.578071 0.396523
0.425437 0.579205 0.398932
0.489257 0.583221 0.403338
0.587650 0.582321 0.421503
0.675068 0.588411 0.481458
0.779847 0.656149 0.574669
0.897860 0.762131 0.688760
0.524854 0.695002 0.492494
0.525420 0.695022 0.492567
0.527222 0.695087 0.492796
0.533885 0.695343 0.493635
0.556000 0.696358 0.496362
0.613033 0.700143 0.501261
0.703237 0.696312 0.523768
0.792103 0.707815 0.596604
0.901633 0.779717 0.696223
0.654130 0.816237 0.612893
0.654263 0.816243 0.612911
0.654692 0.816263 0.612970
0.656333 0.816338 0.613195
0.662435 0.816633 0.614027
0.682986 0.817784 0.616742
0.737603 0.822027 0.621262
0.825116 0.817627 0.643381
0.914721 0.831128 0.719090
0.780376 0.940080 0.737217
0.780410 0.940081 0.737221
0.780518 0.940087 0.737236
0.780934 0.940107 0.737294
0.782530 0.940187 0.737515
0.788473 0.940497 0.738337
0.808575 0.941705 0.741009
0.862495 0.946128 0.745308
0.949242 0.941593 0.767054
0.205128 0.281315 0.476492
0.228761 0.279395 0.476839
0.279247 0.273814 0.477860
0.369227 0.263337 0.480385
0.479886 0.314570 0.481876
0.567404 0.392947 0.466099
0.663866 0.510610 0.492027
0.775844 0.631838 0.576221
0.896711 0.755467 0.689008
0.208260 0.292518 0.476506
0.231126 0.290853 0.476852
0.280490 0.286008 0.477876
0.369539 0.276555 0.480460
0.480071 0.321640 0.481978
0.567504 0.395082 0.466158
0.663920 0.511067 0.492114
0.775863 0.631947 0.576259
0.896716 0.755495 0.689019
0.217850 0.321418 0.476553
0.238485 0.320277 0.476897
0.284457 0.316929 0.477931
0.370518 0.309572 0.480705
0.480670 0.341173 0.482324
0.567827 0.401652 0.466346
0.664095 0.512526 0.492394
0.775925 0.632299 0.576379
0.896734 0.755584 0.689055
0.249108 0.386586 0.476734
0.263808 0.386228 0.477091
0.299383 0.385017 0.478167
0.374118 0.381096 0.481571
0.482984 0.391157 0.483875
0.569093 0.423490 0.467016
0.664771 0.517990 0.493461
0.776162 0.633653 0.576843
0.896801 0.755930 0.689193
0.315180 0.480949 0.477559
0.322189 0.481077 0.477887
0.341674 0.481491 0.478903
0.392509 0.483111 0.482239
0.487491 0.487491 0.487491
0.574087 0.479776 0.469079
0.667353 0.536827 0.497368
0.777077 0.638748 0.578604
0.897062 0.757257 0.689723
0.401357 0.579747 0.479785
0.403614 0.579821 0.479924
0.410530 0.580061 0.480356
0.433230 0.581034 0.481797
0.490382 0.585226 0.483973
0.590029 0.585548 0.483713
0.676804 0.589443 0.510174
0.780526 0.656576 0.584973
0.898063 0.762258 0.691737
0.527061 0.695347 0.529193
0.527606 0.695367 0.529247
0.529343 0.695432 0.529420
0.535776 0.695689 0.530052
0.557158 0.696750 0.531986
0.612944 0.700914 0.534434
0.704140 0.697461 0.545617
0.792651 0.708161 0.604881
0.901823 0.779837 0.698986
0.654608 0.816350 0.624043
0.654740 0.816356 0.624060
0.655165 0.816375 0.624114
0.656793 0.816451 0.624320
0.662841 0.816748 0.625070
0.683218 0.817921 0.627465
0.737571 0.822266 0.631146
0.825382 0.817960 0.649541
0.914871 0.831224 0.721287
0.780493 0.940112 0.740217
0.780526 0.940114 0.740222
0.780634 0.940119 0.740236
0.781050 0.940139 0.740293
0.782642 0.940219 0.740508
0.788571 0.940531 0.741304
0.808631 0.941745 0.743889
0.862486 0.946193 0.747957
0.949314 0.941682 0.768682
0.323060 0.403563 0.579567
0.328760 0.403132 0.579691
0.345068 0.401782 0.580081
0.390124 0.397152 0.581459
0.476045 0.389563 0.584855
0.584081 0.438959 0.586416
0.672993 0.516707 0.574836
0.778759 0.633506 0.611310
0.897519 0.755955 0.700071
0.323951 0.406005 0.579582
0.329593 0.405588 0.579705
0.345751 0.404282 0.580095
0.390507 0.399798 0.581474
0.476150 0.392347 0.584890
0.584153 0.440395 0.586461
0.673036 0.517160 0.574865
0.778777 0.633615 0.611336
0.897524 0.755983 0.700081
0.326777 0.413460 0.579628
0.332236 0.413083 0.579751
0.347926 0.411903 0.580140
0.391731 0.407842 0.581523
0.476485 0.400794 0.585004
0.584383 0.444868 0.586609
0.673175 0.518604 0.574958
0.778835 0.633967 0.611419
0.897541 0.756072 0.700113
0.337079 0.437658 0.579810
0.341914 0.437391 0.579932
0.355978 0.436552 0.580320
0.396373 0.433633 0.581716
0.477735 0.427735 0.585447
0.585271 0.460281 0.587200
0.673709 0.524009 0.575311
0.779059 0.635319 0.611738
0.897608 0.756417 0.700236
0.369688 0.496034 0.580580
0.372979 0.495947 0.580695
0.382834 0.495667 0.581063
0.413198 0.494595 0.582472
0.482171 0.491325 0.587022
0.588648 0.502642 0.589698
0.675770 0.542574 0.576598
0.779923 0.640405 0.612956
0.897864 0.757744 0.700711
0.438391 0.588464 0.585572
0.439867 0.588489 0.585653
0.444465 0.588570 0.585913
0.460325 0.588910 0.586890
0.504350 0.590466 0.590201
0.595360 0.595360 0.595360
0.683569 0.594145 0.580861
0.783189 0.658180 0.617403
0.898850 0.762740 0.702514
0.535753 0.697122 0.603178
0.536226 0.697142 0.603212
0.537735 0.697206 0.603321
0.543348 0.697461 0.603726
0.562302 0.698525 0.605059
0.613174 0.703365 0.606630
0.707434 0.701858 0.603096
0.794777 0.709500 0.631838
0.902557 0.780298 0.709033
0.656466 0.816829 0.657462
0.656594 0.816835 0.657475
0.657006 0.816854 0.657517
0.658583 0.816929 0.657680
0.664449 0.817225 0.658274
0.684217 0.818441 0.660054
0.737460 0.823165 0.661833
0.826399 0.819246 0.670372
0.915453 0.831598 0.729369
0.780947 0.940239 0.750971
0.780980 0.940241 0.750976
0.781087 0.940246 0.750989
0.781499 0.940267 0.751041
0.783079 0.940347 0.751240
0.788958 0.940660 0.751963
0.808852 0.941895 0.754254
0.862454 0.946443 0.757561
0.949589 0.942026 0.774745
0.450392 0.531346 0.695956
0.451716 0.531248 0.695995
0.455864 0.530937 0.696118
0.470391 0.529767 0.696585
0.511925 0.525791 0.698233
0.595086 0.519617 0.702287
0.701516 0.565438 0.703964
0.790410 0.640545 0.693469
0.900678 0.757740 0.734554
0.450623 0.531899 0.695963
0.451943 0.531802 0.696002
0.456080 0.531493 0.696125
0.470572 0.530333 0.696592
0.512031 0.526388 0.698240
0.595117 0.520237 0.702300
0.701539 0.565766 0.703979
0.790423 0.640655 0.693479
0.900683 0.757768 0.734561
0.451362 0.533661 0.695986
0.452671 0.533567 0.696024
0.456772 0.533265 0.696148
0.471152 0.532134 0.696615
0.512371 0.528285 0.698263
0.595216 0.522208 0.702340
0.701612 0.566815 0.704029
0.790466 0.641006 0.693509
0.900699 0.757857 0.734583
0.454175 0.540180 0.696074
0.455441 0.540094 0.696112
0.459410 0.539821 0.696235
0.473369 0.538792 0.696701
0.513678 0.535283 0.698351
0.595595 0.529473 0.702499
0.701893 0.570762 0.704225
0.790634 0.642357 0.693625
0.900762 0.758202 0.734669
0.464398 0.561790 0.696410
0.465517 0.561729 0.696448
0.469036 0.561533 0.696570
0.481539 0.560793 0.697032
0.518599 0.558240 0.698693
0.597001 0.553259 0.703113
0.702977 0.584546 0.704997
0.791280 0.647426 0.694068
0.901003 0.759527 0.735002
0.496466 0.616209 0.697732
0.497227 0.616190 0.697767
0.499639 0.616129 0.697878
0.508412 0.615896 0.698309
0.536090 0.615009 0.699962
0.601913 0.612337 0.705260
0.707036 0.623737 0.708145
0.793753 0.665035 0.695686
0.901930 0.764516 0.736268
0.564134 0.707060 0.704638
0.564477 0.707067 0.704660
0.565576 0.707093 0.704732
0.569710 0.707194 0.705009
0.584137 0.707609 0.706051
0.625423 0.709465 0.709599
0.715103 0.715103 0.715103
0.802913 0.715286 0.701059
0.905424 0.782021 0.740888
0.663851 0.819144 0.727672
0.663964 0.819149 0.727681
0.664328 0.819168 0.727709
0.665724 0.819240 0.727819
0.670935 0.819527 0.728226
0.688704 0.820714 0.729561
0.737555 0.826043 0.731033
0.830090 0.824134 0.726416
0.917705 0.833037 0.755840
0.782712 0.940774 0.783452
0.782745 0.940776 0.783455
0.782848 0.940781 0.783466
0.783248 0.940801 0.783508
0.784782 0.940880 0.783667
0.790491 0.941192 0.784248
0.809811 0.942466 0.785981
0.862341 0.947386 0.787553
0.950640 0.943353 0.795303
0.577027 0.657901 0.818302
0.577353 0.657877 0.818313
0.578398 0.657801 0.818347
0.582337 0.657506 0.818478
0.596207 0.656403 0.818975
0.636395 0.652660 0.820725
0.718463 0.646882 0.825035
0.824306 0.691082 0.826784
0.913156 0.765120 0.816575
0.577086 0.658037 0.818304
0.577412 0.658013 0.818315
0.578456 0.657936 0.818349
0.582392 0.657643 0.818480
0.596254 0.656541 0.818977
0.636423 0.652806 0.820727
0.718471 0.647034 0.825038
0.824312 0.691164 0.826788
0.913159 0.765148 0.816577
0.577276 0.658472 0.818312
0.577601 0.658448 0.818322
0.578642 0.658372 0.818356
0.582570 0.658081 0.818488
0.596404 0.656986 0.818984
0.636513 0.653274 0.820735
0.718498 0.647520 0.825050
0.824332 0.691425 0.826802
0.913171 0.765237 0.816586
0.578008 0.660140 0.818340
0.578330 0.660117 0.818350
0.579363 0.660043 0.818384
0.583257 0.659758 0.818516
0.596985 0.658690 0.819012
0.636859 0.655067 0.820762
0.718601 0.649378 0.825096
0.824410 0.692432 0.826857
0.913217 0.765583 0.816618
0.580794 0.666328 0.818448
0.581105 0.666307 0.818459
0.582104 0.666239 0.818492
0.585874 0.665980 0.818623
0.599202 0.665008 0.819118
0.638190 0.661697 0.820870
0.718995 0.656247 0.825274
0.824711 0.696222 0.827070
0.913394 0.766908 0.816742
0.590909 0.687004 0.818861
0.591185 0.686989 0.818871
0.592069 0.686940 0.818904
0.595416 0.686754 0.819034
0.607361 0.686053 0.819524
0.643189 0.683637 0.821283
0.720456 0.678947 0.825960
0.825865 0.709516 0.827909
0.914077 0.771890 0.817214
0.622581 0.739964 0.820432
0.622769 0.739959 0.820441
0.623374 0.739945 0.820472
0.625679 0.739890 0.820589
0.634089 0.739676 0.821043
0.660838 0.738864 0.822783
0.725527 0.736409 0.828338
0.830166 0.747733 0.831292
0.916683 0.789248 0.818940
0.689551 0.830203 0.827967
0.689637 0.830205 0.827973
0.689913 0.830212 0.827992
0.690973 0.830240 0.828066
0.694968 0.830351 0.828350
0.708961 0.830803 0.829422
0.749413 0.832790 0.833068
0.838696 0.838696 0.838696
0.926277 0.839166 0.824669
0.789737 0.943291 0.852557
0.789765 0.943293 0.852559
0.789858 0.943298 0.852566
0.790213 0.943317 0.852595
0.791579 0.943392 0.852705
0.796680 0.943689 0.853113
0.814120 0.944918 0.854450
0.862405 0.950401 0.855894
0.954449 0.948386 0.850959
0.702560 0.783391 0.942572
0.702643 0.783385 0.942575
0.702911 0.783366 0.942584
0.703939 0.783290 0.942619
0.707818 0.783001 0.942752
0.721498 0.781916 0.943258
0.761293 0.778240 0.945038
0.843038 0.772563 0.949424
0.948712 0.816270 0.951198
0.702575 0.783426 0.942573
0.702658 0.783420 0.942576
0.702926 0.783400 0.942585
0.703954 0.783325 0.942619
0.707832 0.783036 0.942753
0.721510 0.781952 0.943258
0.761300 0.778277 0.945039
0.843040 0.772602 0.949425
0.948714 0.816291 0.951199
0.702624 0.783537 0.942575
0.702707 0.783531 0.942578
0.702974 0.783511 0.942587
0.704002 0.783436 0.942621
0.707878 0.783147 0.942755
0.721549 0.782065 0.943260
0.761323 0.778396 0.945041
0.843047 0.772726 0.949428
0.948719 0.816358 0.951203
0.702814 0.783965 0.942582
0.702896 0.783959 0.942585
0.703163 0.783940 0.942594
0.704188 0.783865 0.942629
0.708056 0.783578 0.942762
0.721699 0.782503 0.943268
0.761413 0.778857 0.945048
0.843074 0.773203 0.949440
0.948740 0.816617 0.951217
0.703543 0.785606 0.942612
0.703625 0.785600 0.942615
0.703890 0.785581 0.942624
0.704906 0.785508 0.942659
0.708741 0.785229 0.942792
0.722280 0.784179 0.943297
0.761761 0.780620 0.945078
0.843178 0.775030 0.949488
0.948819 0.817612 0.951273
0.706319 0.791699 0.942727
0.706398 0.791693 0.942730
0.706654 0.791676 0.942739
0.707637 0.791610 0.942773
0.711350 0.791355 0.942906
0.724495 0.790399 0.943410
0.763098 0.787145 0.945191
0.843576 0.781788 0.949672
0.949125 0.821360 0.951492
0.716394 0.812106 0.943164
0.716465 0.812102 0.943167
0.716691 0.812090 0.943175
0.717562 0.812042 0.943210
0.720860 0.811859 0.943341
0.732646 0.811170 0.943839
0.768118 0.808794 0.945627
0.845052 0.804181 0.950379
0.950300 0.834522 0.952350
0.747934 0.864646 0.944813
0.747983 0.864645 0.944815
0.748137 0.864641 0.944823
0.748734 0.864627 0.944854
0.751009 0.864573 0.944973
0.759317 0.864365 0.945433
0.785803 0.863575 0.947198
0.850168 0.861182 0.952826
0.954670 0.872476 0.955800
0.814681 0.954709 0.952527
0.814703 0.954710 0.952528
0.814774 0.954712 0.952533
0.815047 0.954719 0.952553
0.816098 0.954748 0.952627
0.820054 0.954861 0.952914
0.833931 0.955324 0.953994
0.874155 0.957350 0.957669
0.963330 0.963330 0.963330
