looks/Brejon_A1_TLog_EGamut2_v005_65.cube
# The Brejon Look Modification Transform
# Brejon for ACES 1.3 v005 - A pleasing, colorful and natural look for ACES 1.3
# Created by Chris Brejon - chrisbrejon.com - 2025-11-29 22:25:13
# 3 columns rgb, 274625 rows
# Width     65 65 65
# Process Color Space = TLog - Egamut2
# LUT size
LUT_3D_SIZE 9
0.021066 0.021066 0.021066
0.125814 0.021166 0.028712
0.250578 0.023280 0.017087
0.375425 0.082228 0.025017
0.476302 0.237893 0.130961
0.555792 0.377643 0.284623
0.638553 0.498067 0.420268
0.744033 0.620058 0.550120
0.862617 0.744059 0.676846
0.035057 0.095551 0.034640
0.130624 0.130021 0.018836
0.251804 0.134487 0.014266
0.375880 0.161349 0.023402
0.476441 0.254414 0.132277
0.555873 0.380098 0.285227
0.638606 0.498512 0.420437
0.744053 0.620158 0.550163
0.862622 0.744083 0.676857
0.031494 0.222925 0.023674
0.125587 0.237088 0.014969
0.253223 0.252168 -0.003485
0.377013 0.259883 0.015993
0.476887 0.293754 0.135971
0.556133 0.387613 0.287133
0.638775 0.499936 0.420978
0.744118 0.620479 0.550302
0.862642 0.744163 0.676892
0.083454 0.355505 0.011826
0.153163 0.358907 0.006889
0.252101 0.367799 -0.019728
0.379752 0.378662 -0.057975
0.478460 0.373707 0.146831
0.557139 0.412220 0.293965
0.639427 0.505279 0.423034
0.744370 0.621715 0.550839
0.862715 0.744469 0.677030
0.232383 0.466856 0.056105
0.248489 0.467487 0.054964
0.287527 0.469430 0.047957
0.369245 0.475756 -0.019357
0.483725 0.483178 0.039215
0.560875 0.473406 0.314996
0.641899 0.523827 0.430427
0.745335 0.626386 0.552876
0.863001 0.745651 0.677559
0.370283 0.554427 0.248598
0.372876 0.554568 0.249052
0.380798 0.555023 0.250410
0.406580 0.556750 0.254091
0.469868 0.562848 0.248971
0.571535 0.572082 0.315734
0.650659 0.576159 0.452801
0.748952 0.642987 0.560207
0.864094 0.750127 0.679567
0.487119 0.640495 0.397781
0.487636 0.640568 0.397946
0.489286 0.640804 0.398475
0.495453 0.641710 0.400446
0.516540 0.645106 0.406936
0.573266 0.656167 0.417540
0.671708 0.673049 0.466053
0.761281 0.692509 0.582261
0.868173 0.766164 0.686801
0.605267 0.746582 0.527242
0.605395 0.746612 0.527294
0.605808 0.746710 0.527462
0.607395 0.747086 0.528108
0.613353 0.748520 0.530527
0.633989 0.753719 0.538639
0.690107 0.768778 0.553854
0.788275 0.789922 0.597624
0.881864 0.814903 0.708580
0.727440 0.865111 0.652711
0.727474 0.865120 0.652725
0.727581 0.865150 0.652773
0.727997 0.865266 0.652956
0.729594 0.865711 0.653659
0.735594 0.867399 0.656290
0.756397 0.873433 0.665107
0.812699 0.890081 0.681798
0.910891 0.912626 0.724337
0.028702 0.038774 0.120396
0.127257 0.039016 0.127257
0.248163 0.035404 0.135006
0.375050 0.088946 0.141939
0.476235 0.238925 0.180267
0.555808 0.377864 0.292444
0.638579 0.498139 0.421558
0.744044 0.620081 0.550391
0.862620 0.744065 0.676911
0.032072 0.120699 0.117509
0.130544 0.130544 0.130544
0.252372 0.133083 0.131857
0.375706 0.162661 0.140545
0.476385 0.255171 0.180964
0.555889 0.380310 0.292999
0.638631 0.498584 0.421724
0.744064 0.620180 0.550434
0.862626 0.744089 0.676922
0.031722 0.227816 0.115911
0.124405 0.239910 0.118812
0.254139 0.253411 0.116703
0.377346 0.259193 0.133901
0.476865 0.294042 0.182902
0.556151 0.387800 0.294751
0.638801 0.500007 0.422260
0.744129 0.620501 0.550573
0.862645 0.744169 0.676958
0.086081 0.356672 0.116024
0.154316 0.359873 0.115296
0.252147 0.368428 0.103127
0.379963 0.379029 0.078910
0.478533 0.373621 0.188571
0.557162 0.412340 0.301050
0.639452 0.505346 0.424291
0.744381 0.621737 0.551108
0.862719 0.744475 0.677095
0.233795 0.467084 0.134737
0.249657 0.467704 0.134518
0.288238 0.469615 0.131953
0.369412 0.475878 0.090864
0.483800 0.483314 0.131614
0.560913 0.473442 0.320674
0.641924 0.523880 0.431602
0.745346 0.626407 0.553141
0.863004 0.745657 0.677624
0.370685 0.554489 0.259016
0.373266 0.554630 0.259440
0.381153 0.555084 0.260709
0.406842 0.556805 0.264228
0.469979 0.562894 0.260291
0.571579 0.572141 0.321436
0.650685 0.576189 0.453766
0.748962 0.643004 0.560457
0.864097 0.750133 0.679631
0.487223 0.640520 0.399251
0.487739 0.640593 0.399415
0.489387 0.640829 0.399939
0.495548 0.641736 0.401896
0.516620 0.645131 0.408349
0.573317 0.656195 0.418968
0.671732 0.673076 0.466954
0.761291 0.692520 0.582473
0.868176 0.766168 0.686862
0.605292 0.746589 0.527539
0.605421 0.746620 0.527592
0.605834 0.746717 0.527760
0.607420 0.747093 0.528405
0.613377 0.748527 0.530821
0.634010 0.753726 0.538927
0.690123 0.768788 0.554146
0.788283 0.789930 0.597824
0.881867 0.814906 0.708632
0.727447 0.865113 0.652782
0.727480 0.865122 0.652797
0.727588 0.865152 0.652844
0.728003 0.865268 0.653027
0.729600 0.865713 0.653730
0.735600 0.867401 0.656360
0.756402 0.873435 0.665176
0.812703 0.890083 0.681869
0.910893 0.912628 0.724387
0.037408 0.099143 0.254387
0.152049 0.080242 0.259951
0.247398 0.095472 0.247398
0.373357 0.120211 0.257463
0.476013 0.242897 0.258489
0.555860 0.378611 0.313922
0.638662 0.498375 0.425600
0.744080 0.620153 0.551260
0.862631 0.744084 0.677122
0.049272 0.163668 0.248168
0.150151 0.160510 0.256867
0.248902 0.159377 0.248902
0.374464 0.173856 0.257141
0.476196 0.258181 0.258705
0.555943 0.381028 0.314361
0.638714 0.498819 0.425761
0.744101 0.620252 0.551303
0.862637 0.744109 0.677133
0.059837 0.242380 0.237041
0.143032 0.246621 0.243546
0.251878 0.251878 0.251878
0.377494 0.258873 0.254500
0.476776 0.295367 0.259249
0.556209 0.388436 0.315750
0.638883 0.500238 0.426276
0.744166 0.620573 0.551441
0.862656 0.744188 0.677168
0.098541 0.359770 0.236205
0.159406 0.362438 0.237995
0.252125 0.369841 0.240093
0.380364 0.379964 0.239962
0.478756 0.373416 0.260312
0.557237 0.412753 0.320785
0.639535 0.505563 0.428235
0.744417 0.621807 0.551973
0.862730 0.744495 0.677305
0.238317 0.467800 0.232723
0.253439 0.468380 0.233091
0.290575 0.470186 0.233498
0.369972 0.476229 0.225798
0.484030 0.483737 0.238140
0.561037 0.473556 0.336888
0.642006 0.524053 0.435294
0.745381 0.626474 0.553992
0.863015 0.745676 0.677833
0.371980 0.554688 0.286332
0.374524 0.554827 0.286694
0.382300 0.555275 0.287778
0.407688 0.556978 0.290936
0.470342 0.563038 0.289565
0.571720 0.572330 0.337772
0.650769 0.576284 0.456810
0.748996 0.643061 0.561259
0.864108 0.750151 0.679838
0.487555 0.640602 0.403840
0.488070 0.640675 0.404001
0.489713 0.640911 0.404512
0.495855 0.641817 0.406425
0.516876 0.645211 0.412766
0.573482 0.656284 0.423434
0.671810 0.673163 0.469803
0.761322 0.692555 0.583152
0.868186 0.766184 0.687057
0.605374 0.746612 0.528494
0.605502 0.746643 0.528546
0.605915 0.746740 0.528713
0.607500 0.747117 0.529356
0.613454 0.748550 0.531765
0.634077 0.753751 0.539851
0.690175 0.768820 0.555082
0.788309 0.789957 0.598466
0.881876 0.814916 0.708799
0.727467 0.865119 0.653012
0.727501 0.865128 0.653027
0.727608 0.865158 0.653074
0.728024 0.865274 0.653257
0.729620 0.865719 0.653959
0.735619 0.867407 0.656588
0.756420 0.873441 0.665399
0.812717 0.890092 0.682096
0.910900 0.912636 0.724547
0.105746 0.213632 0.378299
0.178675 0.206887 0.380786
0.271741 0.187958 0.382626
0.374015 0.210267 0.374015
0.475197 0.264874 0.365720
0.556091 0.381967 0.368384
0.638983 0.499318 0.439796
0.744220 0.620433 0.554555
0.862673 0.744160 0.677933
0.114224 0.239408 0.376832
0.180890 0.235131 0.379420
0.271339 0.221650 0.382189
0.374451 0.234342 0.374451
0.475447 0.276311 0.365825
0.556179 0.384267 0.368630
0.639035 0.499757 0.439938
0.744241 0.620532 0.554597
0.862679 0.744185 0.677944
0.134889 0.290358 0.372763
0.188030 0.289606 0.375302
0.270420 0.284935 0.380341
0.375699 0.286342 0.375699
0.476240 0.305993 0.366082
0.556459 0.391333 0.369411
0.639204 0.501160 0.440392
0.744305 0.620852 0.554731
0.862698 0.744264 0.677979
0.176020 0.372614 0.363731
0.209346 0.373422 0.365532
0.274314 0.375427 0.370403
0.379473 0.379473 0.379473
0.479082 0.374925 0.366069
0.557539 0.414707 0.372271
0.639855 0.506430 0.442118
0.744556 0.622083 0.555249
0.862772 0.744571 0.678115
0.257242 0.470276 0.350101
0.269601 0.470713 0.350709
0.301198 0.472103 0.352348
0.372880 0.477109 0.355107
0.484727 0.485078 0.359654
0.561507 0.474082 0.381639
0.642323 0.524746 0.448370
0.745519 0.626737 0.557216
0.863057 0.745751 0.678640
0.376956 0.555415 0.349993
0.379363 0.555547 0.350267
0.386741 0.555973 0.351107
0.410986 0.557606 0.353749
0.471780 0.563542 0.356372
0.572256 0.573045 0.383078
0.651090 0.576654 0.467730
0.749128 0.643281 0.564304
0.864149 0.750223 0.680633
0.488831 0.640907 0.419734
0.489339 0.640981 0.419882
0.490963 0.641216 0.420358
0.497036 0.642119 0.422136
0.517858 0.645509 0.428126
0.574119 0.656623 0.439001
0.672109 0.673499 0.480107
0.761443 0.692689 0.585735
0.868225 0.766245 0.687810
0.605689 0.746701 0.532100
0.605817 0.746731 0.532151
0.606229 0.746829 0.532316
0.607811 0.747205 0.532951
0.613751 0.748640 0.535329
0.634338 0.753844 0.543343
0.690377 0.768942 0.558626
0.788407 0.790064 0.600916
0.881911 0.814954 0.709445
0.727547 0.865142 0.653897
0.727580 0.865151 0.653912
0.727688 0.865181 0.653959
0.728103 0.865297 0.654141
0.729699 0.865742 0.654841
0.735694 0.867431 0.657463
0.756487 0.873466 0.666258
0.812773 0.890127 0.682972
0.910927 0.912665 0.725163
0.198722 0.331071 0.477750
0.225058 0.329230 0.478344
0.279559 0.323381 0.479940
0.372757 0.306069 0.482463
0.480395 0.331880 0.480395
0.557482 0.399676 0.460664
0.640243 0.503346 0.480607
0.744761 0.621541 0.566347
0.862836 0.744456 0.681013
0.202358 0.337675 0.477510
0.227621 0.336014 0.478106
0.280667 0.330723 0.479722
0.372849 0.314729 0.482418
0.480525 0.337801 0.480525
0.557567 0.401530 0.460785
0.640295 0.503765 0.480708
0.744781 0.621639 0.566384
0.862842 0.744480 0.681023
0.213314 0.356065 0.476775
0.235582 0.354851 0.477371
0.284289 0.350925 0.479038
0.373193 0.338223 0.482253
0.480938 0.354709 0.480938
0.557842 0.407275 0.461169
0.640462 0.505106 0.481030
0.744846 0.621955 0.566507
0.862861 0.744559 0.681058
0.247111 0.403476 0.474562
0.262375 0.403128 0.475098
0.299303 0.401929 0.476671
0.375724 0.396435 0.481219
0.482455 0.401245 0.482455
0.558913 0.426748 0.462590
0.641105 0.510148 0.482261
0.745095 0.623173 0.566980
0.862935 0.744865 0.681191
0.320606 0.481368 0.468481
0.327302 0.481468 0.468977
0.346194 0.481772 0.470525
0.397054 0.482776 0.475851
0.487754 0.487754 0.487754
0.563109 0.478697 0.466989
0.643549 0.527745 0.486759
0.746050 0.627776 0.568776
0.863219 0.746042 0.681704
0.395750 0.557674 0.448591
0.397718 0.557779 0.448826
0.403797 0.558120 0.449562
0.424207 0.559471 0.452119
0.477830 0.564831 0.458630
0.574308 0.575559 0.469451
0.652288 0.578140 0.500968
0.749635 0.644153 0.575268
0.864309 0.750502 0.683651
0.493591 0.641925 0.463799
0.494078 0.641997 0.463926
0.495634 0.642230 0.464332
0.501458 0.643126 0.465862
0.521520 0.646504 0.471151
0.576511 0.657792 0.482891
0.673245 0.674765 0.512121
0.761905 0.693205 0.595114
0.868376 0.766481 0.690672
0.606890 0.747026 0.544863
0.607017 0.747056 0.544912
0.607426 0.747154 0.545071
0.608994 0.747531 0.545680
0.614883 0.748967 0.547962
0.635329 0.754186 0.555737
0.691156 0.769408 0.571257
0.788785 0.790471 0.609869
0.882045 0.815101 0.711903
0.727853 0.865230 0.657245
0.727886 0.865239 0.657260
0.727993 0.865269 0.657307
0.728408 0.865385 0.657487
0.730000 0.865830 0.658180
0.735984 0.867520 0.660775
0.756746 0.873561 0.669511
0.812987 0.890261 0.686294
0.911032 0.912777 0.727514
0.320839 0.444248 0.555517
0.325858 0.443923 0.555693
0.340404 0.442887 0.556256
0.382020 0.439159 0.558315
0.465443 0.429929 0.564648
0.572502 0.447574 0.572502
0.645625 0.522055 0.561532
0.746839 0.626137 0.601921
0.863467 0.745622 0.692097
0.321939 0.445508 0.555486
0.326894 0.445192 0.555662
0.341269 0.444180 0.556225
0.382513 0.440540 0.558283
0.465560 0.431503 0.564635
0.572548 0.448796 0.572548
0.645669 0.522406 0.561592
0.746858 0.626231 0.601950
0.863472 0.745646 0.692106
0.325404 0.449444 0.555391
0.330165 0.449154 0.555565
0.344014 0.448221 0.556125
0.384096 0.444845 0.558183
0.465941 0.436399 0.564590
0.572695 0.452628 0.572695
0.645810 0.523527 0.561787
0.746921 0.626533 0.602045
0.863491 0.745724 0.692138
0.337774 0.463115 0.555060
0.341905 0.462906 0.555227
0.354067 0.462233 0.555764
0.390137 0.459707 0.557808
0.467478 0.453175 0.564399
0.573261 0.466136 0.573261
0.646354 0.527755 0.562532
0.747162 0.627696 0.602412
0.863564 0.746027 0.692261
0.374762 0.500949 0.554257
0.377458 0.500895 0.554412
0.385661 0.500727 0.554903
0.411951 0.500111 0.556722
0.474560 0.498215 0.563507
0.575407 0.505272 0.575407
0.648464 0.542649 0.565305
0.748088 0.632096 0.603807
0.863846 0.747190 0.692734
0.442458 0.565230 0.550394
0.443667 0.565285 0.550581
0.447470 0.565463 0.551180
0.460999 0.566172 0.553463
0.501447 0.569207 0.561761
0.583129 0.583129 0.583129
0.656619 0.586191 0.574193
0.751572 0.647795 0.608882
0.864926 0.751601 0.694532
0.509548 0.643857 0.545134
0.509965 0.643927 0.545244
0.511299 0.644150 0.545598
0.516316 0.645012 0.546947
0.533871 0.648336 0.551837
0.584293 0.660272 0.566351
0.677460 0.679202 0.584287
0.763612 0.695224 0.624597
0.868960 0.767415 0.701029
0.611264 0.748025 0.582117
0.611387 0.748056 0.582162
0.611782 0.748154 0.582307
0.613300 0.748532 0.582862
0.619008 0.749975 0.584956
0.638906 0.755251 0.592223
0.694030 0.771016 0.608856
0.790213 0.792002 0.638496
0.882560 0.815667 0.720858
0.729016 0.865549 0.669164
0.729049 0.865559 0.669178
0.729155 0.865589 0.669223
0.729567 0.865704 0.669398
0.731147 0.866150 0.670069
0.737085 0.867844 0.672581
0.757726 0.873909 0.681120
0.813812 0.890772 0.698200
0.911435 0.913207 0.736127
0.443632 0.539400 0.619905
0.444471 0.539432 0.620034
0.447132 0.539534 0.620451
0.456846 0.539932 0.622061
0.488157 0.541567 0.628159
0.565449 0.548742 0.649176
0.676595 0.566549 0.676595
0.755138 0.645984 0.677721
0.865873 0.750415 0.726044
0.443856 0.539634 0.619919
0.444693 0.539666 0.620048
0.447347 0.539769 0.620464
0.457041 0.540170 0.622073
0.488291 0.541815 0.628167
0.565492 0.549019 0.649172
0.676614 0.566817 0.676614
0.755154 0.646063 0.677740
0.865879 0.750439 0.726052
0.444573 0.540383 0.619965
0.445404 0.540416 0.620093
0.448039 0.540522 0.620508
0.457664 0.540932 0.622111
0.488723 0.542609 0.628190
0.565631 0.549906 0.649159
0.676672 0.567679 0.676672
0.755204 0.646319 0.677803
0.865897 0.750513 0.726077
0.447297 0.543226 0.620142
0.448104 0.543261 0.620269
0.450665 0.543376 0.620679
0.460039 0.543823 0.622262
0.490382 0.545617 0.628283
0.566173 0.553252 0.649108
0.676900 0.570943 0.676900
0.755396 0.647302 0.678044
0.865967 0.750802 0.726175
0.457107 0.553425 0.620854
0.457835 0.553469 0.620975
0.460151 0.553613 0.621366
0.468673 0.554170 0.622876
0.496583 0.556343 0.628663
0.568306 0.565043 0.648940
0.677772 0.582618 0.677772
0.756141 0.651030 0.678969
0.866238 0.751913 0.726552
0.486973 0.584278 0.623908
0.487508 0.584338 0.624016
0.489217 0.584531 0.624362
0.495611 0.585280 0.625691
0.517476 0.588166 0.630681
0.577105 0.598931 0.648880
0.681051 0.617746 0.681051
0.758999 0.664370 0.682398
0.867279 0.756127 0.727987
0.545561 0.648286 0.633386
0.545850 0.648339 0.633476
0.546776 0.648512 0.633766
0.550301 0.649180 0.634883
0.563144 0.651769 0.639138
0.604154 0.661819 0.654614
0.692244 0.692243 0.692244
0.769710 0.705038 0.693279
0.871175 0.771275 0.733202
0.624778 0.749014 0.655041
0.624887 0.749044 0.655082
0.625236 0.749141 0.655213
0.626579 0.749515 0.655720
0.631653 0.750952 0.657648
0.649624 0.756330 0.664625
0.702150 0.773948 0.685023
0.795439 0.797343 0.706351
0.884456 0.817866 0.749274
0.733211 0.866498 0.704432
0.733243 0.866508 0.704445
0.733346 0.866538 0.704487
0.733746 0.866654 0.704650
0.735281 0.867102 0.705273
0.741058 0.868807 0.707619
0.761222 0.874958 0.715734
0.816842 0.892533 0.734145
0.912955 0.914822 0.763877
0.555948 0.637890 0.705021
0.556146 0.637929 0.705082
0.556782 0.638053 0.705278
0.559215 0.638532 0.706035
0.568236 0.640358 0.708937
0.598526 0.647061 0.719668
0.678557 0.667623 0.754061
0.794949 0.690298 0.794949
0.875306 0.770651 0.800144
0.556003 0.637948 0.705035
0.556201 0.637987 0.705096
0.556836 0.638111 0.705292
0.559268 0.638590 0.706049
0.568285 0.640416 0.708950
0.598562 0.647119 0.719677
0.678570 0.667684 0.754062
0.794955 0.690363 0.794955
0.875310 0.770671 0.800150
0.556180 0.638135 0.705080
0.556377 0.638173 0.705141
0.557012 0.638297 0.705336
0.559440 0.638776 0.706093
0.568443 0.640603 0.708990
0.598680 0.647306 0.719707
0.678613 0.667880 0.754065
0.794973 0.690573 0.794973
0.875324 0.770735 0.800167
0.556861 0.638854 0.705253
0.557057 0.638892 0.705313
0.557687 0.639017 0.705508
0.560101 0.639495 0.706261
0.569054 0.641321 0.709146
0.599136 0.648024 0.719822
0.678779 0.668633 0.754076
0.795041 0.691382 0.795041
0.875379 0.770980 0.800233
0.559450 0.641593 0.705915
0.559642 0.641632 0.705974
0.560258 0.641755 0.706166
0.562618 0.642233 0.706907
0.571381 0.644058 0.709744
0.600879 0.650758 0.720265
0.679421 0.671486 0.754122
0.795305 0.694453 0.795305
0.875592 0.771924 0.800490
0.568834 0.651569 0.708397
0.569011 0.651607 0.708453
0.569579 0.651729 0.708633
0.571755 0.652200 0.709328
0.579862 0.654004 0.711995
0.607355 0.660662 0.721938
0.681929 0.681680 0.754345
0.796317 0.705498 0.796317
0.876413 0.775507 0.801473
0.597842 0.682977 0.716997
0.597978 0.683012 0.717043
0.598418 0.683124 0.717194
0.600110 0.683559 0.717775
0.606485 0.685230 0.720000
0.628745 0.691443 0.728209
0.691836 0.712177 0.756010
0.800096 0.739232 0.800096
0.879554 0.788401 0.805110
0.657705 0.753201 0.738481
0.657782 0.753223 0.738513
0.658030 0.753294 0.738614
0.658988 0.753569 0.739008
0.662640 0.754631 0.740521
0.676040 0.758684 0.746247
0.719574 0.773653 0.766615
0.812655 0.812655 0.812655
0.891185 0.828258 0.816610
0.745817 0.867069 0.774616
0.745846 0.867078 0.774628
0.745938 0.867107 0.774667
0.746294 0.867222 0.774816
0.747665 0.867665 0.775390
0.752847 0.869362 0.777573
0.771237 0.875648 0.785443
0.824993 0.895565 0.808134
0.918495 0.920444 0.830564
0.674804 0.752240 0.815171
0.674855 0.752253 0.815190
0.675019 0.752296 0.815251
0.675653 0.752464 0.815489
0.678083 0.753110 0.816405
0.687123 0.755567 0.819907
0.717760 0.764435 0.832712
0.799647 0.790218 0.872463
0.918113 0.815005 0.918113
0.674818 0.752255 0.815176
0.674869 0.752268 0.815195
0.675033 0.752312 0.815256
0.675667 0.752479 0.815494
0.678097 0.753126 0.816410
0.687136 0.755582 0.819911
0.717769 0.764450 0.832716
0.799651 0.790233 0.872463
0.918114 0.815021 0.918114
0.674864 0.752304 0.815191
0.674915 0.752317 0.815210
0.675079 0.752361 0.815272
0.675713 0.752528 0.815509
0.678142 0.753175 0.816426
0.687178 0.755631 0.819925
0.717801 0.764497 0.832726
0.799662 0.790282 0.872465
0.918119 0.815074 0.918119
0.675043 0.752494 0.815252
0.675093 0.752507 0.815271
0.675257 0.752551 0.815333
0.675890 0.752718 0.815570
0.678315 0.753364 0.816485
0.687339 0.755819 0.819981
0.717923 0.764682 0.832767
0.799708 0.790468 0.872471
0.918137 0.815281 0.918137
0.675730 0.753226 0.815488
0.675780 0.753240 0.815507
0.675943 0.753283 0.815568
0.676573 0.753450 0.815804
0.678984 0.754095 0.816715
0.687960 0.756544 0.820194
0.718394 0.765393 0.832926
0.799885 0.791188 0.872495
0.918209 0.816075 0.918209
0.678345 0.756019 0.816389
0.678394 0.756032 0.816408
0.678554 0.756075 0.816468
0.679170 0.756241 0.816699
0.681531 0.756879 0.817594
0.690326 0.759310 0.821010
0.720195 0.768099 0.833536
0.800570 0.793919 0.872593
0.918485 0.819092 0.918485
0.687831 0.766217 0.819728
0.687877 0.766230 0.819746
0.688024 0.766271 0.819802
0.688594 0.766431 0.820018
0.690780 0.767047 0.820853
0.698948 0.769395 0.824044
0.726867 0.777948 0.835814
0.803234 0.803718 0.873017
0.919540 0.829960 0.919540
0.717199 0.798558 0.830861
0.717234 0.798570 0.830875
0.717350 0.798606 0.830921
0.717797 0.798745 0.831098
0.719515 0.799283 0.831782
0.725998 0.801344 0.834391
0.748739 0.808925 0.843949
0.813598 0.833425 0.875449
0.923472 0.863302 0.923472
0.778356 0.871714 0.857071
0.778376 0.871721 0.857080
0.778442 0.871742 0.857109
0.778694 0.871823 0.857221
0.779670 0.872137 0.857653
0.783392 0.873348 0.859315
0.797067 0.877952 0.865590
0.841641 0.894687 0.887704
0.936432 0.936432 0.936432
