looks/Brejon_A1_TLog_EGamut2_v016_65.cube
TITLE "Generated by Foundry::LUT"
LUT_3D_SIZE 65
0.046874 0.046874 0.046874
0.057189 0.046871 0.046871
0.067502 0.046870 0.046865
0.077774 0.046835 0.046822
0.078547 0.046807 0.056337
0.065345 0.063044 0.063811
0.084886 0.053937 0.064155
0.105517 0.046168 0.059616
0.125302 0.044430 0.049097
0.143744 0.042939 0.040376
0.158704 0.042345 0.038999
0.174477 0.042002 0.037789
0.190675 0.042213 0.036909
0.206868 0.043208 0.036553
0.222604 0.045216 0.036933
0.237201 0.048506 0.038349
0.251324 0.052834 0.040435
0.266207 0.058017 0.042713
0.281205 0.064556 0.045615
0.296288 0.072807 0.049310
0.311430 0.082871 0.054011
0.326607 0.094205 0.059982
0.341744 0.106742 0.067563
0.356376 0.120233 0.077115
0.370438 0.134434 0.088053
0.384002 0.149182 0.099879
0.397130 0.164344 0.112446
0.409879 0.179819 0.125626
0.422280 0.195518 0.139301
0.434366 0.211364 0.153376
0.446159 0.227286 0.167756
0.457674 0.243224 0.182357
0.468931 0.259113 0.197096
0.479942 0.274899 0.211904
0.490724 0.290532 0.226709
0.501298 0.305970 0.241454
0.511727 0.321214 0.256122
0.522297 0.336484 0.270898
0.533051 0.351785 0.285781
0.543990 0.367079 0.300721
0.555119 0.382348 0.315690
0.566458 0.397579 0.330662
0.578018 0.412776 0.345630
0.589819 0.427942 0.360587
0.601878 0.443093 0.375539
0.614202 0.458236 0.390492
0.626801 0.473388 0.405456
0.639676 0.488558 0.420440
0.652817 0.503754 0.435453
0.666222 0.518982 0.450504
0.679871 0.534247 0.465594
0.693751 0.549547 0.480730
0.707843 0.564884 0.495910
0.722129 0.580256 0.511137
0.736590 0.595659 0.526406
0.751206 0.611092 0.541718
0.765962 0.626551 0.557066
0.780838 0.642034 0.572452
0.795822 0.657536 0.587866
0.810896 0.673057 0.603312
0.826052 0.688593 0.618780
0.841276 0.704143 0.634272
0.856561 0.719702 0.649781
0.871896 0.735274 0.665309
0.887274 0.750852 0.680850
0.046871 0.057187 0.046871
0.057184 0.057186 0.046875
0.067494 0.057186 0.046871
0.073448 0.057184 0.051222
0.065392 0.062986 0.063788
0.081480 0.057584 0.063063
0.097117 0.056996 0.056551
0.114633 0.055763 0.047781
0.130169 0.055198 0.042031
0.143836 0.055416 0.040667
0.158830 0.055415 0.039301
0.174617 0.055664 0.038102
0.190815 0.056420 0.037239
0.206999 0.057852 0.036904
0.222720 0.060128 0.037305
0.237296 0.063409 0.038740
0.251418 0.067605 0.040834
0.266293 0.072780 0.043130
0.281283 0.079212 0.046053
0.296358 0.086766 0.049771
0.311493 0.095490 0.054498
0.326664 0.105435 0.060498
0.341794 0.116594 0.068111
0.356419 0.128730 0.077679
0.370476 0.141654 0.088580
0.384034 0.155242 0.100365
0.397159 0.169377 0.112889
0.409904 0.183964 0.126025
0.422302 0.198905 0.139658
0.434387 0.214117 0.153693
0.446178 0.229512 0.168036
0.457691 0.245017 0.182601
0.468947 0.260552 0.197310
0.479957 0.276053 0.212089
0.490737 0.291455 0.226869
0.501311 0.306708 0.241592
0.511740 0.321804 0.256240
0.522309 0.336958 0.271001
0.533063 0.352164 0.285868
0.544001 0.367384 0.300796
0.555131 0.382594 0.315754
0.566469 0.397778 0.330717
0.578028 0.412938 0.345677
0.589829 0.428074 0.360628
0.601887 0.443200 0.375574
0.614211 0.458324 0.390521
0.626809 0.473461 0.405481
0.639683 0.488618 0.420461
0.652823 0.503804 0.435472
0.666227 0.519023 0.450520
0.679876 0.534281 0.465607
0.693755 0.549575 0.480741
0.707847 0.564908 0.495920
0.722133 0.580276 0.511146
0.736593 0.595676 0.526413
0.751209 0.611105 0.541725
0.765965 0.626563 0.557071
0.780840 0.642044 0.572457
0.795823 0.657544 0.587870
0.810897 0.673064 0.603316
0.826054 0.688598 0.618782
0.841277 0.704148 0.634275
0.856561 0.719706 0.649783
0.871896 0.735277 0.665311
0.887275 0.750854 0.680851
0.046867 0.067504 0.046867
0.057183 0.067495 0.046874
0.067491 0.067494 0.046874
0.064322 0.065124 0.062718
0.076627 0.067136 0.058413
0.090836 0.066933 0.052774
0.105805 0.066543 0.045547
0.117557 0.066732 0.043741
0.130232 0.067136 0.042238
0.144006 0.067787 0.040879
0.158973 0.068479 0.039558
0.174771 0.069339 0.038375
0.190964 0.070640 0.037534
0.207136 0.072509 0.037222
0.222841 0.075048 0.037648
0.237393 0.078257 0.039105
0.251514 0.082101 0.041212
0.266380 0.086766 0.043528
0.281363 0.092334 0.046473
0.296429 0.098911 0.050217
0.311557 0.106591 0.054971
0.326722 0.115447 0.061002
0.341845 0.125496 0.068648
0.356463 0.136511 0.078231
0.370514 0.148352 0.089098
0.384067 0.160926 0.100843
0.397188 0.174148 0.113325
0.409930 0.187929 0.126419
0.422325 0.202172 0.140011
0.434407 0.216790 0.154008
0.446196 0.231686 0.168313
0.457708 0.246775 0.182845
0.468962 0.261969 0.197523
0.479971 0.277192 0.212274
0.490751 0.292369 0.227029
0.501324 0.307440 0.241730
0.511752 0.322391 0.256359
0.522321 0.337428 0.271103
0.533076 0.352542 0.285955
0.544013 0.367688 0.300871
0.555142 0.382839 0.315818
0.566480 0.397976 0.330772
0.578039 0.413099 0.345724
0.589839 0.428205 0.360669
0.601896 0.443307 0.375608
0.614219 0.458412 0.390551
0.626817 0.473533 0.405506
0.639690 0.488677 0.420483
0.652830 0.503853 0.435490
0.666233 0.519064 0.450535
0.679881 0.534315 0.465621
0.693760 0.549603 0.480753
0.707851 0.564932 0.495929
0.722136 0.580295 0.511154
0.736596 0.595692 0.526420
0.751212 0.611119 0.541730
0.765967 0.626574 0.557076
0.780841 0.642054 0.572461
0.795825 0.657552 0.587874
0.810898 0.673071 0.603319
0.826055 0.688604 0.618785
0.841277 0.704153 0.634277
0.856562 0.719710 0.649785
0.871897 0.735280 0.665312
0.887276 0.750857 0.680853
0.046830 0.077776 0.046830
0.058369 0.075428 0.048062
0.064322 0.065124 0.062718
0.071781 0.074734 0.055043
0.085672 0.075732 0.049334
0.095798 0.076607 0.047021
0.106064 0.077300 0.045486
0.117604 0.077983 0.043929
0.130348 0.078841 0.042415
0.144214 0.079965 0.041021
0.159152 0.081275 0.039745
0.174923 0.082708 0.038615
0.191121 0.084391 0.037793
0.207279 0.086446 0.037509
0.222965 0.088886 0.037962
0.237493 0.091636 0.039446
0.251613 0.094867 0.041567
0.266470 0.098933 0.043906
0.281444 0.103824 0.046876
0.296502 0.109645 0.050647
0.311623 0.116503 0.055431
0.326780 0.124481 0.061495
0.341896 0.133614 0.069175
0.356507 0.143687 0.078771
0.370552 0.154596 0.089606
0.384100 0.166281 0.101314
0.397216 0.178685 0.113756
0.409955 0.191730 0.126809
0.422348 0.205327 0.140361
0.434427 0.219387 0.154319
0.446214 0.233809 0.168588
0.457725 0.248501 0.183087
0.468978 0.263365 0.197734
0.479986 0.278318 0.212458
0.490765 0.293273 0.227189
0.501337 0.308166 0.241868
0.511765 0.322973 0.256477
0.522334 0.337896 0.271204
0.533088 0.352918 0.286043
0.544025 0.367991 0.300946
0.555154 0.383084 0.315882
0.566491 0.398175 0.330827
0.578049 0.413260 0.345771
0.589848 0.428336 0.360708
0.601906 0.443414 0.375643
0.614228 0.458499 0.390580
0.626825 0.473605 0.405532
0.639697 0.488737 0.420504
0.652836 0.503902 0.435509
0.666239 0.519105 0.450551
0.679886 0.534349 0.465634
0.693764 0.549631 0.480764
0.707855 0.564955 0.495939
0.722140 0.580315 0.511162
0.736599 0.595709 0.526427
0.751214 0.611133 0.541736
0.765969 0.626586 0.557081
0.780843 0.642063 0.572465
0.795827 0.657561 0.587877
0.810900 0.673078 0.603322
0.826056 0.688610 0.618788
0.841279 0.704157 0.634279
0.856563 0.719715 0.649786
0.871898 0.735284 0.665314
0.887276 0.750860 0.680854
0.053212 0.075432 0.053212
0.064322 0.065124 0.062718
0.070874 0.076172 0.054360
0.077605 0.083238 0.049764
0.086771 0.084796 0.048641
0.095964 0.085980 0.047274
0.106088 0.087053 0.045793
0.117615 0.088169 0.044201
0.130444 0.089433 0.042606
0.144413 0.090929 0.041135
0.159363 0.092648 0.039859
0.175085 0.094500 0.038802
0.191270 0.096462 0.038027
0.207425 0.098597 0.037765
0.223093 0.100928 0.038249
0.237596 0.103325 0.039762
0.251714 0.106087 0.041900
0.266561 0.109688 0.044264
0.281526 0.114045 0.047262
0.296576 0.119266 0.051062
0.311689 0.125456 0.055878
0.326839 0.132710 0.061975
0.341948 0.141078 0.069691
0.356551 0.150347 0.079299
0.370590 0.160443 0.090104
0.384133 0.171343 0.101776
0.397246 0.183010 0.114181
0.409981 0.195381 0.127195
0.422371 0.208378 0.140707
0.434448 0.221913 0.154628
0.446233 0.235884 0.168862
0.457742 0.250195 0.183328
0.468993 0.264740 0.197944
0.480000 0.279429 0.212641
0.490778 0.294169 0.227347
0.501350 0.308887 0.242004
0.511777 0.323553 0.256595
0.522346 0.338362 0.271306
0.533100 0.353293 0.286130
0.544037 0.368293 0.301020
0.555165 0.383328 0.315947
0.566502 0.398372 0.330882
0.578060 0.413420 0.345818
0.589858 0.428467 0.360749
0.601915 0.443521 0.375677
0.614237 0.458587 0.390610
0.626833 0.473677 0.405557
0.639704 0.488796 0.420526
0.652843 0.503951 0.435527
0.666245 0.519146 0.450567
0.679891 0.534382 0.465648
0.693769 0.549660 0.480776
0.707859 0.564978 0.495949
0.722143 0.580335 0.511171
0.736602 0.595725 0.526434
0.751217 0.611147 0.541742
0.765971 0.626597 0.557086
0.780845 0.642073 0.572470
0.795828 0.657569 0.587881
0.810901 0.673084 0.603325
0.826057 0.688616 0.618790
0.841280 0.704162 0.634281
0.856564 0.719719 0.649788
0.871899 0.735287 0.665316
0.887277 0.750863 0.680856
0.063555 0.065089 0.063555
0.067189 0.076657 0.057812
0.069755 0.088768 0.050851
0.078309 0.091463 0.049494
0.087311 0.092996 0.048651
0.096088 0.094198 0.047780
0.106088 0.095661 0.046264
0.117592 0.097207 0.044582
0.130488 0.098878 0.042868
0.144563 0.100728 0.041275
0.159573 0.102772 0.039938
0.175271 0.104942 0.038918
0.191415 0.107163 0.038222
0.207566 0.109390 0.038000
0.223222 0.111631 0.038510
0.237699 0.113740 0.040055
0.251817 0.116132 0.042212
0.266654 0.119359 0.044605
0.281609 0.123283 0.047632
0.296651 0.128009 0.051464
0.311756 0.133644 0.056313
0.326899 0.140292 0.062445
0.342001 0.148008 0.070199
0.356596 0.156580 0.079817
0.370629 0.165960 0.090594
0.384167 0.176157 0.102233
0.397275 0.187155 0.114601
0.410007 0.198904 0.127576
0.422394 0.211341 0.141052
0.434469 0.224379 0.154936
0.446252 0.237920 0.169134
0.457759 0.251864 0.183568
0.469009 0.266099 0.198155
0.480015 0.280532 0.212824
0.490792 0.295060 0.227506
0.501363 0.309605 0.242141
0.511790 0.324130 0.256713
0.522358 0.338827 0.271407
0.533112 0.353667 0.286217
0.544049 0.368596 0.301095
0.555176 0.383573 0.316011
0.566513 0.398570 0.330937
0.578070 0.413581 0.345865
0.589868 0.428598 0.360789
0.601924 0.443629 0.375712
0.614245 0.458675 0.390639
0.626841 0.473750 0.405582
0.639711 0.488856 0.420547
0.652849 0.504001 0.435546
0.666251 0.519186 0.450582
0.679896 0.534416 0.465661
0.693774 0.549688 0.480787
0.707863 0.565002 0.495959
0.722147 0.580354 0.511179
0.736605 0.595742 0.526441
0.751219 0.611161 0.541748
0.765974 0.626609 0.557092
0.780847 0.642083 0.572474
0.795830 0.657577 0.587885
0.810903 0.673091 0.603328
0.826058 0.688621 0.618793
0.841281 0.704167 0.634284
0.856565 0.719723 0.649790
0.871899 0.735291 0.665317
0.887278 0.750866 0.680857
0.062982 0.078265 0.061601
0.065456 0.090161 0.054800
0.070276 0.097939 0.050074
0.079239 0.099927 0.049386
0.088153 0.101584 0.048613
0.096775 0.102891 0.047870
0.106137 0.104189 0.046947
0.117557 0.106190 0.045159
0.130479 0.108313 0.043289
0.144655 0.110560 0.041523
0.159763 0.112927 0.040051
0.175487 0.115373 0.038996
0.191592 0.117829 0.038369
0.207710 0.120182 0.038233
0.223364 0.122358 0.038777
0.237817 0.124202 0.040355
0.251933 0.126258 0.042538
0.266760 0.129144 0.044964
0.281704 0.132669 0.048027
0.296736 0.136937 0.051896
0.311832 0.142056 0.056785
0.326967 0.148131 0.062959
0.342060 0.155220 0.070756
0.356647 0.163112 0.080385
0.370673 0.171789 0.091134
0.384205 0.181283 0.102738
0.397308 0.191598 0.115066
0.410036 0.202708 0.128000
0.422420 0.214560 0.141434
0.434492 0.227073 0.155278
0.446273 0.240155 0.169438
0.457778 0.253702 0.183836
0.469027 0.267603 0.198389
0.480031 0.281754 0.213029
0.490808 0.296051 0.227683
0.501378 0.310404 0.242295
0.511804 0.324774 0.256845
0.522372 0.339347 0.271521
0.533126 0.354086 0.286315
0.544062 0.368934 0.301179
0.555189 0.383846 0.316083
0.566525 0.398793 0.330998
0.578082 0.413761 0.345918
0.589880 0.428745 0.360834
0.601935 0.443749 0.375750
0.614255 0.458774 0.390672
0.626850 0.473831 0.405611
0.639720 0.488923 0.420572
0.652856 0.504056 0.435567
0.666257 0.519232 0.450600
0.679902 0.534455 0.465676
0.693779 0.549720 0.480800
0.707867 0.565029 0.495970
0.722151 0.580376 0.511189
0.736608 0.595760 0.526449
0.751222 0.611176 0.541755
0.765976 0.626622 0.557097
0.780849 0.642094 0.572479
0.795832 0.657586 0.587889
0.810904 0.673099 0.603331
0.826060 0.688628 0.618796
0.841282 0.704173 0.634286
0.856566 0.719727 0.649793
0.871900 0.735295 0.665319
0.887278 0.750869 0.680858
0.060907 0.094081 0.057678
0.063286 0.104942 0.050454
0.071491 0.107521 0.049729
0.080550 0.109401 0.049285
0.089398 0.111136 0.048625
0.097966 0.112636 0.047879
0.107134 0.114001 0.047074
0.117571 0.115525 0.046023
0.130437 0.118149 0.043983
0.144674 0.120858 0.041994
0.159899 0.123599 0.040298
0.175705 0.126324 0.039098
0.191813 0.128993 0.038464
0.207887 0.131480 0.038426
0.223513 0.133643 0.039065
0.237954 0.135245 0.040678
0.252072 0.136984 0.042890
0.266886 0.139543 0.045359
0.281818 0.142686 0.048467
0.296838 0.146511 0.052384
0.311923 0.151125 0.057322
0.327048 0.156631 0.063548
0.342131 0.163092 0.071399
0.356708 0.170298 0.081039
0.370725 0.178249 0.091757
0.384251 0.187006 0.103323
0.397348 0.196598 0.115607
0.410071 0.207019 0.128494
0.422451 0.218232 0.141882
0.434520 0.230165 0.155679
0.446298 0.242734 0.169794
0.457801 0.255834 0.184151
0.469048 0.269352 0.198665
0.480051 0.283181 0.213270
0.490826 0.297209 0.227892
0.501395 0.311342 0.242475
0.511821 0.325532 0.257001
0.522389 0.339958 0.271656
0.533142 0.354580 0.286431
0.544078 0.369334 0.301279
0.555205 0.384169 0.316168
0.566540 0.399055 0.331071
0.578096 0.413975 0.345981
0.589893 0.428919 0.360888
0.601947 0.443891 0.375796
0.614266 0.458890 0.390712
0.626860 0.473927 0.405644
0.639729 0.489002 0.420600
0.652865 0.504122 0.435591
0.666265 0.519287 0.450621
0.679909 0.534500 0.465694
0.693785 0.549757 0.480815
0.707872 0.565060 0.495982
0.722155 0.580403 0.511199
0.736612 0.595782 0.526458
0.751226 0.611194 0.541763
0.765979 0.626637 0.557104
0.780852 0.642107 0.572485
0.795834 0.657597 0.587893
0.810906 0.673108 0.603335
0.826061 0.688636 0.618800
0.841283 0.704179 0.634289
0.856567 0.719733 0.649795
0.871901 0.735299 0.665321
0.887279 0.750873 0.680860
0.058047 0.111297 0.052368
0.064025 0.116672 0.049230
0.073116 0.118343 0.049358
0.082323 0.120083 0.049163
0.091142 0.121810 0.048676
0.099642 0.123416 0.048011
0.108769 0.124992 0.047182
0.118940 0.126513 0.046244
0.130429 0.128279 0.045051
0.144634 0.131497 0.042821
0.159944 0.134679 0.040826
0.175870 0.137728 0.039352
0.192044 0.140612 0.038569
0.208105 0.143225 0.038552
0.223686 0.145405 0.039316
0.238095 0.146831 0.041032
0.252235 0.148285 0.043266
0.267036 0.150533 0.045787
0.281954 0.153311 0.048951
0.296960 0.156711 0.052928
0.312032 0.160833 0.057927
0.327146 0.165785 0.064218
0.342217 0.171627 0.072136
0.356781 0.178144 0.081787
0.370788 0.185360 0.092475
0.384305 0.193356 0.104000
0.397396 0.202189 0.116234
0.410113 0.211878 0.129070
0.422488 0.222399 0.142403
0.434553 0.233698 0.156148
0.446328 0.245698 0.170212
0.457828 0.258296 0.184520
0.469073 0.271382 0.198990
0.480074 0.284843 0.213554
0.490848 0.298562 0.228139
0.501416 0.312440 0.242689
0.511841 0.326421 0.257185
0.522408 0.340678 0.271814
0.533161 0.355162 0.286568
0.544097 0.369804 0.301396
0.555223 0.384551 0.316269
0.566557 0.399364 0.331158
0.578113 0.414227 0.346055
0.589909 0.429125 0.360951
0.601962 0.444060 0.375851
0.614280 0.459029 0.390758
0.626873 0.474041 0.405684
0.639740 0.489096 0.420634
0.652875 0.504199 0.435620
0.666274 0.519351 0.450646
0.679917 0.534553 0.465715
0.693792 0.549802 0.480833
0.707879 0.565097 0.495998
0.722161 0.580434 0.511212
0.736617 0.595808 0.526469
0.751230 0.611216 0.541772
0.765983 0.626655 0.557112
0.780855 0.642122 0.572491
0.795837 0.657610 0.587900
0.810908 0.673119 0.603340
0.826063 0.688645 0.618804
0.841285 0.704187 0.634293
0.856568 0.719739 0.649798
0.871902 0.735305 0.665324
0.887280 0.750878 0.680862
0.056380 0.127630 0.048034
0.065697 0.129007 0.048645
0.075268 0.130483 0.048997
0.084630 0.132059 0.049045
0.093455 0.133688 0.048786
0.101888 0.135292 0.048282
0.110922 0.136966 0.047539
0.121034 0.138703 0.046564
0.132157 0.140379 0.045467
0.144612 0.142363 0.044131
0.159910 0.146034 0.041810
0.175937 0.149477 0.039951
0.192227 0.152621 0.038840
0.208339 0.155366 0.038669
0.223896 0.157569 0.039482
0.238254 0.158868 0.041350
0.252405 0.160113 0.043679
0.267213 0.162075 0.046240
0.282116 0.164507 0.049474
0.297105 0.167504 0.053524
0.312163 0.171159 0.058602
0.327263 0.175578 0.064973
0.342319 0.180817 0.072976
0.356869 0.186654 0.082639
0.370863 0.193129 0.093296
0.384370 0.200351 0.104777
0.397453 0.208401 0.116960
0.410163 0.217320 0.129737
0.422532 0.227102 0.143011
0.434592 0.237714 0.156695
0.446364 0.249088 0.170700
0.457861 0.261129 0.184952
0.469103 0.273729 0.199370
0.480102 0.286773 0.213887
0.490874 0.300140 0.228428
0.501440 0.313724 0.242939
0.511865 0.327463 0.257402
0.522432 0.341522 0.272001
0.533184 0.355845 0.286728
0.544119 0.370359 0.301535
0.555244 0.385000 0.316388
0.566578 0.399730 0.331260
0.578132 0.414524 0.346142
0.589927 0.429368 0.361026
0.601979 0.444259 0.375915
0.614296 0.459192 0.390813
0.626887 0.474175 0.405731
0.639754 0.489207 0.420675
0.652887 0.504291 0.435654
0.666285 0.519427 0.450675
0.679927 0.534617 0.465740
0.693800 0.549855 0.480854
0.707886 0.565141 0.496016
0.722167 0.580470 0.511228
0.736623 0.595839 0.526482
0.751235 0.611242 0.541783
0.765987 0.626677 0.557121
0.780859 0.642140 0.572499
0.795840 0.657625 0.587906
0.810911 0.673132 0.603346
0.826065 0.688655 0.618809
0.841287 0.704196 0.634297
0.856570 0.719747 0.649801
0.871904 0.735311 0.665326
0.887281 0.750883 0.680865
0.058102 0.141375 0.047406
0.068007 0.142582 0.048186
0.078050 0.143883 0.048735
0.087540 0.145281 0.049016
0.096383 0.146752 0.049012
0.104750 0.148258 0.048732
0.113656 0.149907 0.048176
0.123615 0.151720 0.047307
0.134628 0.153595 0.046163
0.146605 0.155403 0.044885
0.159877 0.157546 0.043413
0.175908 0.161431 0.041122
0.192308 0.164907 0.039526
0.208530 0.167835 0.038968
0.224124 0.170078 0.039622
0.238443 0.171274 0.041568
0.252589 0.172381 0.044058
0.267397 0.174132 0.046740
0.282306 0.176248 0.050028
0.297279 0.178864 0.054169
0.312319 0.182078 0.059343
0.327403 0.185988 0.065816
0.342441 0.190644 0.073922
0.356974 0.195815 0.083598
0.370954 0.201560 0.094229
0.384448 0.208006 0.105667
0.397521 0.215258 0.117795
0.410223 0.223375 0.130509
0.422585 0.232381 0.143715
0.434640 0.242256 0.157331
0.446406 0.252949 0.171270
0.457899 0.264375 0.185458
0.469139 0.276434 0.199817
0.480135 0.289007 0.214278
0.490905 0.301974 0.228769
0.501469 0.315223 0.243235
0.511893 0.328682 0.257657
0.522459 0.342513 0.272222
0.533211 0.356649 0.286919
0.544145 0.371011 0.301698
0.555270 0.385530 0.316528
0.566602 0.400161 0.331381
0.578156 0.414876 0.346246
0.589949 0.429655 0.361115
0.602000 0.444494 0.375991
0.614315 0.459385 0.390878
0.626905 0.474334 0.405787
0.639770 0.489338 0.420722
0.652902 0.504400 0.435695
0.666298 0.519517 0.450710
0.679938 0.534692 0.465770
0.693810 0.549917 0.480880
0.707895 0.565193 0.496037
0.722175 0.580514 0.511246
0.736629 0.595875 0.526498
0.751240 0.611272 0.541797
0.765992 0.626703 0.557133
0.780863 0.642161 0.572509
0.795843 0.657643 0.587914
0.810914 0.673147 0.603353
0.826068 0.688668 0.618814
0.841289 0.704207 0.634301
0.856572 0.719756 0.649805
0.871905 0.735319 0.665330
0.887283 0.750890 0.680868
0.060664 0.156156 0.047047
0.071155 0.157212 0.047977
0.081553 0.158346 0.048706
0.091113 0.159561 0.049204
0.099946 0.160846 0.049451
0.108230 0.162184 0.049441
0.116982 0.163706 0.049141
0.126719 0.165454 0.048503
0.137490 0.167370 0.047492
0.149280 0.169346 0.046157
0.161969 0.171248 0.044678
0.175866 0.173471 0.043078
0.192284 0.177338 0.040921
0.208620 0.180528 0.039758
0.224313 0.182868 0.039958
0.238648 0.183991 0.041742
0.252805 0.185005 0.044319
0.267594 0.186614 0.047206
0.282507 0.188489 0.050637
0.297484 0.190757 0.054851
0.312505 0.193554 0.060144
0.327570 0.196981 0.066742
0.342588 0.201082 0.074978
0.357100 0.205614 0.084669
0.371062 0.210646 0.095281
0.384542 0.216325 0.106678
0.397602 0.222770 0.118749
0.410294 0.230068 0.131396
0.422648 0.238263 0.144529
0.434696 0.247360 0.158069
0.446457 0.257321 0.171932
0.457946 0.268078 0.186049
0.469181 0.279539 0.200338
0.480174 0.291586 0.214736
0.490942 0.304101 0.229169
0.501504 0.316966 0.243582
0.511926 0.330105 0.257958
0.522492 0.343673 0.272482
0.533243 0.357593 0.287143
0.544176 0.371778 0.301891
0.555300 0.386154 0.316694
0.566631 0.400669 0.331524
0.578183 0.415290 0.346368
0.589975 0.429994 0.361220
0.602024 0.444772 0.376081
0.614338 0.459613 0.390955
0.626926 0.474522 0.405853
0.639789 0.489493 0.420779
0.652919 0.504528 0.435743
0.666313 0.519624 0.450751
0.679952 0.534780 0.465805
0.693822 0.549991 0.480910
0.707905 0.565255 0.496063
0.722184 0.580565 0.511268
0.736637 0.595918 0.526516
0.751247 0.611308 0.541812
0.765998 0.626733 0.557146
0.780868 0.642187 0.572520
0.795848 0.657664 0.587924
0.810918 0.673165 0.603361
0.826071 0.688683 0.618821
0.841292 0.704219 0.634307
0.856574 0.719766 0.649810
0.871907 0.735328 0.665334
0.887284 0.750897 0.680871
0.064307 0.171675 0.047106
0.075354 0.172590 0.048173
0.085852 0.173565 0.049066
0.095383 0.174604 0.049762
0.104142 0.175701 0.050243
0.112303 0.176851 0.050498
0.120867 0.178181 0.050511
0.130337 0.179768 0.050183
0.140781 0.181584 0.049451
0.152231 0.183567 0.048276
0.164647 0.185608 0.046723
0.177900 0.187569 0.045017
0.192235 0.189795 0.043297
0.208600 0.193315 0.041413
0.224406 0.195842 0.040868
0.238823 0.196957 0.042124
0.253039 0.197915 0.044514
0.267821 0.199429 0.047534
0.282718 0.201139 0.051213
0.297701 0.203136 0.055599
0.312725 0.205553 0.060991
0.327769 0.208530 0.067742
0.342763 0.212107 0.076131
0.357250 0.216030 0.085850
0.371192 0.220374 0.096453
0.384654 0.225298 0.107816
0.397700 0.230945 0.119832
0.410380 0.237416 0.132409
0.422724 0.244780 0.145464
0.434764 0.253062 0.158921
0.446518 0.262245 0.172701
0.458001 0.272280 0.186736
0.469231 0.283085 0.200948
0.480221 0.294550 0.215272
0.490985 0.306558 0.229638
0.501545 0.318989 0.243990
0.511966 0.331763 0.258311
0.522531 0.345028 0.272788
0.533281 0.358698 0.287407
0.544213 0.372679 0.302119
0.555336 0.386887 0.316890
0.566666 0.401267 0.331692
0.578216 0.415779 0.346513
0.590006 0.430394 0.361344
0.602053 0.445100 0.376187
0.614365 0.459883 0.391046
0.626950 0.474745 0.405931
0.639811 0.489677 0.420845
0.652939 0.504681 0.435800
0.666331 0.519750 0.450800
0.679968 0.534885 0.465846
0.693836 0.550078 0.480945
0.707918 0.565328 0.496093
0.722195 0.580626 0.511294
0.736647 0.595969 0.526538
0.751255 0.611351 0.541831
0.766005 0.626769 0.557162
0.780874 0.642217 0.572533
0.795853 0.657690 0.587935
0.810922 0.673186 0.603370
0.826075 0.688701 0.618829
0.841295 0.704234 0.634314
0.856577 0.719779 0.649816
0.871910 0.735338 0.665339
0.887286 0.750906 0.680875
0.069266 0.187624 0.047730
0.080642 0.188408 0.048919
0.090988 0.189236 0.049960
0.100362 0.190111 0.050834
0.108954 0.191030 0.051526
0.116933 0.191992 0.052025
0.125265 0.193112 0.052345
0.134427 0.194473 0.052395
0.144484 0.196090 0.052036
0.155488 0.197930 0.051201
0.167454 0.199931 0.049843
0.180333 0.201983 0.048049
0.193987 0.203952 0.046097
0.208545 0.206076 0.044276
0.224390 0.208874 0.042814
0.238912 0.210087 0.043162
0.253238 0.211051 0.044935
0.268065 0.212510 0.047771
0.282957 0.214109 0.051627
0.297927 0.215918 0.056315
0.312960 0.218036 0.061916
0.328005 0.220601 0.068800
0.342972 0.223684 0.077362
0.357431 0.227028 0.087131
0.371348 0.230715 0.097745
0.384789 0.234914 0.109085
0.397818 0.239776 0.121052
0.410483 0.245426 0.133560
0.422815 0.251947 0.146533
0.434845 0.259387 0.159901
0.446590 0.267755 0.173589
0.458067 0.277021 0.187532
0.469292 0.287115 0.201655
0.480277 0.297941 0.215897
0.491037 0.309386 0.230186
0.501594 0.321329 0.244467
0.512013 0.333689 0.258726
0.522577 0.346607 0.273148
0.533326 0.359991 0.287718
0.544257 0.373734 0.302387
0.555378 0.387749 0.317121
0.566707 0.401971 0.331890
