looks/Brejon_A1_TLog_EGamut2_v005_65.cube
# The Brejon Look Modification Transform
# Brejon for ACES 1.3 v005 - A pleasing, colorful and natural look for ACES 1.3
# Created by Chris Brejon - chrisbrejon.com - 2025-11-29 22:25:13
# 3 columns rgb, 274625 rows
# Width     65 65 65
# Process Color Space = TLog - Egamut2
# LUT size
LUT_3D_SIZE 65
0.021066 0.021066 0.021066
0.035618 0.021910 0.021925
0.047794 0.024814 0.025344
0.054834 0.031529 0.032708
0.050295 0.039006 0.042605
0.045657 0.044880 0.045151
0.074346 0.031413 0.045278
0.103297 0.021682 0.040264
0.125814 0.021166 0.028712
0.144171 0.021143 0.020465
0.158370 0.021136 0.020204
0.172903 0.021179 0.019882
0.187763 0.021309 0.019495
0.202967 0.021523 0.019025
0.218513 0.021862 0.018462
0.234393 0.022405 0.017809
0.250578 0.023280 0.017087
0.267016 0.024675 0.016346
0.283609 0.026861 0.015680
0.300187 0.030220 0.015252
0.316475 0.035249 0.015321
0.332032 0.042545 0.016281
0.346677 0.052561 0.018350
0.361135 0.065609 0.021189
0.375425 0.082228 0.025017
0.389533 0.100483 0.030150
0.403431 0.119639 0.037011
0.416689 0.139263 0.046262
0.429305 0.159035 0.058417
0.441451 0.178827 0.074078
0.453304 0.198611 0.092354
0.464993 0.218386 0.111402
0.476302 0.237893 0.130961
0.487220 0.257027 0.150785
0.497782 0.275734 0.170680
0.508024 0.293976 0.190483
0.517982 0.311724 0.210070
0.527696 0.328963 0.229339
0.537207 0.345690 0.248217
0.546558 0.361911 0.266655
0.555792 0.377643 0.284623
0.564957 0.392915 0.302112
0.574331 0.407990 0.319343
0.584068 0.423016 0.336445
0.594182 0.438014 0.353423
0.604684 0.453002 0.370286
0.615580 0.467998 0.387043
0.626872 0.483015 0.403701
0.638553 0.498067 0.420268
0.650615 0.513159 0.436749
0.663042 0.528297 0.453150
0.675814 0.543481 0.469476
0.688910 0.558713 0.485730
0.702305 0.573990 0.501917
0.715975 0.589308 0.518041
0.729892 0.604666 0.534107
0.744033 0.620058 0.550120
0.758373 0.635482 0.566084
0.772888 0.650934 0.582004
0.787559 0.666410 0.597885
0.802364 0.681907 0.613731
0.817288 0.697423 0.629547
0.832313 0.712955 0.645336
0.847427 0.728501 0.661101
0.862617 0.744059 0.676846
0.020006 0.036812 0.020006
0.034137 0.034030 0.019232
0.047957 0.034596 0.024066
0.050887 0.040117 0.037582
0.045672 0.044860 0.045144
0.069862 0.035704 0.043649
0.092549 0.035467 0.035519
0.113733 0.035427 0.025804
0.130401 0.035451 0.020658
0.144209 0.035528 0.020463
0.158435 0.035530 0.020182
0.173021 0.035528 0.019814
0.187919 0.035630 0.019382
0.203142 0.035859 0.018871
0.218694 0.036260 0.018275
0.234570 0.036912 0.017595
0.250745 0.037938 0.016853
0.267170 0.039520 0.016099
0.283746 0.041913 0.015426
0.300308 0.045470 0.014998
0.316578 0.050642 0.015076
0.332116 0.057951 0.016054
0.346748 0.067820 0.018146
0.361196 0.080525 0.021012
0.375477 0.095061 0.024873
0.389578 0.110994 0.030044
0.403468 0.128131 0.036948
0.416720 0.146031 0.046249
0.429331 0.164375 0.058458
0.441473 0.183012 0.074174
0.453324 0.201878 0.092483
0.465010 0.220929 0.111547
0.476317 0.239870 0.131112
0.487233 0.258561 0.150932
0.497794 0.276926 0.170819
0.508035 0.294902 0.190612
0.517993 0.312446 0.210185
0.527707 0.329527 0.229441
0.537217 0.346132 0.248307
0.546567 0.362259 0.266733
0.555801 0.377918 0.284690
0.564965 0.393133 0.302169
0.574339 0.408163 0.319392
0.584076 0.423156 0.336487
0.594190 0.438126 0.353459
0.604691 0.453093 0.370317
0.615587 0.468071 0.387069
0.626878 0.483076 0.403723
0.638559 0.498116 0.420287
0.650620 0.513199 0.436765
0.663046 0.528330 0.453164
0.675818 0.543509 0.469487
0.688914 0.558736 0.485739
0.702309 0.574009 0.501925
0.715978 0.589324 0.518048
0.729895 0.604679 0.534112
0.744035 0.620069 0.550124
0.758375 0.635491 0.566088
0.772890 0.650942 0.582007
0.787560 0.666417 0.597888
0.802366 0.681913 0.613734
0.817289 0.697428 0.629549
0.832314 0.712959 0.645337
0.847428 0.728504 0.661102
0.862617 0.744061 0.676847
0.019739 0.050890 0.019739
0.033347 0.049901 0.016670
0.049483 0.045824 0.023227
0.045353 0.046408 0.042312
0.062659 0.049628 0.036650
0.084027 0.049690 0.029306
0.103828 0.049668 0.021094
0.117003 0.049735 0.020791
0.130459 0.049793 0.020627
0.144303 0.049852 0.020408
0.158536 0.049888 0.020108
0.173140 0.049912 0.019710
0.188072 0.050006 0.019228
0.203312 0.050260 0.018677
0.218869 0.050726 0.018050
0.234741 0.051486 0.017347
0.250907 0.052661 0.016589
0.267319 0.054424 0.015824
0.283881 0.057017 0.015148
0.300426 0.060766 0.014723
0.316679 0.066076 0.014813
0.332199 0.073390 0.015811
0.346818 0.082769 0.017928
0.361256 0.093759 0.020824
0.375528 0.106339 0.024719
0.389622 0.120438 0.029930
0.403505 0.135913 0.036880
0.416751 0.152340 0.046231
0.429357 0.169426 0.058493
0.441496 0.187018 0.074267
0.453343 0.205034 0.092608
0.465027 0.223405 0.111690
0.476333 0.241805 0.131260
0.487247 0.260071 0.151080
0.497807 0.278102 0.170958
0.508047 0.295819 0.190740
0.518004 0.313162 0.210301
0.527717 0.330088 0.229543
0.537227 0.346572 0.248396
0.546577 0.362605 0.266811
0.555810 0.378191 0.284757
0.564974 0.393350 0.302227
0.574348 0.408337 0.319442
0.584084 0.423295 0.336529
0.594197 0.438238 0.353495
0.604699 0.453184 0.370348
0.615594 0.468145 0.387095
0.626884 0.483136 0.403745
0.638565 0.498165 0.420305
0.650626 0.513240 0.436781
0.663051 0.528363 0.453177
0.675822 0.543537 0.469498
0.688918 0.558759 0.485749
0.702312 0.574028 0.501933
0.715980 0.589340 0.518054
0.729897 0.604692 0.534118
0.744038 0.620080 0.550129
0.758376 0.635501 0.566092
0.772892 0.650949 0.582011
0.787562 0.666423 0.597891
0.802367 0.681918 0.613736
0.817290 0.697433 0.629551
0.832315 0.712963 0.645339
0.847429 0.728507 0.661104
0.862618 0.744064 0.676848
0.019178 0.065556 0.019178
0.033461 0.066391 0.013358
0.045353 0.046408 0.042312
0.052830 0.058604 0.033930
0.074694 0.062357 0.024106
0.090687 0.063661 0.021372
0.103986 0.064009 0.020873
0.117090 0.064051 0.020719
0.130582 0.064090 0.020523
0.144446 0.064148 0.020277
0.158676 0.064225 0.019963
0.173268 0.064318 0.019558
0.188210 0.064459 0.019048
0.203470 0.064742 0.018455
0.219034 0.065273 0.017795
0.234904 0.066136 0.017070
0.251064 0.067453 0.016297
0.267464 0.069391 0.015525
0.284013 0.072178 0.014848
0.300543 0.076105 0.014429
0.316779 0.081329 0.014532
0.332281 0.087914 0.015554
0.346887 0.095870 0.017698
0.361316 0.105348 0.020625
0.375579 0.116400 0.024556
0.389666 0.129014 0.029809
0.403543 0.143096 0.036805
0.416781 0.158250 0.046208
0.429383 0.174217 0.058526
0.441518 0.190859 0.074356
0.453363 0.208087 0.092731
0.465045 0.225817 0.111831
0.476348 0.243701 0.131408
0.487261 0.261556 0.151225
0.497820 0.279264 0.171096
0.508059 0.296728 0.190867
0.518015 0.313873 0.210416
0.527728 0.330645 0.229646
0.537237 0.347010 0.248486
0.546586 0.362950 0.266889
0.555819 0.378464 0.284824
0.564982 0.393567 0.302284
0.574356 0.408510 0.319491
0.584092 0.423434 0.336571
0.594205 0.438350 0.353531
0.604706 0.453274 0.370378
0.615601 0.468219 0.387121
0.626891 0.483196 0.403767
0.638571 0.498214 0.420324
0.650631 0.513280 0.436797
0.663056 0.528397 0.453190
0.675827 0.543564 0.469510
0.688921 0.558782 0.485758
0.702315 0.574047 0.501941
0.715983 0.589356 0.518061
0.729900 0.604705 0.534124
0.744040 0.620092 0.550134
0.758378 0.635510 0.566096
0.772893 0.650957 0.582014
0.787563 0.666430 0.597894
0.802368 0.681924 0.613739
0.817291 0.697437 0.629553
0.832316 0.712967 0.645341
0.847429 0.728511 0.661105
0.862619 0.744067 0.676849
0.028219 0.062420 0.028219
0.045353 0.046408 0.042312
0.051068 0.059461 0.033946
0.060500 0.071758 0.025802
0.076215 0.075956 0.022683
0.090547 0.077557 0.021415
0.103956 0.078176 0.020825
0.117233 0.078305 0.020558
0.130748 0.078336 0.020330
0.144622 0.078397 0.020060
0.158846 0.078503 0.019737
0.173419 0.078659 0.019336
0.188343 0.078882 0.018832
0.203608 0.079217 0.018216
0.219185 0.079780 0.017521
0.235057 0.080689 0.016771
0.251212 0.082044 0.015984
0.267604 0.083974 0.015205
0.284140 0.086633 0.014528
0.300656 0.090188 0.014117
0.316877 0.094788 0.014236
0.332361 0.100498 0.015282
0.346956 0.107361 0.017455
0.361375 0.115658 0.020415
0.375630 0.125483 0.024385
0.389710 0.136868 0.029681
0.403580 0.149766 0.036725
0.416812 0.163808 0.046180
0.429408 0.178774 0.058553
0.441540 0.194548 0.074443
0.453382 0.211044 0.092852
0.465062 0.228169 0.111971
0.476364 0.245560 0.131555
0.487275 0.263019 0.151370
0.497832 0.280412 0.171234
0.508071 0.297628 0.190994
0.518026 0.314578 0.210530
0.527738 0.331199 0.229748
0.537247 0.347445 0.248575
0.546596 0.363294 0.266966
0.555828 0.378736 0.284891
0.564991 0.393783 0.302341
0.574364 0.408683 0.319540
0.584100 0.423572 0.336614
0.594213 0.438462 0.353567
0.604713 0.453365 0.370409
0.615608 0.468292 0.387147
0.626897 0.483256 0.403789
0.638576 0.498264 0.420343
0.650636 0.513321 0.436812
0.663061 0.528430 0.453204
0.675831 0.543592 0.469521
0.688925 0.558805 0.485768
0.702319 0.574066 0.501949
0.715986 0.589372 0.518068
0.729903 0.604719 0.534130
0.744042 0.620103 0.550139
0.758380 0.635519 0.566100
0.772895 0.650965 0.582017
0.787564 0.666436 0.597896
0.802369 0.681929 0.613741
0.817292 0.697442 0.629555
0.832317 0.712971 0.645343
0.847430 0.728514 0.661107
0.862619 0.744069 0.676851
0.044138 0.046498 0.044138
0.047179 0.059932 0.037630
0.048843 0.075651 0.029715
0.060996 0.084026 0.025137
0.075942 0.087920 0.022806
0.090139 0.089836 0.021567
0.103753 0.090824 0.020795
0.117347 0.091226 0.020331
0.130930 0.091287 0.020050
0.144813 0.091340 0.019760
0.159032 0.091449 0.019430
0.173588 0.091630 0.019038
0.188490 0.091898 0.018553
0.203737 0.092283 0.017953
0.219318 0.092842 0.017237
0.235198 0.093705 0.016458
0.251352 0.094986 0.015653
0.267738 0.096792 0.014866
0.284264 0.099248 0.014190
0.300767 0.102482 0.013788
0.316972 0.106601 0.013923
0.332441 0.111630 0.014996
0.347023 0.117630 0.017201
0.361434 0.124975 0.020196
0.375681 0.133789 0.024206
0.389753 0.144138 0.029545
0.403617 0.156012 0.036638
0.416843 0.169071 0.046147
0.429434 0.183134 0.058577
0.441562 0.198108 0.074526
0.453402 0.213920 0.092971
0.465079 0.230471 0.112109
0.476379 0.247388 0.131701
0.487289 0.264463 0.151515
0.497845 0.281550 0.171371
0.508082 0.298522 0.191121
0.518037 0.315281 0.210645
0.527749 0.331751 0.229849
0.537257 0.347881 0.248665
0.546605 0.363637 0.267044
0.555837 0.379009 0.284958
0.564999 0.394000 0.302399
0.574373 0.408856 0.319590
0.584108 0.423711 0.336656
0.594221 0.438574 0.353603
0.604720 0.453456 0.370439
0.615614 0.468366 0.387173
0.626903 0.483316 0.403811
0.638582 0.498313 0.420361
0.650641 0.513362 0.436828
0.663065 0.528464 0.453217
0.675835 0.543620 0.469532
0.688929 0.558827 0.485777
0.702322 0.574085 0.501957
0.715989 0.589388 0.518074
0.729905 0.604732 0.534135
0.744044 0.620114 0.550144
0.758382 0.635528 0.566104
0.772897 0.650973 0.582021
0.787566 0.666442 0.597899
0.802371 0.681935 0.613743
0.817293 0.697446 0.629557
0.832318 0.712975 0.645344
0.847431 0.728517 0.661108
0.862620 0.744072 0.676852
0.042573 0.059254 0.042516
0.043812 0.075526 0.034803
0.048582 0.088552 0.028289
0.060971 0.095248 0.025108
0.075422 0.099197 0.023035
0.089540 0.101507 0.021705
0.103314 0.102917 0.020794
0.117229 0.103711 0.020109
0.131107 0.104013 0.019660
0.145021 0.104067 0.019342
0.159244 0.104166 0.019003
0.173788 0.104352 0.018620
0.188666 0.104646 0.018162
0.203888 0.105070 0.017595
0.219452 0.105665 0.016903
0.235338 0.106499 0.016100
0.251497 0.107709 0.015270
0.267879 0.109401 0.014471
0.284396 0.111675 0.013794
0.300887 0.114625 0.013401
0.317078 0.118319 0.013557
0.332528 0.122743 0.014661
0.347098 0.127968 0.016902
0.361499 0.134445 0.019938
0.375737 0.142318 0.023994
0.389802 0.151683 0.029385
0.403658 0.162564 0.036533
0.416877 0.174650 0.046104
0.429463 0.187800 0.058599
0.441587 0.201953 0.074616
0.453424 0.217048 0.093101
0.465099 0.232990 0.112263
0.476396 0.249400 0.131863
0.487305 0.266060 0.151676
0.497859 0.282811 0.171525
0.508096 0.299517 0.191263
0.518050 0.316064 0.210773
0.527760 0.332368 0.229963
0.537268 0.348367 0.248765
0.546616 0.364022 0.267131
0.555847 0.379313 0.285033
0.565009 0.394242 0.302463
0.574382 0.409050 0.319645
0.584117 0.423867 0.336703
0.594229 0.438700 0.353644
0.604729 0.453557 0.370474
0.615622 0.468449 0.387202
0.626910 0.483384 0.403836
0.638589 0.498369 0.420382
0.650647 0.513407 0.436846
0.663071 0.528501 0.453232
0.675840 0.543651 0.469545
0.688933 0.558853 0.485788
0.702326 0.574106 0.501966
0.715993 0.589405 0.518082
0.729908 0.604747 0.534142
0.744047 0.620126 0.550149
0.758384 0.635539 0.566108
0.772898 0.650981 0.582025
0.787567 0.666450 0.597903
0.802372 0.681941 0.613746
0.817294 0.697451 0.629559
0.832319 0.712979 0.645346
0.847432 0.728521 0.661110
0.862621 0.744075 0.676853
0.039135 0.076945 0.038941
0.040184 0.091778 0.031312
0.048745 0.100735 0.027680
0.060843 0.106592 0.025170
0.074807 0.110568 0.023262
0.088765 0.113222 0.021843
0.102645 0.115084 0.020739
0.116798 0.116295 0.019912
0.131048 0.116996 0.019234
0.145231 0.117260 0.018771
0.159475 0.117347 0.018413
0.174021 0.117521 0.018033
0.188883 0.117819 0.017601
0.204077 0.118266 0.017081
0.219614 0.118891 0.016439
0.235484 0.119741 0.015668
0.251649 0.120890 0.014810
0.268033 0.122471 0.013990
0.284545 0.124571 0.013308
0.301023 0.127255 0.012925
0.317198 0.130553 0.013104
0.332629 0.134410 0.014246
0.347186 0.138905 0.016532
0.361575 0.144552 0.019618
0.375803 0.151509 0.023730
0.389859 0.159898 0.029184
0.403707 0.169775 0.036401
0.416918 0.180855 0.046046
0.429498 0.193041 0.058619
0.441617 0.206311 0.074717
0.453450 0.220622 0.093253
0.465122 0.235889 0.112443
0.476417 0.251729 0.132054
0.487323 0.267917 0.151866
0.497876 0.284284 0.171706
0.508111 0.300681 0.191431
0.518064 0.316983 0.210925
0.527774 0.333094 0.230099
0.537281 0.348940 0.248884
0.546628 0.364476 0.267234
0.555859 0.379673 0.285122
0.565020 0.394529 0.302540
0.574393 0.409279 0.319710
0.584128 0.424051 0.336759
0.594239 0.438849 0.353692
0.604738 0.453678 0.370515
0.615631 0.468547 0.387237
0.626919 0.483464 0.403866
0.638597 0.498434 0.420407
0.650654 0.513461 0.436867
0.663077 0.528546 0.453250
0.675846 0.543687 0.469560
0.688938 0.558884 0.485801
0.702330 0.574132 0.501976
0.715997 0.589427 0.518091
0.729911 0.604764 0.534149
0.744050 0.620141 0.550155
0.758387 0.635551 0.566114
0.772901 0.650992 0.582029
0.787569 0.666458 0.597906
0.802374 0.681948 0.613749
0.817296 0.697457 0.629562
0.832320 0.712984 0.645348
0.847433 0.728525 0.661112
0.862621 0.744079 0.676855
0.035057 0.095551 0.034640
0.039375 0.106166 0.029722
0.048883 0.113092 0.027267
0.060723 0.118267 0.025194
0.074209 0.122147 0.023433
0.087902 0.125010 0.021973
0.101760 0.127259 0.020696
0.116116 0.128940 0.019634
0.130624 0.130021 0.018836
0.145209 0.130687 0.018134
0.159701 0.130958 0.017642
0.174268 0.131114 0.017246
0.189131 0.131396 0.016829
0.204307 0.131843 0.016354
0.219814 0.132483 0.015781
0.235655 0.133349 0.015081
0.251804 0.134487 0.014266
0.268195 0.135968 0.013416
0.284706 0.137902 0.012719
0.301175 0.140336 0.012341
0.317334 0.143265 0.012546
0.332745 0.146596 0.013732
0.347286 0.150410 0.016073
0.361663 0.155271 0.019221
0.375880 0.161349 0.023402
0.389926 0.168783 0.028932
0.403764 0.177656 0.036232
0.416965 0.187708 0.045967
0.429538 0.198892 0.058635
0.441652 0.211223 0.074830
0.453481 0.224687 0.093427
0.465150 0.239210 0.112652
0.476441 0.254414 0.132277
0.487345 0.270070 0.152090
0.497896 0.285999 0.171920
0.508130 0.302042 0.191629
0.518082 0.318061 0.211104
0.527791 0.333946 0.230258
0.537297 0.349615 0.249024
0.546643 0.365010 0.267356
0.555873 0.380098 0.285227
0.565034 0.394867 0.302630
0.574406 0.409550 0.319788
0.584141 0.424269 0.336826
0.594252 0.439025 0.353748
0.604750 0.453820 0.370563
0.615642 0.468663 0.387278
0.626929 0.483559 0.403900
0.638606 0.498512 0.420437
0.650663 0.513525 0.436892
0.663085 0.528598 0.453271
0.675853 0.543731 0.469578
0.688944 0.558920 0.485816
0.702336 0.574162 0.501989
0.716001 0.589451 0.518102
0.729915 0.604785 0.534158
0.744053 0.620158 0.550163
0.758390 0.635566 0.566120
0.772903 0.651004 0.582034
0.787572 0.666469 0.597911
0.802375 0.681957 0.613753
0.817297 0.697465 0.629565
0.832322 0.712990 0.645351
0.847434 0.728530 0.661114
0.862622 0.744083 0.676857
0.031719 0.112925 0.030996
0.039213 0.120128 0.028826
0.049030 0.125807 0.026898
0.060658 0.130369 0.025135
0.073707 0.134039 0.023520
0.087062 0.136959 0.022068
0.100761 0.139462 0.020676
0.115185 0.141555 0.019380
0.129963 0.143109 0.018314
0.144789 0.144097 0.017520
0.159705 0.144774 0.016773
0.174506 0.145095 0.016244
0.189392 0.145356 0.015812
0.204569 0.145783 0.015365
0.220055 0.146416 0.014860
0.235865 0.147285 0.014256
0.251985 0.148417 0.013537
0.268359 0.149851 0.012744
0.284876 0.151634 0.012019
0.301341 0.153834 0.011635
0.317486 0.156421 0.011863
0.332875 0.159265 0.013100
0.347402 0.162446 0.015505
0.361766 0.166572 0.018727
0.375970 0.171814 0.022992
0.390004 0.178324 0.028614
0.403831 0.186208 0.036015
0.417022 0.195228 0.045859
0.429586 0.205381 0.058641
0.441693 0.216726 0.074953
0.453517 0.229283 0.093627
0.465182 0.242998 0.112895
0.476470 0.257498 0.132539
0.487371 0.272557 0.152351
0.497920 0.287991 0.172171
0.508152 0.303629 0.191862
0.518103 0.319321 0.211315
0.527810 0.334945 0.230446
0.537315 0.350407 0.249189
0.546661 0.365639 0.267500
0.555889 0.380598 0.285352
0.565050 0.395266 0.302737
0.574422 0.409870 0.319880
0.584156 0.424527 0.336904
0.594266 0.439233 0.353815
0.604764 0.453989 0.370620
0.615655 0.468801 0.387327
0.626941 0.483671 0.403942
0.638617 0.498604 0.420472
0.650673 0.513601 0.436922
0.663094 0.528661 0.453296
0.675861 0.543783 0.469599
0.688951 0.558963 0.485833
0.702342 0.574197 0.502004
0.716007 0.589481 0.518114
0.729920 0.604810 0.534169
0.744057 0.620179 0.550172
0.758394 0.635583 0.566128
0.772906 0.651018 0.582041
0.787574 0.666481 0.597916
0.802378 0.681967 0.613758
0.817299 0.697473 0.629569
0.832323 0.712997 0.645354
0.847435 0.728536 0.661117
0.862624 0.744088 0.676859
0.030865 0.128530 0.029765
0.039179 0.134196 0.028093
0.049211 0.138933 0.026509
0.060677 0.142937 0.024980
0.073351 0.146324 0.023504
0.086345 0.149172 0.022098
0.099783 0.151780 0.020652
0.114117 0.154156 0.019180
0.129032 0.156137 0.017820
0.144179 0.157598 0.016722
0.159287 0.158518 0.015920
0.174529 0.159249 0.015111
0.189640 0.159661 0.014540
0.204844 0.160063 0.014078
0.220331 0.160671 0.013616
0.236118 0.161521 0.013108
0.252204 0.162638 0.012517
0.268548 0.164037 0.011852
0.285047 0.165728 0.011204
0.301515 0.167716 0.010799
0.317652 0.169986 0.011038
0.333021 0.172379 0.012325
0.347533 0.174978 0.014804
0.361883 0.178420 0.018114
0.376074 0.182876 0.022479
0.390095 0.188505 0.028213
0.403910 0.195426 0.035737
0.417087 0.203419 0.045713
0.429642 0.212527 0.058633
0.441742 0.222852 0.075087
0.453560 0.234450 0.093854
0.465220 0.247294 0.113176
0.476504 0.261024 0.132843
0.487402 0.275420 0.152658
0.497948 0.290297 0.172465
0.508178 0.305474 0.192135
0.518127 0.320792 0.211564
0.527833 0.336115 0.230668
0.537337 0.351337 0.249384
0.546682 0.366379 0.267670
0.555909 0.381188 0.285498
0.565069 0.395737 0.302863
0.574440 0.410248 0.319988
0.584174 0.424831 0.336997
0.594283 0.439478 0.353895
0.604780 0.454188 0.370688
0.615670 0.468963 0.387384
0.626955 0.483804 0.403990
0.638629 0.498713 0.420513
0.650684 0.513690 0.436957
0.663104 0.528735 0.453325
0.675870 0.543844 0.469624
0.688960 0.559013 0.485854
0.702349 0.574239 0.502022
0.716013 0.589516 0.518129
0.729926 0.604839 0.534181
0.744062 0.620203 0.550182
0.758398 0.635603 0.566137
0.772910 0.651035 0.582048
0.787578 0.666495 0.597923
0.802381 0.681979 0.613763
0.817302 0.697483 0.629574
0.832325 0.713006 0.645358
0.847437 0.728544 0.661120
0.862625 0.744094 0.676862
0.030366 0.143916 0.028769
0.039250 0.148496 0.027412
0.049450 0.152484 0.026066
0.060803 0.155983 0.024716
0.073172 0.159052 0.023366
0.085821 0.161740 0.022030
0.098947 0.164324 0.020583
0.113068 0.166835 0.019007
0.127953 0.169120 0.017407
0.143295 0.171019 0.015947
0.158761 0.172409 0.014798
0.174117 0.173280 0.013981
0.189681 0.174105 0.013097
0.205103 0.174649 0.012483
0.220620 0.175227 0.012006
0.236407 0.176042 0.011559
0.252468 0.177126 0.011101
0.268776 0.178484 0.010608
0.285242 0.180104 0.010130
0.301691 0.181944 0.009832
0.317826 0.183927 0.010063
0.333180 0.185906 0.011391
0.347679 0.187969 0.013945
0.362016 0.190781 0.017355
0.376193 0.194504 0.021841
0.390201 0.199298 0.027709
0.404001 0.205294 0.035380
0.417165 0.212282 0.045517
0.429708 0.220344 0.058603
0.441799 0.229626 0.075229
0.453611 0.240224 0.094111
0.465266 0.252141 0.113500
0.476544 0.265036 0.133198
0.487438 0.278702 0.153017
0.497981 0.292956 0.172811
0.508209 0.307614 0.192458
0.518156 0.322505 0.211857
0.527861 0.337483 0.230929
0.537363 0.352427 0.249615
0.546706 0.367248 0.267870
0.555933 0.381881 0.285672
0.565091 0.396292 0.303012
0.574462 0.410693 0.320116
0.584195 0.425190 0.337107
0.594303 0.439769 0.353988
0.604799 0.454424 0.370768
0.615688 0.469155 0.387452
0.626971 0.483961 0.404048
0.638645 0.498841 0.420562
0.650698 0.513796 0.436998
0.663117 0.528822 0.453361
0.675881 0.543916 0.469653
0.688970 0.559073 0.485879
0.702358 0.574289 0.502043
0.716021 0.589558 0.518147
0.729933 0.604874 0.534196
0.744068 0.620232 0.550195
0.758403 0.635628 0.566147
0.772915 0.651056 0.582057
0.787581 0.666512 0.597930
0.802384 0.681993 0.613769
0.817304 0.697495 0.629579
0.832328 0.713016 0.645363
0.847439 0.728552 0.661124
0.862627 0.744101 0.676865
0.030116 0.159318 0.027862
0.039429 0.163083 0.026715
0.049777 0.166461 0.025541
0.061061 0.169507 0.024332
0.073200 0.172253 0.023094
0.085538 0.174729 0.021835
0.098343 0.177196 0.020427
0.112179 0.179711 0.018811
0.126894 0.182154 0.017051
0.142257 0.184374 0.015277
0.157967 0.186211 0.013684
0.173707 0.187546 0.012470
0.189278 0.188383 0.011636
0.205163 0.189341 0.010668
0.220895 0.190051 0.010021
0.236713 0.190830 0.009562
0.252772 0.191865 0.009190
0.269051 0.193170 0.008876
0.285478 0.194716 0.008628
0.301890 0.196438 0.008557
0.318003 0.198208 0.008941
0.333348 0.199811 0.010289
0.347840 0.201385 0.012910
0.362166 0.203617 0.016427
0.376329 0.206661 0.021048
0.390323 0.210675 0.027074
0.404108 0.215790 0.034923
0.417255 0.221805 0.045252
0.429785 0.228835 0.058540
0.441866 0.237066 0.075373
0.453671 0.246634 0.094398
0.465319 0.257577 0.113871
0.476592 0.269576 0.133609
0.487481 0.282447 0.153435
0.498021 0.296012 0.173215
0.508246 0.310087 0.192836
0.518190 0.324495 0.212201
0.527893 0.339078 0.231237
0.537394 0.353702 0.249886
0.546736 0.368267 0.268107
0.555961 0.382696 0.285877
0.565117 0.396944 0.303188
0.574488 0.411218 0.320268
0.584220 0.425613 0.337237
0.594327 0.440111 0.354099
0.604822 0.454703 0.370862
0.615709 0.469382 0.387532
0.626991 0.484146 0.404116
0.638663 0.498994 0.420620
0.650715 0.513921 0.437047
0.663131 0.528926 0.453402
0.675894 0.544002 0.469688
0.688981 0.559144 0.485909
0.702368 0.574348 0.502068
0.716030 0.589607 0.518168
0.729941 0.604915 0.534214
0.744075 0.620266 0.550210
0.758409 0.635656 0.566160
0.772920 0.651080 0.582068
0.787586 0.666532 0.597939
0.802388 0.682010 0.613777
0.817308 0.697510 0.629585
0.832330 0.713028 0.645368
0.847442 0.728562 0.661128
0.862629 0.744110 0.676869
0.030080 0.174858 0.026956
0.039740 0.177989 0.025954
0.050231 0.180861 0.024907
0.061490 0.183504 0.023811
0.073468 0.185938 0.022669
0.085536 0.188182 0.021489
0.098036 0.190475 0.020138
0.111559 0.192896 0.018537
0.126014 0.195364 0.016695
0.141246 0.197760 0.014698
0.157021 0.199933 0.012700
0.173047 0.201722 0.010943
0.189020 0.203013 0.009652
0.204773 0.203828 0.008808
0.220976 0.204952 0.007757
0.237005 0.205854 0.007105
0.253096 0.206841 0.006727
0.269371 0.208079 0.006535
0.285764 0.209544 0.006529
0.302132 0.211152 0.006768
0.318202 0.212747 0.007459
0.333519 0.214059 0.009025
0.348009 0.215192 0.011694
0.362329 0.216895 0.015308
0.376481 0.219314 0.020076
0.390461 0.222601 0.026284
0.404230 0.226888 0.034341
0.417360 0.231971 0.044900
0.429875 0.237994 0.058432
0.441945 0.245180 0.075512
0.453742 0.253702 0.094716
0.465383 0.263633 0.114295
