looks/Brejon_A1_TLog_EGamut2_v007_65.cube
# The Brejon Look Modification Transform
# Brejon for ACES 1.3 v007 - A pleasing, colorful and natural look for ACES 1.3
# Created by Chris Brejon - chrisbrejon.com - 2026-02-02 10:36:26
# 3 columns rgb, 274625 rows
# Width     65 65 65
# Process Color Space = TLog - Egamut2
# LUT size
LUT_3D_SIZE 5
0.021066 0.021066 0.021066
0.250821 0.023330 0.015513
0.477228 0.223200 0.116807
0.637518 0.500456 0.394741
0.859336 0.750310 0.656482
0.024471 0.233748 0.022440
0.249054 0.248365 0.020825
0.477875 0.285204 0.121210
0.637754 0.502299 0.395476
0.859363 0.750408 0.656531
0.236815 0.468846 0.123954
0.290205 0.470064 0.151067
0.481853 0.480313 0.235568
0.641095 0.525873 0.405522
0.859754 0.751820 0.657245
0.512868 0.626785 0.425416
0.514316 0.626964 0.426692
0.533122 0.629611 0.443219
0.666274 0.666131 0.513800
0.865420 0.771381 0.667366
0.736261 0.827530 0.655744
0.736356 0.827566 0.655839
0.737715 0.828073 0.657190
0.756573 0.835387 0.675579
0.901180 0.901250 0.761796
0.051005 0.101552 0.229990
0.251843 0.011074 0.252794
0.476715 0.232498 0.255867
0.637589 0.500808 0.401903
0.859348 0.750331 0.656827
0.088075 0.243213 0.242527
0.251878 0.251878 0.251878
0.477526 0.289355 0.255655
0.637824 0.502643 0.402583
0.859375 0.750430 0.656877
0.246787 0.470248 0.239828
0.296047 0.471340 0.249078
0.482525 0.480921 0.292350
0.641163 0.526137 0.411922
0.859766 0.751841 0.657588
0.513334 0.626990 0.428912
0.514776 0.627169 0.430151
0.533525 0.629808 0.446255
0.666434 0.666283 0.515792
0.865431 0.771399 0.667679
0.736308 0.827568 0.655941
0.736403 0.827603 0.656035
0.737761 0.828110 0.657385
0.756615 0.835421 0.675755
0.901197 0.901266 0.761918
0.235578 0.317210 0.470592
0.290904 0.316377 0.471921
0.476852 0.299691 0.485627
0.638743 0.505881 0.470804
0.859526 0.750640 0.661682
0.246720 0.341669 0.471565
0.296678 0.341428 0.472836
0.477528 0.332321 0.485877
0.638973 0.507620 0.471119
0.859553 0.750738 0.661730
0.333686 0.480428 0.475121
0.356253 0.480840 0.476547
0.487754 0.487754 0.487754
0.642252 0.530008 0.475556
0.859942 0.752146 0.662410
0.519793 0.629981 0.468871
0.521171 0.630152 0.469766
0.539142 0.632669 0.481785
0.668689 0.668421 0.540943
0.865585 0.771658 0.672082
0.736982 0.828102 0.658733
0.737076 0.828137 0.658825
0.738429 0.828641 0.660152
0.757220 0.835904 0.678255
0.901429 0.901491 0.763649
0.454081 0.531777 0.668225
0.458000 0.531734 0.668353
0.501458 0.531850 0.670008
0.667910 0.566840 0.685077
0.862361 0.755368 0.715954
0.455049 0.533413 0.668274
0.458925 0.533372 0.668403
0.502008 0.533499 0.670058
0.668029 0.567977 0.685114
0.862387 0.755462 0.715983
0.468133 0.554250 0.668963
0.471468 0.554227 0.669091
0.509701 0.554461 0.670746
0.669729 0.582991 0.685639
0.862750 0.756818 0.716393
0.570944 0.672673 0.661608
0.571975 0.672780 0.661841
0.585778 0.674291 0.665043
0.692244 0.692243 0.692244
0.868046 0.775636 0.722334
0.746569 0.835787 0.694171
0.746659 0.835819 0.694247
0.747947 0.836273 0.695326
0.765848 0.842850 0.710325
0.904813 0.904751 0.786873
0.707154 0.781020 0.907699
0.707383 0.781017 0.907710
0.710617 0.780967 0.907869
0.749263 0.780989 0.909996
0.909564 0.816838 0.927850
0.707217 0.781119 0.907703
0.707445 0.781116 0.907714
0.710677 0.781066 0.907873
0.749301 0.781089 0.910000
0.909574 0.816907 0.927853
0.708114 0.782532 0.907762
0.708340 0.782529 0.907773
0.711539 0.782482 0.907932
0.749848 0.782522 0.910057
0.909705 0.817899 0.927896
0.720751 0.801522 0.908614
0.720946 0.801520 0.908624
0.723716 0.801497 0.908781
0.757785 0.801719 0.910880
0.911651 0.831651 0.928531
0.815985 0.910326 0.898480
0.816052 0.910338 0.898501
0.817000 0.910501 0.898794
0.830325 0.912858 0.902963
0.936432 0.936432 0.936432
