looks/PFE_ACEScct_003_Brejon.cube
TITLE "Generated by Foundry::LUT"
LUT_3D_SIZE 5
0.006051 0.006051 0.006051
0.246395 0.005046 0.002223
0.478887 0.229396 0.064424
0.636415 0.495797 0.412722
0.864932 0.736095 0.660432
0.020692 0.201170 0.017735
0.249015 0.245383 -0.001534
0.479338 0.296205 0.069570
0.636605 0.497198 0.413216
0.864945 0.736158 0.660457
0.239485 0.465300 0.063896
0.298545 0.467271 0.080990
0.484856 0.482138 0.082846
0.639502 0.516763 0.420365
0.865157 0.737123 0.660851
0.497030 0.624007 0.430727
0.498393 0.624252 0.431477
0.517399 0.627944 0.441989
0.668672 0.669008 0.464912
0.869434 0.755622 0.668527
0.734399 0.850915 0.676628
0.734462 0.850932 0.676665
0.735429 0.851199 0.677243
0.753851 0.856544 0.688209
0.908593 0.909502 0.716115
0.004444 0.047218 0.247266
0.248231 0.012270 0.248231
0.478828 0.234386 0.250897
0.636536 0.496024 0.417183
0.864941 0.736109 0.660616
0.027110 0.234491 0.231284
0.247513 0.247513 0.247513
0.479344 0.298004 0.252207
0.636726 0.497423 0.417659
0.864955 0.736171 0.660641
0.243898 0.466322 0.235247
0.301242 0.468091 0.244110
0.485397 0.482659 0.254629
0.639616 0.516954 0.424555
0.865167 0.737137 0.661034
0.497345 0.624223 0.433498
0.498707 0.624467 0.434234
0.517691 0.628143 0.444580
0.668788 0.669133 0.467834
0.869443 0.755634 0.668701
0.734418 0.850930 0.676739
0.734481 0.850948 0.676777
0.735448 0.851215 0.677354
0.753869 0.856558 0.688315
0.908601 0.909509 0.716242
0.158525 0.322510 0.485885
0.282877 0.318223 0.486794
0.485103 0.313048 0.485103
0.638460 0.499680 0.466848
0.865090 0.736323 0.663416
0.177020 0.351368 0.485218
0.286190 0.348888 0.486184
0.485363 0.344992 0.485363
0.638642 0.501038 0.467174
0.865104 0.736385 0.663441
0.286538 0.483176 0.476116
0.326018 0.483729 0.477924
0.490308 0.490308 0.490308
0.641416 0.520045 0.471970
0.865315 0.737349 0.663826
0.501892 0.627473 0.468041
0.503235 0.627702 0.468641
0.521949 0.631153 0.477236
0.670546 0.671024 0.504020
0.869580 0.755820 0.671353
0.734712 0.851166 0.678449
0.734775 0.851183 0.678487
0.735742 0.851449 0.679059
0.754146 0.856774 0.689941
0.908711 0.909626 0.718181
0.494575 0.579926 0.667714
0.497034 0.579847 0.667785
0.527317 0.578610 0.668980
0.683721 0.564331 0.683721
0.868198 0.740840 0.707771
0.495120 0.580634 0.667754
0.497563 0.580557 0.667825
0.527683 0.579350 0.669013
0.683768 0.565267 0.683768
0.868211 0.740901 0.707790
0.502996 0.590847 0.668398
0.505230 0.590796 0.668460
0.533112 0.589975 0.669544
0.684497 0.578576 0.684497
0.868410 0.741836 0.708082
0.554155 0.676532 0.663623
0.555187 0.676630 0.663803
0.569869 0.678087 0.666514
0.697343 0.697343 0.697343
0.872435 0.759772 0.713849
0.740429 0.855875 0.708473
0.740491 0.855891 0.708505
0.741442 0.856139 0.709005
0.759555 0.861104 0.718648
0.910942 0.911990 0.751442
0.764841 0.833886 0.903975
0.764921 0.833883 0.903981
0.766153 0.833836 0.904062
0.787745 0.832818 0.905896
0.927648 0.812546 0.927648
0.764861 0.833912 0.903979
0.764942 0.833909 0.903984
0.766173 0.833863 0.904065
0.787761 0.832846 0.905899
0.927651 0.812588 0.927651
0.765176 0.834324 0.904036
0.765256 0.834321 0.904041
0.766483 0.834276 0.904121
0.788007 0.833281 0.905945
0.927693 0.813247 0.927693
0.771314 0.842471 0.905228
0.771389 0.842469 0.905233
0.772547 0.842442 0.905303
0.792904 0.841829 0.906924
0.928557 0.825930 0.928557
0.805335 0.918041 0.904483
0.805381 0.918047 0.904493
0.806075 0.918139 0.904650
0.819534 0.919989 0.907811
0.943140 0.943140 0.943140
