looks/PFE_ACEScct_003_Brejon.cube
TITLE "Generated by Foundry::LUT"
LUT_3D_SIZE 65
0.006051 0.006051 0.006051
0.019972 0.007076 0.005885
0.033452 0.008740 0.007260
0.045883 0.011137 0.011126
0.056142 0.015540 0.017136
0.059489 0.024654 0.026536
0.053727 0.031982 0.037309
0.048414 0.038091 0.041701
0.046009 0.042860 0.043909
0.074561 0.028652 0.043890
0.103111 0.014374 0.043771
0.131313 0.006086 0.039659
0.160688 0.005848 0.029643
0.189095 0.005601 0.017313
0.213688 0.005222 0.003624
0.229919 0.005198 0.003010
0.246395 0.005046 0.002223
0.263048 0.004944 0.001268
0.279859 0.004999 0.000153
0.296775 0.005379 -0.001076
0.313686 0.006359 -0.002303
0.330385 0.008356 -0.003302
0.346511 0.011968 -0.003675
0.361557 0.017909 -0.002857
0.376122 0.026144 -0.001305
0.390474 0.037092 0.000882
0.404596 0.051559 0.003925
0.418467 0.070553 0.008118
0.431664 0.095211 0.014133
0.444118 0.126552 0.022375
0.456028 0.165217 0.033145
0.467592 0.200069 0.046918
0.478887 0.229396 0.064424
0.489694 0.255016 0.086548
0.500041 0.277997 0.114140
0.509978 0.298968 0.148134
0.519553 0.318329 0.183910
0.528823 0.336352 0.213219
0.537851 0.353244 0.238358
0.546703 0.369166 0.260641
0.555448 0.384257 0.280825
0.564150 0.398639 0.299396
0.573043 0.412592 0.316861
0.582380 0.426416 0.333665
0.592192 0.440185 0.349985
0.602499 0.453962 0.365957
0.613310 0.467799 0.381686
0.624620 0.481735 0.397254
0.636415 0.495797 0.412722
0.648670 0.510000 0.428134
0.661354 0.524351 0.443520
0.674432 0.538848 0.458903
0.687865 0.553485 0.474295
0.701615 0.568254 0.489705
0.715644 0.583141 0.505135
0.729916 0.598136 0.520587
0.744399 0.613225 0.536061
0.759062 0.628396 0.551556
0.773881 0.643638 0.567070
0.788831 0.658941 0.582600
0.803892 0.674296 0.598144
0.819046 0.689696 0.613701
0.834279 0.705132 0.629269
0.849578 0.720600 0.644847
0.864932 0.736095 0.660432
0.005814 0.020232 0.005814
0.019238 0.018259 0.004592
0.032486 0.018885 0.005384
0.045942 0.020729 0.009875
0.056318 0.025398 0.018436
0.054487 0.032984 0.031987
0.048414 0.038091 0.041701
0.046009 0.042860 0.043909
0.074561 0.028652 0.043890
0.100069 0.020508 0.040700
0.121695 0.020428 0.033363
0.145990 0.020337 0.025084
0.173611 0.020130 0.014909
0.197617 0.019909 0.004161
0.213680 0.019999 0.003669
0.229953 0.020022 0.003047
0.246446 0.019985 0.002247
0.263114 0.020024 0.001273
0.279932 0.020255 0.000139
0.296850 0.020839 -0.001105
0.313759 0.022030 -0.002342
0.330453 0.024206 -0.003346
0.346571 0.027894 -0.003715
0.361608 0.033709 -0.002886
0.376168 0.041728 -0.001320
0.390516 0.052427 0.000886
0.404632 0.066610 0.003956
0.418499 0.085283 0.008181
0.431692 0.109511 0.014233
0.444143 0.140311 0.022515
0.456050 0.176116 0.033326
0.467613 0.207033 0.047142
0.478907 0.234089 0.064692
0.489713 0.258288 0.086858
0.500060 0.280333 0.114490
0.509995 0.300665 0.148519
0.519570 0.319580 0.184204
0.528840 0.337286 0.213438
0.537868 0.353947 0.238527
0.546719 0.369701 0.260774
0.555463 0.384668 0.280932
0.564165 0.398958 0.299483
0.573057 0.412842 0.316931
0.582394 0.426613 0.333723
0.592205 0.440342 0.350033
0.602511 0.454087 0.365997
0.613321 0.467900 0.381720
0.624630 0.481817 0.397282
0.636424 0.495863 0.412745
0.648678 0.510054 0.428153
0.661361 0.524395 0.443537
0.674438 0.538884 0.458917
0.687870 0.553515 0.474307
0.701619 0.568278 0.489714
0.715647 0.583161 0.505143
0.729919 0.598152 0.520594
0.744401 0.613238 0.536067
0.759065 0.628407 0.551561
0.773883 0.643647 0.567073
0.788832 0.658949 0.582603
0.803893 0.674303 0.598147
0.819047 0.689701 0.613704
0.834280 0.705137 0.629271
0.849578 0.720604 0.644848
0.864932 0.736098 0.660433
0.005397 0.034548 0.005397
0.019022 0.032759 0.002739
0.032212 0.030850 0.002881
0.046669 0.031029 0.008011
0.054841 0.035774 0.022944
0.049091 0.038938 0.037068
0.046009 0.042860 0.043909
0.071520 0.034776 0.040809
0.092988 0.034778 0.033566
0.114600 0.034715 0.026222
0.136399 0.034633 0.018781
0.160752 0.034528 0.010375
0.181648 0.034488 0.004589
0.197620 0.034576 0.004186
0.213728 0.034688 0.003689
0.230022 0.034789 0.003054
0.246522 0.034884 0.002241
0.263197 0.035074 0.001248
0.280018 0.035488 0.000098
0.296935 0.036281 -0.001160
0.313839 0.037688 -0.002405
0.330525 0.040046 -0.003410
0.346634 0.043813 -0.003773
0.361662 0.049500 -0.002931
0.376216 0.057306 -0.001348
0.390558 0.067758 0.000880
0.404670 0.081658 0.003978
0.418533 0.100011 0.008236
0.431721 0.123810 0.014327
0.444169 0.154069 0.022650
0.456073 0.185740 0.033504
0.467634 0.213453 0.047363
0.478927 0.238529 0.064957
0.489732 0.261435 0.087165
0.500078 0.282604 0.114838
0.510013 0.302329 0.148904
0.519588 0.320812 0.184496
0.528857 0.338208 0.213656
0.537884 0.354645 0.238696
0.546735 0.370234 0.260907
0.555479 0.385078 0.281038
0.564180 0.399276 0.299569
0.573072 0.413091 0.317002
0.582408 0.426810 0.333781
0.592218 0.440498 0.350082
0.602524 0.454212 0.366037
0.613332 0.468001 0.381753
0.624640 0.481898 0.397310
0.636433 0.495929 0.412769
0.648686 0.510108 0.428172
0.661368 0.524439 0.443553
0.674444 0.538920 0.458930
0.687876 0.553545 0.474318
0.701624 0.568302 0.489724
0.715651 0.583181 0.505150
0.729922 0.598169 0.520600
0.744404 0.613252 0.536072
0.759067 0.628418 0.551565
0.773885 0.643656 0.567077
0.788834 0.658956 0.582606
0.803894 0.674309 0.598149
0.819048 0.689706 0.613706
0.834281 0.705141 0.629273
0.849579 0.720608 0.644850
0.864933 0.736101 0.660434
0.004849 0.049198 0.004849
0.017976 0.048876 0.001611
0.031976 0.046689 -0.000617
0.048573 0.043285 0.005258
0.048083 0.045294 0.022787
0.044362 0.045035 0.043007
0.064088 0.048927 0.033824
0.085847 0.048996 0.026469
0.107509 0.048969 0.019097
0.129275 0.048925 0.011647
0.150138 0.048895 0.005181
0.165776 0.048968 0.004921
0.181681 0.049048 0.004594
0.197692 0.049156 0.004183
0.213829 0.049310 0.003671
0.230130 0.049505 0.003024
0.246622 0.049745 0.002202
0.263296 0.050101 0.001195
0.280115 0.050703 0.000029
0.297028 0.051710 -0.001240
0.313925 0.053336 -0.002491
0.330602 0.055879 -0.003495
0.346700 0.059724 -0.003848
0.361717 0.065286 -0.002990
0.376265 0.072879 -0.001389
0.390601 0.083085 0.000864
0.404708 0.096703 0.003990
0.418566 0.114736 0.008284
0.431750 0.138105 0.014415
0.444194 0.166953 0.022779
0.456096 0.194354 0.033677
0.467656 0.219408 0.047581
0.478948 0.242742 0.065220
0.489751 0.264467 0.087472
0.500097 0.284815 0.115184
0.510031 0.303959 0.149286
0.519605 0.322026 0.184786
0.528874 0.339121 0.213873
0.537901 0.355337 0.238864
0.546752 0.370763 0.261039
0.555494 0.385486 0.281144
0.564194 0.399593 0.299655
0.573086 0.413339 0.317072
0.582421 0.427006 0.333840
0.592231 0.440654 0.350130
0.602536 0.454337 0.366077
0.613343 0.468101 0.381787
0.624650 0.481980 0.397338
0.636442 0.495995 0.412792
0.648694 0.510162 0.428192
0.661375 0.524483 0.443569
0.674450 0.538956 0.458944
0.687881 0.553574 0.474329
0.701628 0.568327 0.489733
0.715655 0.583201 0.505158
0.729925 0.598185 0.520607
0.744407 0.613265 0.536078
0.759069 0.628429 0.551570
0.773887 0.643665 0.567081
0.788836 0.658964 0.582609
0.803896 0.674315 0.598152
0.819049 0.689711 0.613708
0.834282 0.705145 0.629275
0.849580 0.720611 0.644851
0.864933 0.736104 0.660436
0.004022 0.064406 0.004022
0.016422 0.066180 -0.000293
0.030702 0.068015 -0.008146
0.044332 0.056931 0.007928
0.044362 0.045035 0.043007
0.054077 0.058527 0.030744
0.076141 0.061715 0.021237
0.098524 0.062552 0.013072
0.119906 0.062915 0.006192
0.135397 0.063255 0.005468
0.150172 0.063363 0.005170
0.165855 0.063438 0.004906
0.181792 0.063534 0.004567
0.197827 0.063673 0.004141
0.213977 0.063882 0.003610
0.230275 0.064176 0.002949
0.246751 0.064568 0.002122
0.263411 0.065108 0.001110
0.280223 0.065907 -0.000067
0.297128 0.067131 -0.001344
0.314016 0.068978 -0.002599
0.330682 0.071707 -0.003599
0.346769 0.075631 -0.003940
0.361774 0.081067 -0.003064
0.376315 0.088448 -0.001442
0.390646 0.098409 0.000836
0.404747 0.111746 0.003995
0.418601 0.129460 0.008325
0.431779 0.152399 0.014496
0.444220 0.178096 0.022904
0.456120 0.202151 0.033846
0.467678 0.224961 0.047795
0.478968 0.246750 0.065480
0.489770 0.267391 0.087775
0.500115 0.286968 0.115529
0.510049 0.305558 0.149668
0.519623 0.323223 0.185074
0.528891 0.340024 0.214089
0.537918 0.356024 0.239031
0.546768 0.371289 0.261172
0.555510 0.385892 0.281250
0.564209 0.399908 0.299740
0.573100 0.413587 0.317142
0.582435 0.427202 0.333898
0.592244 0.440810 0.350178
0.602548 0.454462 0.366117
0.613354 0.468202 0.381820
0.624660 0.482061 0.397366
0.636451 0.496061 0.412815
0.648702 0.510216 0.428211
0.661382 0.524527 0.443585
0.674456 0.538992 0.458957
0.687886 0.553604 0.474340
0.701633 0.568351 0.489742
0.715659 0.583221 0.505166
0.729929 0.598202 0.520613
0.744409 0.613279 0.536083
0.759072 0.628440 0.551574
0.773889 0.643675 0.567084
0.788837 0.658972 0.582612
0.803897 0.674322 0.598154
0.819050 0.689717 0.613710
0.834283 0.705150 0.629276
0.849581 0.720615 0.644852
0.864934 0.736107 0.660437
0.002567 0.080778 0.002567
0.017776 0.078784 -0.000438
0.044332 0.056931 0.007928
0.044362 0.045035 0.043007
0.050630 0.060364 0.030666
0.066049 0.070477 0.018745
0.087409 0.074024 0.009808
0.104181 0.076188 0.007295
0.120078 0.077156 0.006098
0.135385 0.077584 0.005481
0.150300 0.077756 0.005136
0.166019 0.077845 0.004856
0.181970 0.077967 0.004500
0.198015 0.078148 0.004054
0.214167 0.078421 0.003503
0.230454 0.078816 0.002828
0.246907 0.079360 0.001998
0.263543 0.080092 0.000990
0.280340 0.081105 -0.000189
0.297234 0.082549 -0.001472
0.314111 0.084618 -0.002727
0.330766 0.087533 -0.003721
0.346839 0.091536 -0.004048
0.361833 0.096844 -0.003152
0.376366 0.104015 -0.001507
0.390691 0.113731 0.000800
0.404787 0.126787 0.003991
0.418635 0.144182 0.008358
0.431809 0.165964 0.014572
0.444246 0.187909 0.023024
0.456143 0.209274 0.034012
0.467700 0.230163 0.048007
0.478989 0.250571 0.065737
0.489790 0.270214 0.088077
0.500134 0.289067 0.115871
0.510067 0.307127 0.150047
0.519640 0.324403 0.185361
0.528909 0.340918 0.214303
0.537934 0.356705 0.239197
0.546784 0.371811 0.261304
0.555525 0.386296 0.281356
0.564224 0.400222 0.299825
0.573115 0.413834 0.317213
0.582449 0.427397 0.333956
0.592257 0.440965 0.350226
0.602560 0.454587 0.366157
0.613365 0.468302 0.381853
0.624670 0.482142 0.397394
0.636459 0.496127 0.412838
0.648709 0.510269 0.428231
0.661389 0.524571 0.443601
0.674462 0.539028 0.458971
0.687891 0.553633 0.474352
0.701637 0.568375 0.489752
0.715662 0.583241 0.505174
0.729932 0.598218 0.520620
0.744412 0.613292 0.536088
0.759074 0.628451 0.551578
0.773890 0.643684 0.567088
0.788839 0.658979 0.582615
0.803898 0.674328 0.598157
0.819051 0.689722 0.613712
0.834283 0.705154 0.629278
0.849582 0.720618 0.644854
0.864935 0.736109 0.660438
0.013337 0.074479 0.013337
0.034845 0.062202 0.014186
0.044362 0.045035 0.043007
0.050630 0.060364 0.030666
0.057084 0.075619 0.018756
0.072336 0.083722 0.012312
0.088319 0.087787 0.009083
0.104245 0.089949 0.007267
0.119908 0.091114 0.006202
0.135280 0.091735 0.005541
0.150403 0.092052 0.005106
0.166250 0.092214 0.004767
0.182202 0.092370 0.004392
0.198242 0.092600 0.003925
0.214387 0.092942 0.003354
0.230659 0.093438 0.002663
0.247087 0.094129 0.001830
0.263693 0.095056 0.000830
0.280466 0.096293 -0.000339
0.297346 0.097967 -0.001621
0.314211 0.100259 -0.002875
0.330852 0.103359 -0.003861
0.346912 0.107440 -0.004172
0.361893 0.112619 -0.003253
0.376419 0.119579 -0.001584
0.390737 0.129051 0.000753
0.404827 0.141826 0.003978
0.418671 0.158824 0.008385
0.431839 0.177643 0.014642
0.444272 0.196675 0.023139
0.456167 0.215828 0.034173
0.467722 0.235056 0.048214
0.479009 0.254224 0.065992
0.489809 0.272944 0.088376
0.500152 0.291113 0.116212
0.510085 0.308666 0.150426
0.519658 0.325567 0.185646
0.528926 0.341802 0.214517
0.537951 0.357380 0.239363
0.546800 0.372331 0.261435
0.555541 0.386698 0.281462
0.564238 0.400536 0.299911
0.573129 0.414080 0.317283
0.582463 0.427592 0.334014
0.592270 0.441120 0.350274
0.602572 0.454711 0.366197
0.613376 0.468402 0.381887
0.624680 0.482223 0.397421
0.636468 0.496193 0.412861
0.648717 0.510323 0.428250
0.661396 0.524615 0.443618
0.674468 0.539064 0.458984
0.687896 0.553663 0.474363
0.701641 0.568399 0.489761
0.715666 0.583261 0.505182
0.729935 0.598235 0.520626
0.744415 0.613306 0.536094
0.759076 0.628463 0.551583
0.773892 0.643693 0.567092
0.788840 0.658987 0.582618
0.803900 0.674334 0.598159
0.819053 0.689727 0.613714
0.834284 0.705158 0.629280
0.849582 0.720622 0.644855
0.864935 0.736112 0.660439
0.029210 0.058609 0.029210
0.044362 0.045035 0.043007
0.050027 0.060597 0.031171
0.051880 0.076885 0.022855
0.058669 0.090070 0.015656
0.073022 0.096818 0.011493
0.088367 0.100839 0.008999
0.103962 0.103250 0.007475
0.119576 0.104746 0.006393
0.135061 0.105651 0.005646
0.150387 0.106190 0.005109
0.166473 0.106532 0.004665
0.182469 0.106760 0.004248
0.198497 0.107044 0.003760
0.214628 0.107459 0.003168
0.230883 0.108055 0.002461
0.247286 0.108886 0.001622
0.263861 0.110004 0.000630
0.280604 0.111469 -0.000522
0.297462 0.113386 -0.001791
0.314313 0.115904 -0.003040
0.330941 0.119189 -0.004016
0.346986 0.123344 -0.004310
0.361955 0.128394 -0.003367
0.376473 0.135143 -0.001671
0.390783 0.144370 0.000697
0.404868 0.156849 0.003958
0.418706 0.171835 0.008404
0.431869 0.187869 0.014706
0.444299 0.204597 0.023249
0.456191 0.221900 0.034330
0.467744 0.239674 0.048419
0.479030 0.257721 0.066243
0.489829 0.275587 0.088673
0.500171 0.293110 0.116551
0.510103 0.310178 0.150802
0.519675 0.326714 0.185928
0.528943 0.342676 0.214730
0.537968 0.358050 0.239529
0.546816 0.372847 0.261566
0.555556 0.387098 0.281567
0.564253 0.400848 0.299996
0.573143 0.414326 0.317353
0.582476 0.427787 0.334072
0.592283 0.441275 0.350322
0.602584 0.454835 0.366237
0.613387 0.468502 0.381920
0.624690 0.482304 0.397449
0.636477 0.496259 0.412885
0.648725 0.510377 0.428269
0.661403 0.524659 0.443634
0.674474 0.539100 0.458998
0.687901 0.553692 0.474374
0.701646 0.568424 0.489770
0.715670 0.583281 0.505189
0.729938 0.598251 0.520633
0.744418 0.613319 0.536099
0.759078 0.628474 0.551587
0.773894 0.643702 0.567096
0.788842 0.658994 0.582621
0.803901 0.674340 0.598162
0.819054 0.689732 0.613716
0.834285 0.705163 0.629282
0.849583 0.720625 0.644857
0.864936 0.736115 0.660440
0.043716 0.044879 0.043715
0.045311 0.060674 0.035832
0.047000 0.076399 0.027904
0.048695 0.092163 0.019882
0.059210 0.102606 0.014607
0.073154 0.109109 0.011315
0.088169 0.113404 0.009114
0.103614 0.116215 0.007636
0.119144 0.118030 0.006635
0.134726 0.119289 0.005793
0.150225 0.120116 0.005153
0.166546 0.120707 0.004602
0.182738 0.121138 0.004085
0.198766 0.121492 0.003568
0.214881 0.121982 0.002954
0.231117 0.122678 0.002229
0.247497 0.123644 0.001380
0.264042 0.124942 0.000394
0.280753 0.126635 -0.000739
0.297585 0.128801 -0.001985
0.314418 0.131555 -0.003220
0.331032 0.135023 -0.004186
0.347062 0.139252 -0.004461
0.362018 0.144170 -0.003492
0.376527 0.150708 -0.001769
0.390831 0.159574 0.000631
0.404910 0.170417 0.003929
0.418743 0.183068 0.008417
0.431900 0.196964 0.014764
0.444325 0.211822 0.023355
0.456215 0.227553 0.034484
0.467767 0.244048 0.048621
0.479051 0.261076 0.066493
0.489848 0.278148 0.088968
0.500190 0.295060 0.116888
0.510121 0.311662 0.151178
0.519693 0.327846 0.186209
0.528960 0.343542 0.214942
0.537985 0.358715 0.239693
0.546832 0.373360 0.261697
0.555571 0.387496 0.281672
0.564268 0.401159 0.300081
0.573157 0.414571 0.317423
0.582490 0.427981 0.334129
0.592296 0.441430 0.350370
0.602596 0.454959 0.366277
0.613398 0.468602 0.381953
0.624700 0.482385 0.397477
0.636486 0.496325 0.412908
0.648733 0.510431 0.428289
0.661410 0.524702 0.443650
0.674480 0.539136 0.459011
0.687907 0.553722 0.474385
0.701650 0.568448 0.489780
0.715674 0.583301 0.505197
0.729941 0.598268 0.520639
0.744420 0.613333 0.536104
0.759081 0.628485 0.551592
0.773896 0.643712 0.567099
0.788844 0.659002 0.582624
0.803902 0.674347 0.598164
0.819055 0.689737 0.613718
0.834286 0.705167 0.629283
0.849584 0.720629 0.644858
0.864937 0.736118 0.660441
0.041109 0.058132 0.041036
0.042370 0.074418 0.033313
0.043941 0.090441 0.025315
0.047728 0.105218 0.018072
0.059460 0.114407 0.014150
0.073134 0.120966 0.011325
0.087906 0.125618 0.009282
0.103230 0.128874 0.007808
0.118756 0.131108 0.006751
0.134291 0.132627 0.005978
0.149926 0.133792 0.005241
0.166466 0.134689 0.004586
0.182882 0.135404 0.003958
0.199038 0.135950 0.003360
0.215137 0.136518 0.002722
0.231356 0.137313 0.001975
0.247715 0.138409 0.001112
0.264233 0.139881 0.000126
0.280913 0.141794 -0.000989
0.297715 0.144212 -0.002207
0.314526 0.147210 -0.003418
0.331124 0.150864 -0.004370
0.347140 0.155163 -0.004625
0.362081 0.159818 -0.003629
0.376582 0.165595 -0.001877
0.390879 0.172961 0.000557
0.404952 0.182063 0.003893
0.418779 0.192951 0.008424
0.431931 0.205154 0.014818
0.444352 0.218465 0.023456
0.456239 0.232844 0.034634
0.467789 0.248200 0.048819
0.479072 0.264300 0.066739
0.489868 0.280632 0.089261
0.500209 0.296965 0.117224
0.510139 0.313120 0.151552
0.519711 0.328963 0.186489
0.528977 0.344399 0.215152
0.538001 0.359375 0.239857
0.546849 0.373870 0.261827
0.555587 0.387893 0.281777
0.564282 0.401469 0.300166
0.573172 0.414815 0.317493
0.582504 0.428174 0.334187
0.592309 0.441585 0.350418
0.602608 0.455083 0.366317
0.613410 0.468702 0.381987
0.624710 0.482466 0.397505
0.636495 0.496391 0.412931
0.648741 0.510484 0.428308
0.661417 0.524746 0.443666
0.674486 0.539172 0.459025
0.687912 0.553751 0.474397
0.701655 0.568472 0.489789
0.715678 0.583321 0.505205
0.729945 0.598284 0.520646
0.744423 0.613347 0.536110
0.759083 0.628496 0.551596
0.773898 0.643721 0.567103
0.788845 0.659010 0.582627
0.803904 0.674353 0.598167
0.819056 0.689743 0.613720
0.834287 0.705171 0.629285
0.849585 0.720632 0.644860
0.864937 0.736121 0.660443
0.038528 0.071429 0.038333
0.039630 0.087856 0.030660
0.041058 0.104138 0.022661
0.047906 0.117019 0.017187
0.059617 0.125881 0.013898
0.073081 0.132577 0.011380
0.087646 0.137589 0.009450
0.102846 0.141284 0.007976
0.118351 0.143959 0.006860
0.133938 0.145855 0.006024
0.149512 0.147207 0.005369
0.166248 0.148453 0.004617
0.182884 0.149507 0.003881
0.199242 0.150361 0.003171
0.215389 0.151076 0.002481
0.231593 0.151971 0.001708
0.247935 0.153195 0.000827
0.264430 0.154833 -0.000166
0.281080 0.156940 -0.001269
0.297852 0.159511 -0.002458
0.314637 0.162539 -0.003636
0.331217 0.165989 -0.004564
0.347218 0.169735 -0.004799
0.362146 0.173542 -0.003776
0.376638 0.178298 -0.001994
0.390927 0.184478 0.000474
0.404994 0.192268 0.003850
0.418816 0.201777 0.008424
0.431962 0.212604 0.014865
0.444380 0.224613 0.023553
0.456264 0.237817 0.034779
0.467812 0.252155 0.049014
0.479093 0.267404 0.066983
0.489888 0.283044 0.089552
0.500227 0.298827 0.117558
0.510158 0.314554 0.151925
0.519728 0.330065 0.186767
0.528995 0.345247 0.215362
0.538018 0.360030 0.240021
0.546865 0.374378 0.261957
0.555602 0.388288 0.281881
0.564297 0.401778 0.300251
0.573186 0.415058 0.317562
0.582518 0.428368 0.334245
0.592322 0.441739 0.350466
0.602620 0.455207 0.366357
0.613421 0.468802 0.382020
0.624720 0.482547 0.397533
0.636504 0.496457 0.412954
0.648749 0.510538 0.428328
0.661424 0.524790 0.443682
0.674492 0.539208 0.459038
0.687917 0.553781 0.474408
0.701659 0.568497 0.489798
0.715681 0.583341 0.505213
0.729948 0.598300 0.520652
0.744426 0.613360 0.536115
0.759085 0.628507 0.551601
0.773900 0.643730 0.567107
0.788847 0.659017 0.582630
0.803905 0.674359 0.598170
0.819057 0.689748 0.613722
0.834288 0.705175 0.629287
0.849585 0.720636 0.644861
0.864938 0.736124 0.660444
0.035640 0.086293 0.035267
0.036643 0.102845 0.027591
0.038631 0.118915 0.020029
0.048073 0.129822 0.016518
0.059760 0.138487 0.013705
0.073033 0.145349 0.011437
0.087392 0.150727 0.009611
0.102448 0.154880 0.008146
0.117899 0.157987 0.006982
0.133524 0.160228 0.006066
0.149176 0.161828 0.005353
0.165872 0.163117 0.004703
0.182743 0.164453 0.003852
0.199324 0.165573 0.003019
0.215648 0.166497 0.002215
0.231851 0.167386 0.001406
0.248177 0.168556 0.000496
0.264651 0.170087 -0.000512
0.281273 0.172026 -0.001608
0.298011 0.174385 -0.002769
0.314766 0.177135 -0.003906
0.331323 0.180201 -0.004797
0.347306 0.183419 -0.005005
0.362219 0.186548 -0.003951
0.376702 0.190470 -0.002135
0.390982 0.195659 0.000373
0.405042 0.202323 0.003793
0.418858 0.210612 0.008416
0.431998 0.220182 0.014912
0.444410 0.230963 0.023654
0.456291 0.243025 0.034937
0.467837 0.256349 0.049228
0.479117 0.270729 0.067252
0.489910 0.285651 0.089873
0.500248 0.300855 0.117928
0.510178 0.316123 0.152339
0.519748 0.331276 0.187074
0.529014 0.346183 0.215595
0.538037 0.360753 0.240202
0.546883 0.374939 0.262102
0.555620 0.388725 0.281997
0.564313 0.402121 0.300345
0.573202 0.415329 0.317640
0.582533 0.428582 0.334309
0.592337 0.441911 0.350519
0.602634 0.455345 0.366401
0.613433 0.468913 0.382057
0.624731 0.482637 0.397564
0.636514 0.496530 0.412980
0.648758 0.510598 0.428349
0.661431 0.524839 0.443700
0.674499 0.539248 0.459053
0.687923 0.553814 0.474420
0.701664 0.568524 0.489809
0.715686 0.583363 0.505222
0.729951 0.598319 0.520659
0.744429 0.613375 0.536121
0.759088 0.628520 0.551606
0.773902 0.643740 0.567111
0.788849 0.659026 0.582634
0.803906 0.674366 0.598172
0.819058 0.689754 0.613725
0.834289 0.705180 0.629289
0.849586 0.720640 0.644863
0.864939 0.736127 0.660445
0.032114 0.104385 0.031481
0.033056 0.121092 0.023778
0.038487 0.134798 0.018797
0.048263 0.145103 0.015918
0.059926 0.153637 0.013508
0.073015 0.160510 0.011474
0.087155 0.165742 0.009758
0.102033 0.169733 0.008318
0.117386 0.172771 0.007119
0.133006 0.175068 0.006131
0.148742 0.176791 0.005326
0.165589 0.178189 0.004614
0.182407 0.179422 0.003894
0.199247 0.180772 0.002918
0.215814 0.181923 0.001963
0.232146 0.182914 0.001044
0.248460 0.184006 0.000093
0.264915 0.185424 -0.000945
0.281510 0.187213 -0.002049
0.298213 0.189385 -0.003185
0.314929 0.191897 -0.004271
0.331454 0.194641 -0.005105
0.347413 0.197412 -0.005268
0.362308 0.199947 -0.004176
0.376779 0.203129 -0.002319
0.391050 0.207421 0.000238
0.405100 0.213039 0.003713
0.418908 0.220164 0.008398
0.432041 0.228500 0.014959
0.444448 0.238039 0.023771
0.456324 0.248911 0.035122
0.467868 0.261149 0.049481
0.479145 0.274579 0.067573
0.489937 0.288696 0.090258
0.500274 0.303241 0.118372
0.510203 0.317980 0.152836
0.519772 0.332717 0.187443
0.529037 0.347299 0.215875
0.538059 0.361620 0.240421
0.546905 0.375613 0.262276
0.555641 0.389252 0.282137
0.564333 0.402533 0.300459
0.573221 0.415655 0.317733
0.582551 0.428842 0.334386
0.592354 0.442118 0.350584
0.602650 0.455511 0.366455
0.613448 0.469048 0.382102
0.624745 0.482746 0.397601
0.636526 0.496618 0.413011
0.648769 0.510670 0.428375
0.661441 0.524898 0.443722
0.674507 0.539296 0.459071
0.687930 0.553853 0.474436
0.701670 0.568556 0.489821
0.715691 0.583390 0.505232
0.729956 0.598341 0.520668
0.744432 0.613394 0.536128
0.759091 0.628535 0.551612
0.773905 0.643753 0.567116
0.788851 0.659036 0.582638
0.803908 0.674375 0.598176
0.819060 0.689761 0.613728
0.834290 0.705186 0.629291
0.849587 0.720645 0.644865
0.864940 0.736131 0.660447
0.027816 0.126485 0.026807
0.030358 0.142154 0.020473
0.038435 0.153656 0.017715
0.048495 0.163120 0.015340
0.060144 0.170462 0.013273
0.073062 0.176261 0.011460
0.086977 0.180882 0.009865
0.101645 0.184569 0.008469
0.116851 0.187501 0.007258
0.132411 0.189820 0.006215
0.148178 0.191641 0.005328
0.165211 0.193196 0.004505
0.182217 0.194557 0.003714
0.198950 0.195758 0.002906
0.215801 0.197167 0.001773
0.232394 0.198396 0.000671
0.248780 0.199514 -0.000382
0.265223 0.200837 -0.001473
0.281795 0.202495 -0.002605
0.298462 0.204499 -0.003731
0.315136 0.206801 -0.004766
0.331619 0.209271 -0.005523
0.347544 0.211667 -0.005612
0.362416 0.213691 -0.004466
0.376874 0.216223 -0.002559
0.391132 0.219711 0.000058
0.405172 0.224373 0.003601
0.418971 0.230406 0.008361
0.432093 0.237549 0.015005
0.444493 0.245853 0.023901
0.456365 0.255508 0.035337
0.467906 0.266603 0.049780
0.479180 0.279005 0.067955
0.489970 0.292234 0.090719
0.500305 0.306037 0.118906
0.510233 0.320172 0.153435
0.519801 0.334427 0.187885
0.529065 0.348630 0.216210
