looks/PFE_ACEScct_003_Brejon.cube
TITLE "Generated by Foundry::LUT"
LUT_3D_SIZE 9
0.006051 0.006051 0.006051
0.046009 0.042860 0.043909
0.246395 0.005046 0.002223
0.376122 0.026144 -0.001305
0.478887 0.229396 0.064424
0.555448 0.384257 0.280825
0.636415 0.495797 0.412722
0.744399 0.613225 0.536061
0.864932 0.736095 0.660432
0.043716 0.044879 0.043715
0.119144 0.118030 0.006635
0.247497 0.123644 0.001380
0.376527 0.150708 -0.001769
0.479051 0.261076 0.066493
0.555571 0.387496 0.281672
0.636486 0.496325 0.412908
0.744420 0.613333 0.536104
0.864937 0.736118 0.660441
0.020692 0.201170 0.017735
0.115942 0.232050 0.007425
0.249015 0.245383 -0.001534
0.377299 0.257632 -0.003806
0.479338 0.296205 0.069570
0.555778 0.392634 0.283048
0.636605 0.497198 0.413216
0.744456 0.613514 0.536176
0.864945 0.736158 0.660457
0.038756 0.353110 0.005635
0.144357 0.358303 0.005852
0.252821 0.364947 0.003534
0.379866 0.376112 -0.016721
0.480761 0.373549 0.078998
0.556702 0.412417 0.288717
0.637134 0.500999 0.414570
0.744617 0.614314 0.536493
0.864983 0.736332 0.660528
0.239485 0.465300 0.063896
0.266574 0.466060 0.070618
0.298545 0.467271 0.080990
0.373718 0.472110 0.109348
0.484856 0.482138 0.082846
0.560906 0.470050 0.307493
0.639502 0.516763 0.420365
0.745345 0.617899 0.537922
0.865157 0.737123 0.660851
0.389542 0.545058 0.297916
0.392570 0.545264 0.299448
0.397391 0.545604 0.301912
0.416118 0.547092 0.311642
0.471042 0.553541 0.336310
0.570264 0.569337 0.330445
0.649452 0.568906 0.440406
0.748577 0.632973 0.544045
0.865945 0.740668 0.662302
0.497030 0.624007 0.430727
0.497543 0.624099 0.431010
0.498393 0.624252 0.431477
0.502092 0.624930 0.433519
0.517399 0.627944 0.441989
0.566955 0.640420 0.465518
0.668672 0.669008 0.464912
0.761697 0.684708 0.565329
0.869434 0.755622 0.668527
0.612215 0.730739 0.552778
0.612323 0.730767 0.552841
0.612502 0.730812 0.552946
0.613299 0.731015 0.553413
0.616861 0.731930 0.555503
0.631758 0.735967 0.564222
0.681331 0.752062 0.589059
0.785548 0.786341 0.590953
0.883471 0.807380 0.690171
0.734399 0.850915 0.676628
0.734422 0.850922 0.676642
0.734462 0.850932 0.676665
0.734636 0.850980 0.676769
0.735429 0.851199 0.677243
0.738977 0.852190 0.679361
0.753851 0.856544 0.688209
0.803615 0.873704 0.713525
0.908593 0.909502 0.716115
0.043875 0.042882 0.046751
0.123815 0.005694 0.123815
0.246397 0.006969 0.121219
0.376115 0.028510 0.126159
0.478855 0.231119 0.165978
0.555495 0.384549 0.293268
0.636460 0.495882 0.414423
0.744414 0.613247 0.536387
0.864935 0.736100 0.660501
0.019899 0.103004 0.098262
0.120970 0.120970 0.120970
0.249605 0.123066 0.117063
0.376711 0.151406 0.124428
0.479029 0.262144 0.167641
0.555619 0.387777 0.294005
0.636532 0.496410 0.414607
0.744435 0.613356 0.536430
0.864940 0.736124 0.660511
0.019183 0.215167 0.100751
0.117171 0.234109 0.113090
0.251633 0.246432 0.113757
0.377750 0.257226 0.120356
0.479333 0.296788 0.170039
0.555826 0.392897 0.295205
0.636651 0.497282 0.414910
0.744471 0.613536 0.536501
0.864949 0.736163 0.660527
0.040083 0.355055 0.104901
0.147315 0.359517 0.111520
0.254268 0.365485 0.117844
0.380505 0.376409 0.106130
0.480821 0.373598 0.176835
0.556750 0.412619 0.300175
0.637179 0.501081 0.416245
0.744632 0.614337 0.536818
0.864987 0.736337 0.660597
0.241287 0.465683 0.148655
0.267987 0.466413 0.156477
0.299623 0.467578 0.167673
0.374313 0.472272 0.193746
0.485065 0.482334 0.178360
0.560958 0.470134 0.316953
0.639545 0.516834 0.421961
0.745359 0.617921 0.538243
0.865161 0.737128 0.660920
0.389945 0.545224 0.306374
0.392965 0.545428 0.307789
0.397774 0.545766 0.310068
0.416459 0.547242 0.319140
0.471285 0.553651 0.342649
0.570368 0.569451 0.337724
0.649488 0.568951 0.441775
0.748590 0.632992 0.544353
0.865948 0.740673 0.662371
0.497148 0.624088 0.431777
0.497662 0.624180 0.432057
0.498511 0.624333 0.432522
0.502208 0.625010 0.434550
0.517509 0.628019 0.442970
0.567044 0.640479 0.466431
0.668716 0.669055 0.466020
0.761708 0.684721 0.565597
0.869437 0.755626 0.668592
0.612246 0.730763 0.552976
0.612354 0.730791 0.553039
0.612533 0.730836 0.553144
0.613330 0.731039 0.553610
0.616891 0.731954 0.555698
0.631787 0.735989 0.564409
0.681355 0.752079 0.589238
0.785560 0.786353 0.591174
0.883474 0.807383 0.690228
0.734406 0.850921 0.676670
0.734430 0.850927 0.676684
0.734469 0.850938 0.676707
0.734643 0.850986 0.676811
0.735436 0.851205 0.677284
0.738984 0.852196 0.679403
0.753857 0.856549 0.688248
0.803621 0.873708 0.713564
0.908596 0.909505 0.716163
0.004444 0.047218 0.247266
0.142710 0.020917 0.260736
0.248231 0.012270 0.248231
0.376083 0.037518 0.250724
0.478828 0.234386 0.250897
0.555577 0.385048 0.310544
0.636536 0.496024 0.417183
0.744438 0.613284 0.536926
0.864941 0.736109 0.660616
0.020146 0.148695 0.239534
0.139590 0.151862 0.253665
0.247453 0.132160 0.247453
0.376841 0.158734 0.249864
0.479017 0.264244 0.251430
0.555701 0.388256 0.311153
0.636607 0.496551 0.417362
0.744460 0.613393 0.536969
0.864946 0.736132 0.660625
0.027110 0.234491 0.231284
0.131572 0.241554 0.243974
0.247513 0.247513 0.247513
0.378133 0.258505 0.248157
0.479344 0.298004 0.252207
0.555909 0.393345 0.312147
0.636726 0.497423 0.417659
0.744496 0.613573 0.537040
0.864955 0.736171 0.660641
0.043057 0.357651 0.231082
0.149743 0.361234 0.236753
0.254819 0.366195 0.243103
0.381147 0.376953 0.244245
0.480923 0.373795 0.254445
0.556834 0.412966 0.316296
0.637253 0.501217 0.418964
0.744657 0.614374 0.537355
0.864993 0.736345 0.660712
0.243898 0.466322 0.235247
0.270080 0.467001 0.238831
0.301242 0.468091 0.244110
0.375242 0.472537 0.258962
0.485397 0.482659 0.254629
0.561044 0.470279 0.330636
0.639616 0.516954 0.424555
0.745384 0.617957 0.538775
0.865167 0.737137 0.661034
0.390602 0.545500 0.318791
0.393610 0.545701 0.320056
0.398398 0.546034 0.322096
0.417016 0.547492 0.330293
0.471686 0.553834 0.352245
0.570540 0.569642 0.348611
0.649549 0.569025 0.444006
0.748613 0.633025 0.544862
0.865954 0.740681 0.662484
0.497345 0.624223 0.433498
0.497858 0.624314 0.433775
0.498707 0.624467 0.434234
0.502401 0.625142 0.436240
0.517691 0.628143 0.444580
0.567192 0.640577 0.467931
0.668788 0.669133 0.467834
0.761727 0.684743 0.566041
0.869443 0.755634 0.668701
0.612297 0.730804 0.553304
0.612405 0.730831 0.553367
0.612585 0.730876 0.553472
0.613381 0.731079 0.553937
0.616942 0.731993 0.556021
0.631836 0.736026 0.564721
0.681394 0.752108 0.589536
0.785579 0.786373 0.591542
0.883478 0.807388 0.690323
0.734418 0.850930 0.676739
0.734442 0.850937 0.676754
0.734481 0.850948 0.676777
0.734655 0.850996 0.676881
0.735448 0.851215 0.677354
0.738996 0.852205 0.679471
0.753869 0.856558 0.688315
0.803630 0.873714 0.713627
0.908601 0.909509 0.716242
0.040230 0.176158 0.381653
0.181302 0.160720 0.384339
0.271189 0.128386 0.385237
0.377557 0.088766 0.377557
0.479032 0.253394 0.361490
0.555990 0.387431 0.360867
0.636875 0.496663 0.428493
0.744550 0.613451 0.539290
0.864968 0.736147 0.661126
0.050993 0.238701 0.379469
0.184546 0.234778 0.382280
0.270919 0.225118 0.383968
0.377589 0.200098 0.377589
0.479243 0.277629 0.361628
0.556113 0.390549 0.361228
0.636946 0.497187 0.428656
0.744571 0.613560 0.539331
0.864973 0.736171 0.661135
0.064265 0.287972 0.376553
0.188288 0.287832 0.379521
0.270829 0.286237 0.382177
0.377731 0.274328 0.377731
0.479605 0.306752 0.361844
0.556320 0.395501 0.361820
0.637064 0.498054 0.428926
0.744607 0.613740 0.539401
0.864982 0.736210 0.661151
0.091619 0.371318 0.367739
0.193461 0.372507 0.370654
0.268025 0.374190 0.374469
0.379401 0.379401 0.379401
0.481336 0.376474 0.362657
0.557243 0.414656 0.364332
0.637588 0.501829 0.430117
0.744767 0.614540 0.539711
0.865020 0.736384 0.661222
0.252210 0.469135 0.348824
0.276517 0.469656 0.350317
0.306076 0.470494 0.352614
0.378163 0.473892 0.360825
0.486661 0.484124 0.363864
0.561444 0.471019 0.373524
0.639934 0.517491 0.435238
0.745493 0.618118 0.541107
0.865194 0.737175 0.661543
0.393314 0.546720 0.358832
0.396275 0.546909 0.359737
0.400992 0.547223 0.361207
0.419346 0.548598 0.367234
0.473416 0.554638 0.385225
0.571292 0.570478 0.385148
0.649812 0.569354 0.453292
0.748716 0.633169 0.547097
0.865981 0.740718 0.662987
0.498208 0.624819 0.440781
0.498720 0.624910 0.441046
0.499566 0.625060 0.441484
0.503249 0.625728 0.443401
0.518494 0.628696 0.451413
0.567846 0.641010 0.474322
0.669110 0.669480 0.475497
0.761810 0.684838 0.567992
0.869467 0.755667 0.669183
0.612527 0.730982 0.554752
0.612635 0.731009 0.554814
0.612814 0.731055 0.554918
0.613610 0.731256 0.555380
0.617168 0.732169 0.557449
0.632051 0.736190 0.566094
0.681570 0.752235 0.590852
0.785665 0.786465 0.593162
0.883498 0.807410 0.690745
0.734471 0.850973 0.677049
0.734495 0.850979 0.677063
0.734534 0.850990 0.677086
0.734708 0.851038 0.677190
0.735501 0.851257 0.677662
0.739048 0.852247 0.679777
0.753919 0.856597 0.688609
0.803670 0.873744 0.713911
0.908620 0.909530 0.716594
0.158525 0.322510 0.485885
0.228361 0.320920 0.486272
0.282877 0.318223 0.486794
0.374759 0.306970 0.487735
0.485103 0.313048 0.485103
0.558610 0.400583 0.454064
0.638460 0.499680 0.466848
0.745057 0.614216 0.549331
0.865090 0.736323 0.663416
0.166127 0.334636 0.485620
0.231349 0.333358 0.486012
0.284154 0.331195 0.486552
0.374939 0.322195 0.487619
0.485199 0.326543 0.485199
0.558719 0.403291 0.454232
0.638528 0.500191 0.466971
0.745079 0.614324 0.549371
0.865096 0.736346 0.663425
0.177020 0.351368 0.485218
0.235947 0.350446 0.485619
0.286190 0.348888 0.486184
0.375265 0.342415 0.487447
0.485363 0.344992 0.485363
0.558901 0.407617 0.454508
0.638642 0.501038 0.467174
0.745114 0.614503 0.549436
0.865104 0.736385 0.663441
0.209459 0.399335 0.483917
0.252033 0.399097 0.484362
0.294210 0.398696 0.484973
0.376980 0.396915 0.486812
0.486145 0.397328 0.486145
0.559719 0.424591 0.455717
0.639148 0.504726 0.468071
0.745273 0.615299 0.549725
0.865142 0.736559 0.663510
0.286538 0.483176 0.476116
0.303573 0.483388 0.476813
0.326018 0.483729 0.477924
0.386616 0.485109 0.482177
0.490308 0.490308 0.490308
0.563534 0.476096 0.460653
0.641416 0.520045 0.471970
0.745992 0.618859 0.551027
0.865315 0.737349 0.663826
0.401750 0.552188 0.443403
0.404581 0.552337 0.443881
0.409099 0.552583 0.444667
0.426803 0.553664 0.448025
0.479794 0.558347 0.460936
0.574478 0.574077 0.467565
0.651011 0.570915 0.486253
0.749184 0.633833 0.556630
0.866101 0.740889 0.665248
0.501892 0.627473 0.468041
0.502398 0.627559 0.468267
0.503235 0.627702 0.468641
0.506877 0.628335 0.470283
0.521949 0.631153 0.477236
0.570736 0.642930 0.498787
0.670546 0.671024 0.504020
0.762180 0.685267 0.576376
0.869580 0.755820 0.671353
0.613558 0.731790 0.561087
0.613665 0.731816 0.561148
0.613844 0.731861 0.561249
0.614637 0.732060 0.561696
0.618184 0.732961 0.563701
0.633021 0.736935 0.572113
0.682368 0.752810 0.596631
0.786057 0.786881 0.600213
0.883588 0.807512 0.692646
0.734712 0.851166 0.678449
0.734736 0.851172 0.678463
0.734775 0.851183 0.678487
0.734949 0.851231 0.678590
0.735742 0.851449 0.679059
0.739286 0.852436 0.681159
0.754146 0.856774 0.689941
0.803856 0.873880 0.715196
0.908711 0.909626 0.718181
0.326794 0.447091 0.571449
0.335785 0.446898 0.571516
0.348821 0.446578 0.571627
0.389722 0.445193 0.572120
0.471511 0.439330 0.574353
0.577291 0.444591 0.577291
0.646186 0.514555 0.551779
0.747383 0.617765 0.584628
0.865649 0.737127 0.673174
0.328092 0.448979 0.571457
0.336943 0.448792 0.571524
0.349801 0.448484 0.571635
0.390297 0.447150 0.572127
0.471690 0.441516 0.574358
0.577339 0.446491 0.577339
0.646242 0.515014 0.551853
0.747403 0.617871 0.584659
0.865654 0.737150 0.673183
0.330206 0.452025 0.571471
0.338834 0.451849 0.571537
0.351406 0.451558 0.571648
0.391245 0.450304 0.572138
0.471990 0.445028 0.574367
0.577419 0.449559 0.577419
0.646334 0.515774 0.551974
0.747437 0.618046 0.584711
0.865663 0.737189 0.673198
0.338978 0.464318 0.571549
0.346740 0.464181 0.571614
0.358183 0.463955 0.571723
0.395351 0.462989 0.572204
0.473348 0.459015 0.574413
0.577777 0.461985 0.577777
0.646744 0.519085 0.552514
0.747589 0.618822 0.584941
0.865700 0.737362 0.673263
0.368554 0.503857 0.572213
0.374035 0.503828 0.572289
0.382414 0.503779 0.572406
0.411682 0.503528 0.572811
0.479842 0.502465 0.574740
0.579407 0.502647 0.579407
0.648598 0.532906 0.554910
0.748275 0.622298 0.585983
0.865872 0.738148 0.673559
0.427258 0.574257 0.563269
0.429536 0.574343 0.563484
0.433202 0.574486 0.563838
0.447900 0.575104 0.565370
0.494822 0.577624 0.571530
0.586406 0.586406 0.586406
0.656694 0.579271 0.564447
0.751328 0.636925 0.590502
0.866649 0.741668 0.674892
0.513859 0.638530 0.539036
0.514352 0.638600 0.539186
0.515169 0.638716 0.539436
0.518726 0.639232 0.540539
0.533507 0.641521 0.545398
0.581650 0.651017 0.564110
0.676567 0.677431 0.577864
0.763831 0.687251 0.606914
0.870093 0.756521 0.680629
0.617958 0.735350 0.585555
0.618064 0.735375 0.585609
0.618241 0.735417 0.585699
0.619026 0.735605 0.586098
0.622532 0.736457 0.587889
0.637189 0.740216 0.595487
0.685879 0.755342 0.619222
0.787798 0.788731 0.626950
0.883988 0.807970 0.700831
0.735798 0.852038 0.684590
0.735821 0.852045 0.684603
0.735861 0.852055 0.684626
0.736034 0.852102 0.684726
0.736824 0.852318 0.685181
0.740356 0.853292 0.687222
0.755168 0.857576 0.695790
0.804694 0.874496 0.720844
0.909120 0.910060 0.725099
0.494575 0.579926 0.667714
0.495507 0.579896 0.667741
0.497034 0.579847 0.667785
0.503480 0.579629 0.667987
0.527317 0.578610 0.668980
0.587173 0.572468 0.674597
0.683721 0.564331 0.683721
0.758036 0.634314 0.667598
0.868198 0.740840 0.707771
0.494780 0.580192 0.667729
0.495710 0.580163 0.667756
0.497233 0.580114 0.667800
0.503664 0.579898 0.668002
0.527455 0.578889 0.668992
0.587235 0.572803 0.674601
0.683738 0.564683 0.683738
0.758052 0.634409 0.667618
0.868203 0.740863 0.707778
0.495120 0.580634 0.667754
0.496046 0.580605 0.667781
0.497563 0.580557 0.667825
0.503969 0.580344 0.668026
0.527683 0.579350 0.669013
0.587337 0.573357 0.674607
0.683768 0.565267 0.683768
0.758079 0.634566 0.667651
0.868211 0.740901 0.707790
0.496614 0.582572 0.667866
0.497523 0.582545 0.667892
0.499014 0.582500 0.667936
0.505311 0.582300 0.668134
0.528693 0.581372 0.669105
0.587793 0.575777 0.674634
0.683900 0.567817 0.683900
0.758197 0.635265 0.667797
0.868247 0.741070 0.707843
0.502996 0.590847 0.668398
0.503842 0.590828 0.668421
0.505230 0.590796 0.668460
0.511103 0.590651 0.668641
0.533112 0.589975 0.669544
0.589873 0.585931 0.674768
0.684497 0.578576 0.684497
0.758736 0.638393 0.668460
0.868410 0.741836 0.708082
0.524659 0.620157 0.671095
0.525333 0.620162 0.671122
0.526443 0.620170 0.671165
0.531195 0.620199 0.671347
0.549564 0.620182 0.671981
0.599135 0.619835 0.675721
0.687136 0.615475 0.687136
0.761153 0.651589 0.671391
0.869150 0.745271 0.709162
0.554155 0.676532 0.663623
0.554543 0.676569 0.663690
0.555187 0.676630 0.663803
0.557999 0.676899 0.664302
0.569869 0.678087 0.666514
0.610613 0.682820 0.675363
0.697343 0.697343 0.697343
0.771398 0.697198 0.682868
0.872435 0.759772 0.713849
0.632382 0.749641 0.653487
0.632486 0.749661 0.653526
0.632658 0.749695 0.653589
0.633423 0.749846 0.653872
0.636843 0.750530 0.655153
0.651193 0.753546 0.660786
0.699048 0.765656 0.682232
0.795032 0.796306 0.698795
0.885771 0.810072 0.730821
0.740429 0.855875 0.708473
0.740452 0.855881 0.708485
0.740491 0.855891 0.708505
0.740662 0.855936 0.708595
0.741442 0.856139 0.709005
0.744933 0.857058 0.710845
0.759555 0.861104 0.718648
0.808383 0.877202 0.743034
0.910942 0.911990 0.751442
0.635818 0.708178 0.781876
0.635968 0.708173 0.781884
0.636216 0.708164 0.781898
0.637312 0.708123 0.781959
0.642104 0.707937 0.782241
0.660533 0.707047 0.783633
0.711092 0.700859 0.791452
0.803787 0.687883 0.803787
0.879706 0.757903 0.790314
0.635855 0.708226 0.781882
0.636005 0.708221 0.781890
0.636253 0.708212 0.781903
0.637348 0.708172 0.781964
0.642138 0.707986 0.782246
0.660561 0.707097 0.783637
0.711107 0.700923 0.791453
0.803791 0.687957 0.803791
0.879710 0.757923 0.790319
0.635917 0.708306 0.781891
0.636066 0.708301 0.781899
0.636314 0.708292 0.781913
0.637409 0.708252 0.781973
0.642195 0.708067 0.782255
0.660608 0.707181 0.783645
0.711132 0.701029 0.791455
0.803799 0.688079 0.803799
0.879716 0.757957 0.790327
0.636190 0.708662 0.781931
0.636339 0.708656 0.781940
0.636586 0.708647 0.781953
0.637677 0.708608 0.782013
0.642450 0.708426 0.782294
0.660816 0.707555 0.783678
0.711240 0.701500 0.791464
0.803832 0.688625 0.803832
0.879744 0.758109 0.790360
0.637420 0.710264 0.782118
0.637567 0.710259 0.782126
0.637811 0.710251 0.782139
0.638887 0.710214 0.782198
0.643597 0.710045 0.782473
0.661754 0.709240 0.783831
0.711737 0.703614 0.791506
0.803984 0.691069 0.803984
0.879870 0.758799 0.790514
0.642687 0.717200 0.782985
0.642827 0.717196 0.782992
0.643058 0.717191 0.783003
0.644080 0.717166 0.783056
0.648551 0.717052 0.783302
0.665849 0.716499 0.784543
0.713993 0.712559 0.791710
0.804669 0.701423 0.804669
0.880446 0.761890 0.791210
0.660649 0.742915 0.787073
0.660767 0.742917 0.787080
0.660965 0.742921 0.787093
0.661839 0.742937 0.787148
0.665696 0.743001 0.787383
0.680885 0.743095 0.788215
0.723836 0.743184 0.793096
0.807668 0.737400 0.807668
0.883024 0.774961 0.794286
0.680076 0.794689 0.781251
0.680155 0.794699 0.781268
0.680286 0.794715 0.781296
0.680866 0.794787 0.781420
0.683473 0.795114 0.781986
0.694560 0.796555 0.784487
0.733514 0.802236 0.794438
0.818912 0.818912 0.818912
0.893868 0.820458 0.806273
0.755613 0.871113 0.775797
0.755636 0.871118 0.775806
0.755673 0.871126 0.775820
0.755840 0.871161 0.775885
0.756599 0.871323 0.776179
0.759997 0.872057 0.777511
0.774285 0.875286 0.783365
0.822180 0.888133 0.805560
0.918494 0.919867 0.822844
0.764841 0.833886 0.903975
0.764871 0.833884 0.903977
0.764921 0.833883 0.903981
0.765144 0.833874 0.903995
0.766153 0.833836 0.904062
0.770577 0.833662 0.904372
0.787745 0.832818 0.905896
0.835936 0.826686 0.914395
0.927648 0.812546 0.927648
0.764849 0.833896 0.903977
0.764879 0.833894 0.903979
0.764929 0.833893 0.903982
0.765152 0.833884 0.903997
0.766161 0.833846 0.904063
0.770584 0.833672 0.904373
0.787751 0.832828 0.905897
0.835939 0.826699 0.914395
0.927649 0.812562 0.927649
0.764861 0.833912 0.903979
0.764891 0.833911 0.903981
0.764942 0.833909 0.903984
0.765165 0.833901 0.903999
0.766173 0.833863 0.904065
0.770596 0.833689 0.904375
0.787761 0.832846 0.905899
0.835945 0.826722 0.914396
0.927651 0.812588 0.927651
0.764918 0.833986 0.903989
0.764948 0.833985 0.903991
0.764998 0.833983 0.903994
0.765221 0.833975 0.904009
0.766229 0.833937 0.904076
0.770650 0.833764 0.904385
0.787805 0.832924 0.905907
0.835969 0.826822 0.914398
0.927659 0.812707 0.927659
0.765176 0.834324 0.904036
0.765206 0.834323 0.904037
0.765256 0.834321 0.904041
0.765478 0.834313 0.904055
0.766483 0.834276 0.904121
0.770892 0.834105 0.904429
0.788007 0.833281 0.905945
0.836080 0.827277 0.914408
0.927693 0.813247 0.927693
0.766336 0.835848 0.904248
0.766366 0.835847 0.904249
0.766415 0.835845 0.904253
0.766635 0.835838 0.904267
0.767629 0.835804 0.904331
0.771984 0.835646 0.904633
0.788920 0.834886 0.906118
0.836585 0.829318 0.914455
0.927850 0.815667 0.927850
0.771314 0.842471 0.905228
0.771342 0.842470 0.905230
0.771389 0.842469 0.905233
0.771599 0.842464 0.905245
0.772547 0.842442 0.905303
0.776704 0.842338 0.905572
0.792904 0.841829 0.906924
0.838878 0.837973 0.914684
0.928557 0.825930 0.928557
0.788322 0.867339 0.909767
0.788346 0.867340 0.909769
0.788387 0.867341 0.909772
0.788570 0.867345 0.909785
0.789397 0.867364 0.909844
0.793052 0.867437 0.910096
0.807502 0.867566 0.910992
0.848836 0.867799 0.916213
0.931646 0.861701 0.931646
0.805335 0.918041 0.904483
0.805352 0.918043 0.904487
0.805381 0.918047 0.904493
0.805506 0.918063 0.904521
0.806075 0.918139 0.904650
0.808633 0.918481 0.905233
0.819534 0.919989 0.907811
0.858056 0.925920 0.918048
0.943140 0.943140 0.943140
